; generated by PrusaSlicer 2.4.1+linux-x64-GTK3 on 2022-04-22 at 18:38:23 UTC

; 

; external perimeters extrusion width = 0.45mm
; perimeters extrusion width = 0.45mm
; infill extrusion width = 0.45mm
; solid infill extrusion width = 0.45mm
; top infill extrusion width = 0.40mm
; first layer extrusion width = 0.42mm

M73 P0 R130
M73 Q0 S132
M201 X1000 Y1000 Z200 E5000 ; sets maximum accelerations, mm/sec^2
M203 X200 Y200 Z12 E120 ; sets maximum feedrates, mm / sec
M204 P1250 R1250 T1250 ; sets acceleration (P, T) and retract acceleration (R), mm/sec^2
M205 X8.00 Y8.00 Z0.40 E4.50 ; sets the jerk limits, mm/sec
M205 S0 T0 ; sets the minimum extruding and travel feed rate, mm/sec
M107
;TYPE:Custom
M862.3 P "MK3S" ; printer model check
M862.1 P0.4 ; nozzle diameter check
M115 U3.10.1 ; tell printer latest fw version
G90 ; use absolute coordinates
M83 ; extruder relative mode
M104 S215 ; set extruder temp
M140 S60 ; set bed temp
M190 S60 ; wait for bed temp
M109 S215 ; wait for extruder temp
G28 W ; home all without mesh bed level
G80 ; mesh bed leveling
G1 Z0.2 F720
G1 Y-3 F1000 ; go outside print area
G92 E0
G1 X60 E9 F1000 ; intro line
G1 X100 E12.5 F1000 ; intro line
G92 E0
M221 S95

; Don't change E values below. Excessive value can damage the printer.

M907 E538 ; set extruder motor current
G21 ; set units to millimeters
G90 ; use absolute coordinates
M83 ; use relative distances for extrusion
M900 K0.05 ; Filament gcode LA 1.5
M900 K30 ; Filament gcode LA 1.0
M107
;LAYER_CHANGE
;Z:0.2
;HEIGHT:0.2
;BEFORE_LAYER_CHANGE
G92 E0.0
;0.2


G1 E-.8 F2100
G1 Z.4 F720
;AFTER_LAYER_CHANGE
;0.2
G1 X84.719 Y82.307 F10800
G1 Z.2 F720
G1 E.8 F2100
M204 S800
;TYPE:Skirt/Brim
;WIDTH:0.42
G1 F1200
G1 X87.707 Y79.319 E.13247
G1 X89.388 Y78.623 E.05704
G1 X160.612 Y78.623 E2.23321
G1 X162.293 Y79.319 E.05704
G1 X165.281 Y82.307 E.13247
G1 X165.977 Y83.988 E.05704
G1 X165.975 Y88.533 E.14251
G1 X164.375 Y126.114 E1.17939
G1 X163.681 Y127.693 E.0541
G1 X160.693 Y130.681 E.13247
G1 X159.012 Y131.377 E.05704
G1 X90.988 Y131.377 E2.13288
G1 X89.307 Y130.681 E.05704
G1 X86.319 Y127.693 E.13247
G1 X85.625 Y126.114 E.0541
G1 X84.025 Y88.533 E1.17939
G1 X84.023 Y83.988 E.14251
G1 X84.696 Y82.362 E.05516
M204 S1000
;WIPE_START
G1 F8640
G1 X87.011 Y80.022 E-.76
;WIPE_END
G1 E-.04 F2100
G1 Z.6 F720
G1 X87.258 Y83.878 F10800
G1 Z.2 F720
G1 E.8 F2100
M204 S800
G1 F1200
G1 X87.716 Y83.103 E.02823
G1 X88.425 Y82.392 E.0315
G1 X89.084 Y81.91 E.02558
G1 X91.053 Y81.286 E.06477
G1 X158.905 Y81.29 E2.12746
G1 X160.124 Y81.557 E.03911
G1 X161.249 Y82.13 E.03957
G1 X162.538 Y83.449 E.05783
G1 X162.999 Y84.353 E.03181
G1 X163.268 Y85.36 E.03269
G1 X163.314 Y87.659 E.07211
G1 X163.07 Y88.933 E.04067
G1 X162.523 Y90.066 E.03942
G1 X161.713 Y90.968 E.03802
G1 X161.713 Y124.318 E1.04565
G1 X161.399 Y125.63 E.04231
G1 X160.941 Y126.55 E.03223
G1 X160.004 Y127.581 E.04366
G1 X159.319 Y128.089 E.02674
G1 X157.347 Y128.713 E.06486
G1 X92.682 Y128.713 E2.02752
G1 X91.37 Y128.399 E.04231
G1 X90.45 Y127.941 E.03223
G1 X89.419 Y127.004 E.04366
G1 X88.911 Y126.319 E.02674
G1 X88.287 Y124.347 E.06486
G1 X88.287 Y90.975 E1.04635
G1 X87.52 Y90.127 E.03585
G1 X86.961 Y89.022 E.03882
G1 X86.684 Y87.614 E.045
G1 X86.737 Y85.335 E.07148
G1 X87.058 Y84.216 E.0365
G1 X87.227 Y83.93 E.01043
M204 S1000
G1 X87.547 Y84.119 F10800
M204 S800
G1 F1200
G1 X88 Y83.353 E.02791
G1 X88.682 Y82.669 E.03029
G1 X89.281 Y82.232 E.02323
G1 X91.082 Y81.664 E.05923
G1 X158.884 Y81.667 E2.1259
G1 X160.018 Y81.92 E.0364
G1 X161.049 Y82.451 E.03637
G1 X162.215 Y83.646 E.05235
G1 X162.653 Y84.506 E.03027
G1 X162.897 Y85.434 E.03008
G1 X162.937 Y87.647 E.0694
G1 X162.72 Y88.792 E.03655
G1 X162.196 Y89.877 E.03777
G1 X161.336 Y90.822 E.04005
G1 X161.336 Y124.295 E1.04953
G1 X161.038 Y125.519 E.03951
G1 X160.616 Y126.357 E.0294
G1 X159.739 Y127.312 E.04065
G1 X159.121 Y127.766 E.02407
G1 X157.318 Y128.336 E.05929
G1 X92.705 Y128.336 E2.0259
G1 X91.481 Y128.038 E.03951
M73 P0 R129
G1 X90.644 Y127.616 E.0294
G1 X89.688 Y126.739 E.04065
G1 X89.234 Y126.121 E.02407
G1 X88.664 Y124.318 E.05929
G1 X88.664 Y90.828 E1.05006
G1 X87.844 Y89.933 E.03804
M73 Q0 S131
G1 X87.309 Y88.876 E.03717
G1 X87.061 Y87.603 E.04066
G1 X87.113 Y85.369 E.07006
G1 X87.413 Y84.345 E.03345
G1 X87.516 Y84.171 E.00636
M204 S1000
G1 X87.836 Y84.36 F10800
M204 S800
G1 F1200
G1 X88.284 Y83.602 E.02759
G1 X88.938 Y82.946 E.02906
G1 X89.477 Y82.556 E.02085
G1 X91.111 Y82.041 E.05372
G1 X158.863 Y82.044 E2.12432
G1 X159.91 Y82.282 E.03365
G1 X160.847 Y82.771 E.03316
G1 X161.893 Y83.844 E.04697
G1 X162.294 Y84.622 E.02746
G1 X162.527 Y85.507 E.02869
G1 X162.56 Y87.633 E.06665
G1 X162.354 Y88.695 E.03393
G1 X161.87 Y89.685 E.03457
G1 X160.959 Y90.674 E.04213
G1 X160.959 Y124.271 E1.05343
G1 X160.677 Y125.406 E.03667
G1 X160.293 Y126.161 E.02656
G1 X159.476 Y127.041 E.03764
G1 X158.924 Y127.444 E.02142
G1 X157.289 Y127.959 E.05375
G1 X92.729 Y127.959 E2.02426
G1 X91.594 Y127.677 E.03667
G1 X90.839 Y127.293 E.02656
G1 X89.959 Y126.476 E.03764
G1 X89.556 Y125.924 E.02142
G1 X89.041 Y124.289 E.05375
G1 X89.041 Y90.679 E1.05382
G1 X88.168 Y89.739 E.04021
G1 X87.658 Y88.729 E.03549
G1 X87.439 Y87.592 E.03632
G1 X87.489 Y85.403 E.06863
G1 X87.767 Y84.476 E.03037
G1 X87.805 Y84.411 E.00234
M204 S1000
G1 X88.125 Y84.6 F10800
M204 S800
G1 F1200
G1 X88.568 Y83.852 E.02727
G1 X89.194 Y83.223 E.02782
G1 X89.672 Y82.88 E.01845
G1 X91.14 Y82.418 E.04824
G1 X158.842 Y82.421 E2.12277
G1 X159.757 Y82.628 E.02941
G1 X160.646 Y83.091 E.03144
G1 X161.57 Y84.041 E.04155
G1 X161.949 Y84.776 E.02591
G1 X162.156 Y85.579 E.026
G1 X162.182 Y87.617 E.06393
G1 X161.99 Y88.597 E.03129
G1 X161.545 Y89.492 E.03135
G1 X160.582 Y90.525 E.04426
G1 X160.582 Y124.248 E1.05736
G1 X160.317 Y125.292 E.03378
G1 X159.97 Y125.964 E.02372
G1 X159.214 Y126.769 E.03463
G1 X158.728 Y127.12 E.01879
G1 X157.261 Y127.582 E.04825
G1 X92.752 Y127.582 E2.02261
G1 X91.708 Y127.317 E.03378
G1 X91.036 Y126.97 E.02372
G1 X90.231 Y126.214 E.03463
G1 X89.88 Y125.728 E.01879
G1 X89.418 Y124.261 E.04825
G1 X89.418 Y90.529 E1.05762
G1 X88.493 Y89.544 E.04237
G1 X88.006 Y88.583 E.03379
G1 X87.816 Y87.581 E.03198
G1 X87.866 Y85.439 E.06718
G1 X88.106 Y84.657 E.02564
M204 S1000
G1 X88.465 Y84.77 F10800
M204 S800
G1 F1200
G1 X88.852 Y84.101 E.02424
G1 X89.45 Y83.501 E.02657
G1 X89.866 Y83.204 E.01603
G1 X91.168 Y82.795 E.0428
G1 X158.82 Y82.798 E2.12118
G1 X159.648 Y82.989 E.02662
G1 X160.443 Y83.41 E.02823
G1 X161.248 Y84.239 E.03621
G1 X161.604 Y84.929 E.02435
G1 X161.785 Y85.648 E.02326
G1 X161.805 Y87.601 E.06123
G1 X161.625 Y88.496 E.02864
G1 X161.221 Y89.297 E.02812
G1 X160.205 Y90.374 E.04643
G1 X160.205 Y124.223 E1.0613
G1 X159.958 Y125.175 E.03084
G1 X159.649 Y125.765 E.02087
G1 X158.954 Y126.496 E.03162
G1 X158.534 Y126.796 E.01619
G1 X157.232 Y127.205 E.0428
G1 X92.777 Y127.205 E2.02094
G1 X91.825 Y126.958 E.03084
G1 X91.235 Y126.649 E.02087
G1 X90.504 Y125.954 E.03162
G1 X90.204 Y125.534 E.01619
G1 X89.795 Y124.232 E.0428
G1 X89.795 Y90.378 E1.06146
G1 X88.815 Y89.347 E.0446
G1 X88.371 Y88.484 E.03044
G1 X88.194 Y87.569 E.02922
M73 P1 R129
G1 X88.242 Y85.475 E.06567
G1 X88.447 Y84.828 E.02129
M204 S1000
G1 X88.804 Y84.944 F10800
M204 S800
G1 F1200
G1 X88.825 Y84.88 E.00214
G1 X89.136 Y84.35 E.01925
G1 X89.705 Y83.779 E.02528
G1 X90.059 Y83.53 E.01357
G1 X91.197 Y83.172 E.03741
G1 X158.798 Y83.176 E2.11958
G1 X159.536 Y83.35 E.02377
M73 Q1 S131
G1 X160.239 Y83.728 E.02502
G1 X160.927 Y84.438 E.031
G1 X161.244 Y85.043 E.02141
G1 X161.413 Y85.718 E.02183
G1 X161.428 Y87.585 E.05853
G1 X161.277 Y88.35 E.02444
G1 X160.897 Y89.102 E.02641
G1 X159.828 Y90.223 E.04857
G1 X159.828 Y124.198 E1.06527
G1 X159.6 Y125.056 E.02785
G1 X159.329 Y125.563 E.01801
G1 X158.696 Y126.22 E.02862
G1 X158.341 Y126.47 E.01361
G1 X157.203 Y126.828 E.03741
G1 X92.802 Y126.828 E2.01925
G1 X91.944 Y126.6 E.02785
G1 X91.437 Y126.329 E.01801
G1 X90.78 Y125.696 E.02862
G1 X90.53 Y125.341 E.01361
G1 X90.172 Y124.203 E.03741
G1 X90.172 Y90.226 E1.06534
G1 X89.136 Y89.147 E.04689
G1 X88.735 Y88.383 E.02707
G1 X88.571 Y87.556 E.02641
G1 X88.618 Y85.512 E.06411
G1 X88.785 Y85.001 E.01686
M204 S1000
G1 X89.141 Y85.122 F10800
M204 S800
G1 F1200
G1 X89.176 Y85.019 E.00341
G1 X89.42 Y84.599 E.01526
G1 X89.959 Y84.057 E.02395
G1 X90.25 Y83.856 E.01108
G1 X91.226 Y83.549 E.03208
G1 X158.775 Y83.553 E2.11795
G1 X159.421 Y83.71 E.02087
G1 X160.032 Y84.044 E.02183
G1 X160.605 Y84.637 E.02585
G1 X160.898 Y85.197 E.01982
G1 X161.042 Y85.785 E.01898
G1 X161.051 Y87.567 E.05587
G1 X160.913 Y88.248 E.0218
G1 X160.575 Y88.904 E.02312
G1 X159.451 Y90.07 E.05079
G1 X159.451 Y124.172 E1.06925
G1 X159.242 Y124.934 E.02478
G1 X159.012 Y125.359 E.01515
G1 X158.44 Y125.943 E.02562
G1 X158.15 Y126.144 E.01106
G1 X157.174 Y126.451 E.03208
G1 X92.828 Y126.451 E2.01753
G1 X92.066 Y126.242 E.02478
G1 X91.641 Y126.012 E.01515
G1 X91.057 Y125.44 E.02562
G1 X90.856 Y125.15 E.01106
G1 X90.549 Y124.174 E.03207
G1 X90.549 Y90.072 E1.06925
G1 X89.455 Y88.945 E.04924
G1 X89.099 Y88.279 E.02369
G1 X88.948 Y87.544 E.02354
G1 X88.995 Y85.551 E.06249
G1 X89.121 Y85.179 E.01232
M204 S1000
G1 X89.474 Y85.305 F10800
M204 S800
G1 F1200
G1 X89.525 Y85.163 E.00474
G1 X89.705 Y84.847 E.01142
G1 X90.214 Y84.337 E.02257
G1 X90.439 Y84.183 E.00855
G1 X91.255 Y83.926 E.02682
G1 X158.752 Y83.93 E2.11635
G1 X159.262 Y84.053 E.01644
M73 P1 R128
M73 Q1 S130
G1 X159.826 Y84.361 E.02015
G1 X160.284 Y84.836 E.02067
G1 X160.553 Y85.35 E.0182
G1 X160.67 Y85.849 E.01606
G1 X160.674 Y87.547 E.05326
G1 X160.549 Y88.144 E.01911
G1 X160.255 Y88.703 E.01981
G1 X159.074 Y89.916 E.05309
G1 X159.074 Y124.145 E1.07323
G1 X158.886 Y124.809 E.02163
G1 X158.696 Y125.151 E.01229
G1 X158.186 Y125.663 E.02264
G1 X157.961 Y125.817 E.00855
G1 X157.145 Y126.074 E.02682
G1 X92.855 Y126.074 E2.01579
G1 X92.191 Y125.886 E.02163
G1 X91.849 Y125.696 E.01229
G1 X91.337 Y125.186 E.02264
G1 X91.183 Y124.961 E.00855
G1 X90.926 Y124.145 E.02682
G1 X90.926 Y89.918 E1.07319
G1 X89.775 Y88.743 E.05157
G1 X89.445 Y88.126 E.02195
G1 X89.326 Y87.532 E.019
G1 X89.371 Y85.592 E.06085
G1 X89.453 Y85.362 E.00766
M204 S1000
G1 X89.808 Y85.489 F10800
M204 S800
G1 F1200
G1 X89.874 Y85.307 E.00606
G1 X90.018 Y85.059 E.00899
G1 X90.464 Y84.619 E.01966
G1 X90.625 Y84.512 E.00606
G1 X91.284 Y84.303 E.02167
G1 X158.731 Y84.307 E2.11475
G1 X159.103 Y84.396 E.01202
G1 X159.619 Y84.678 E.01845
G1 X159.962 Y85.034 E.01548
G1 X160.207 Y85.502 E.01655
G1 X160.297 Y85.909 E.01307
G1 X160.297 Y87.527 E.05072
G1 X160.187 Y88.037 E.01637
G1 X159.937 Y88.499 E.01648
G1 X158.697 Y89.761 E.05548
G1 X158.697 Y124.117 E1.0772
G1 X158.531 Y124.68 E.01838
G1 X158.382 Y124.94 E.00942
G1 X157.936 Y125.381 E.01967
G1 X157.775 Y125.488 E.00606
G1 X157.116 Y125.697 E.02167
G1 X92.883 Y125.697 E2.01399
G1 X92.32 Y125.531 E.01838
G1 X92.06 Y125.382 E.00942
G1 X91.619 Y124.936 E.01967
G1 X91.512 Y124.775 E.00606
G1 X91.303 Y124.116 E.02167
G1 X91.303 Y89.762 E1.07716
G1 X90.094 Y88.541 E.05388
G1 X89.791 Y87.974 E.02017
G1 X89.703 Y87.519 E.01451
G1 X89.737 Y85.689 E.05738
G1 X89.788 Y85.545 E.0048
M204 S1000
G1 X90.143 Y85.673 F10800
M204 S800
G1 F1200
G1 X90.222 Y85.452 E.00733
G1 X90.328 Y85.275 E.00646
G1 X90.711 Y84.904 E.01673
G1 X90.807 Y84.843 E.00358
G1 X91.313 Y84.68 E.01667
G1 X158.709 Y84.684 E2.11314
G1 X158.95 Y84.741 E.00777
G1 X159.37 Y84.963 E.01488
G1 X159.67 Y85.274 E.01357
G1 X159.859 Y85.649 E.01316
G1 X159.92 Y85.929 E.00898
G1 X159.92 Y87.508 E.04951
G1 X159.842 Y87.882 E.01199
G1 X159.618 Y88.296 E.01474
G1 X158.32 Y89.606 E.05784
G1 X158.32 Y124.088 E1.08116
G1 X158.179 Y124.545 E.015
G1 X158.072 Y124.725 E.00656
G1 X157.689 Y125.096 E.01672
G1 X157.593 Y125.157 E.00358
G1 X157.087 Y125.32 E.01667
G1 X92.912 Y125.32 E2.01214
G1 X92.455 Y125.179 E.015
G1 X92.275 Y125.072 E.00656
G1 X91.904 Y124.689 E.01672
G1 X91.843 Y124.593 E.00358
G1 X91.68 Y124.087 E.01667
G1 X91.68 Y89.605 E1.08114
G1 X90.413 Y88.338 E.05618
G1 X90.138 Y87.823 E.01832
G1 X90.08 Y87.507 E.01008
G1 X90.102 Y85.787 E.05393
G1 X90.123 Y85.729 E.00192
M204 S1000
G1 X90.478 Y85.856 F10800
M204 S800
G1 F1200
G1 X90.57 Y85.6 E.00854
G1 X90.634 Y85.497 E.0038
G1 X90.953 Y85.194 E.0138
G1 X91.344 Y85.057 E.01299
G1 X158.687 Y85.061 E2.11149
G1 X158.802 Y85.088 E.00369
G1 X159.127 Y85.252 E.01144
G1 X159.348 Y85.473 E.00978
G1 X159.511 Y85.796 E.01136
G1 X159.543 Y85.947 E.00484
G1 X159.543 Y87.491 E.04839
G1 X159.496 Y87.729 E.00761
G1 X159.3 Y88.092 E.01293
G1 X157.943 Y89.449 E.06018
G1 X157.943 Y124.056 E1.08507
G1 X157.829 Y124.402 E.01143
G1 X157.766 Y124.503 E.00372
G1 X157.447 Y124.806 E.0138
G1 X157.056 Y124.943 E.01299
G1 X92.944 Y124.943 E2.01018
G1 X92.598 Y124.829 E.01143
G1 X92.497 Y124.766 E.00372
G1 X92.194 Y124.447 E.0138
G1 X92.057 Y124.056 E.01299
G1 X92.057 Y89.449 E1.08507
G1 X90.701 Y88.093 E.06012
G1 X90.487 Y87.679 E.01461
G1 X90.457 Y87.494 E.00587
G1 X90.468 Y85.915 E.04954
M204 S1000
G1 X90.834 Y85.979 F10800
M204 S800
G1 F1200
G1 X90.932 Y85.728 E.00845
G1 X91.166 Y85.511 E.01002
G1 X91.379 Y85.434 E.00709
G1 X158.635 Y85.434 E2.10876
G1 X158.885 Y85.544 E.00856
G1 X159.056 Y85.715 E.00758
G1 X159.166 Y85.965 E.00856
G1 X159.166 Y87.476 E.04739
G1 X159.147 Y87.585 E.00346
G1 X159.011 Y87.847 E.00925
G1 X157.566 Y89.293 E.0641
G1 X157.566 Y124.021 E1.08887
G1 X157.484 Y124.248 E.00757
G1 X157.234 Y124.489 E.0109
G1 X157.021 Y124.566 E.00709
G1 X92.979 Y124.566 E2.00798
G1 X92.752 Y124.484 E.00757
G1 X92.511 Y124.234 E.0109
G1 X92.434 Y124.021 E.00709
G1 X92.434 Y89.293 E1.08887
G1 X90.989 Y87.847 E.0641
G1 X90.853 Y87.585 E.00925
G1 X90.834 Y87.476 E.00346
G1 X90.834 Y86.039 E.04506
M204 S1000
G1 X91.211 Y86.039 F10800
M204 S800
G1 F1200
G1 X91.24 Y85.952 E.00288
G1 X91.352 Y85.84 E.00495
G1 X91.421 Y85.811 E.00235
G1 X158.579 Y85.811 E2.10569
G1 X158.648 Y85.84 E.00235
M73 P2 R128
G1 X158.76 Y85.952 E.00495
G1 X158.789 Y86.021 E.00235
G1 X158.783 Y87.485 E.04589
G1 X158.723 Y87.602 E.00412
M73 Q2 S130
G1 X157.189 Y89.137 E.06805
G1 X157.189 Y123.979 E1.09245
G1 X157.16 Y124.048 E.00235
G1 X157.048 Y124.16 E.00495
G1 X156.979 Y124.189 E.00235
G1 X93.021 Y124.189 E2.00535
G1 X92.952 Y124.16 E.00235
M73 P2 R127
M73 Q2 S129
G1 X92.84 Y124.048 E.00495
G1 X92.811 Y123.979 E.00235
G1 X92.811 Y89.137 E1.09245
G1 X91.277 Y87.602 E.06805
G1 X91.211 Y87.456 E.00503
G1 X91.211 Y86.099 E.04253
M204 S1000
; printing object body.stl id:0 copy 0
G1 X91.71 Y86.31 F10800
M204 S800
;TYPE:External perimeter
G1 F1200
G1 X158.29 Y86.31 E2.08757
G1 X158.29 Y87.33 E.03199
G1 X156.69 Y88.93 E.07095
G1 X156.69 Y123.69 E1.08987
G1 X93.31 Y123.69 E1.98724
G1 X93.31 Y88.93 E1.08987
G1 X91.71 Y87.33 E.07095
G1 X91.71 Y86.37 E.03011
M204 S1000
G1 X92.087 Y86.444 F10800
G1 X92.087 Y86.687
M204 S800
;TYPE:Perimeter
G1 F1200
G1 X157.913 Y86.687 E2.06392
G1 X157.913 Y87.174 E.01527
G1 X156.313 Y88.774 E.07095
G1 X156.313 Y123.313 E1.08294
G1 X93.687 Y123.313 E1.96359
G1 X93.687 Y88.774 E1.08294
G1 X92.087 Y87.174 E.07095
G1 X92.087 Y86.747 E.01339
M204 S1000
;WIPE_START
G1 F8640
G1 X95.379 Y86.744 E-.76
;WIPE_END
G1 E-.04 F2100
G1 Z.6 F720
G1 X144.701 Y100.064 F10800
G1 Z.2 F720
G1 E.8 F2100
M204 S800
;TYPE:External perimeter
G1 F1200
G1 X145.035 Y99.182 E.02958
G1 X145.571 Y98.405 E.02958
G1 X146.277 Y97.78 E.02958
G1 X147.112 Y97.341 E.02958
G1 X148.028 Y97.116 E.02958
G1 X148.972 Y97.116 E.02958
G1 X149.888 Y97.341 E.02958
G1 X150.723 Y97.78 E.02958
G1 X151.429 Y98.405 E.02958
G1 X151.965 Y99.182 E.02958
G1 X152.299 Y100.064 E.02958
G1 X152.413 Y101 E.02958
G1 X152.299 Y101.936 E.02958
G1 X151.965 Y102.818 E.02958
G1 X151.429 Y103.595 E.02958
G1 X150.723 Y104.22 E.02958
G1 X149.888 Y104.659 E.02958
G1 X148.972 Y104.884 E.02958
G1 X148.028 Y104.884 E.02958
G1 X147.112 Y104.659 E.02958
G1 X146.277 Y104.22 E.02958
G1 X145.571 Y103.595 E.02958
G1 X145.035 Y102.818 E.02958
G1 X144.701 Y101.936 E.02958
G1 X144.587 Y101 E.02958
G1 X144.693 Y100.123 E.0277
M204 S1000
G1 X144.412 Y99.786 F10800
G1 X144.332 Y99.973
M204 S800
;TYPE:Perimeter
G1 F1200
