; generated by PrusaSlicer 2.4.1+linux-x64-GTK3 on 2022-04-22 at 20:51:43 UTC

; 

; external perimeters extrusion width = 0.45mm
; perimeters extrusion width = 0.45mm
; infill extrusion width = 0.45mm
; solid infill extrusion width = 0.45mm
; top infill extrusion width = 0.40mm
; first layer extrusion width = 0.42mm

M73 P0 R32
M73 Q0 S32
M201 X1000 Y1000 Z200 E5000 ; sets maximum accelerations, mm/sec^2
M203 X200 Y200 Z12 E120 ; sets maximum feedrates, mm / sec
M204 P1250 R1250 T1250 ; sets acceleration (P, T) and retract acceleration (R), mm/sec^2
M205 X8.00 Y8.00 Z0.40 E4.50 ; sets the jerk limits, mm/sec
M205 S0 T0 ; sets the minimum extruding and travel feed rate, mm/sec
M107
;TYPE:Custom
M862.3 P "MK3S" ; printer model check
M862.1 P0.4 ; nozzle diameter check
M115 U3.10.1 ; tell printer latest fw version
G90 ; use absolute coordinates
M83 ; extruder relative mode
M104 S215 ; set extruder temp
M140 S60 ; set bed temp
M190 S60 ; wait for bed temp
M109 S215 ; wait for extruder temp
G28 W ; home all without mesh bed level
G80 ; mesh bed leveling
G1 Z0.2 F720
G1 Y-3 F1000 ; go outside print area
G92 E0
G1 X60 E9 F1000 ; intro line
G1 X100 E12.5 F1000 ; intro line
G92 E0
M221 S95

; Don't change E values below. Excessive value can damage the printer.

M907 E538 ; set extruder motor current
G21 ; set units to millimeters
G90 ; use absolute coordinates
M83 ; use relative distances for extrusion
M900 K0.05 ; Filament gcode LA 1.5
M900 K30 ; Filament gcode LA 1.0
M107
;LAYER_CHANGE
;Z:0.2
;HEIGHT:0.2
;BEFORE_LAYER_CHANGE
G92 E0.0
;0.2


G1 E-.8 F2100
G1 Z.4 F720
;AFTER_LAYER_CHANGE
;0.2
G1 X83.019 Y82.307 F10800
G1 Z.2 F720
G1 E.8 F2100
M204 S800
;TYPE:Skirt/Brim
;WIDTH:0.42
G1 F1200
G1 X86.007 Y79.319 E.13247
G1 X87.688 Y78.623 E.05704
G1 X162.312 Y78.623 E2.33981
G1 X163.993 Y79.319 E.05704
M73 P0 R31
G1 X166.981 Y82.307 E.13247
G1 X167.677 Y83.988 E.05704
G1 X167.677 Y126.012 E1.31766
G1 X166.981 Y127.693 E.05704
G1 X163.993 Y130.681 E.13247
G1 X162.312 Y131.377 E.05704
G1 X87.688 Y131.377 E2.33981
G1 X86.007 Y130.681 E.05704
M73 Q0 S31
G1 X83.019 Y127.693 E.13247
G1 X82.323 Y126.012 E.05704
G1 X82.323 Y83.988 E1.31766
G1 X82.996 Y82.362 E.05516
M204 S1000
;WIPE_START
M73 P1 R31
M73 Q1 S31
G1 F8640
G1 X85.311 Y80.022 E-.76
;WIPE_END
G1 E-.04 F2100
G1 Z.6 F720
G1 X85.645 Y83.681 F10800
G1 Z.2 F720
G1 E.8 F2100
M204 S800
G1 F1200
G1 X85.759 Y83.45 E.00808
G1 X86.696 Y82.419 E.04366
G1 X87.381 Y81.911 E.02674
G1 X89.353 Y81.287 E.06487
G1 X160.589 Y81.29 E2.23356
G1 X161.61 Y81.484 E.03256
G1 X162.588 Y81.9 E.03333
G1 X163.712 Y82.796 E.04508
G1 X164.605 Y84.134 E.05044
G1 X165.013 Y85.679 E.05011
G1 X165.013 Y124.318 E1.2115
G1 X164.699 Y125.63 E.04231
G1 X164.241 Y126.55 E.03223
G1 X163.304 Y127.581 E.04366
G1 X162.619 Y128.089 E.02674
G1 X160.647 Y128.713 E.06486
G1 X89.382 Y128.713 E2.23446
G1 X88.07 Y128.399 E.04231
G1 X87.15 Y127.941 E.03223
G1 X86.119 Y127.004 E.04366
G1 X85.611 Y126.319 E.02674
G1 X84.987 Y124.347 E.06486
G1 X84.987 Y85.682 E1.21231
G1 X85.301 Y84.37 E.04231
G1 X85.618 Y83.734 E.02226
M204 S1000
G1 X85.953 Y83.903 F10800
M204 S800
G1 F1200
G1 X86.084 Y83.643 E.00912
G1 X86.961 Y82.688 E.04065
G1 X87.579 Y82.234 E.02407
G1 X89.382 Y81.664 E.05929
G1 X160.571 Y81.667 E2.23208
G1 X161.517 Y81.85 E.03023
G1 X162.415 Y82.236 E.03062
G1 X163.453 Y83.071 E.0418
G1 X164.249 Y84.262 E.0449
G1 X164.636 Y85.704 E.04682
G1 X164.636 Y124.295 E1.20999
G1 X164.338 Y125.519 E.03951
M73 P2 R31
M73 Q2 S31
G1 X163.916 Y126.357 E.0294
G1 X163.039 Y127.312 E.04065
G1 X162.421 Y127.766 E.02407
G1 X160.618 Y128.336 E.05929
G1 X89.405 Y128.336 E2.23283
G1 X88.181 Y128.038 E.03951
G1 X87.343 Y127.616 E.0294
G1 X86.388 Y126.739 E.04065
G1 X85.934 Y126.121 E.02407
G1 X85.364 Y124.318 E.05929
G1 X85.364 Y85.705 E1.21068
G1 X85.662 Y84.481 E.03951
G1 X85.926 Y83.957 E.0184
M204 S1000
G1 X86.26 Y84.127 F10800
M204 S800
G1 F1200
G1 X86.407 Y83.839 E.01015
G1 X87.224 Y82.959 E.03764
G1 X87.776 Y82.556 E.02142
G1 X89.411 Y82.041 E.05375
G1 X160.552 Y82.044 E2.23059
G1 X161.424 Y82.216 E.02786
G1 X162.24 Y82.571 E.0279
G1 X163.193 Y83.345 E.03848
G1 X163.917 Y84.443 E.04126
G1 X164.259 Y85.728 E.0417
G1 X164.259 Y124.271 E1.2085
G1 X163.977 Y125.406 E.03667
G1 X163.593 Y126.161 E.02656
G1 X162.776 Y127.041 E.03764
G1 X162.224 Y127.444 E.02142
G1 X160.589 Y127.959 E.05375
G1 X89.429 Y127.959 E2.2312
G1 X88.294 Y127.677 E.03667
G1 X87.539 Y127.293 E.02656
G1 X86.659 Y126.476 E.03764
G1 X86.256 Y125.924 E.02142
G1 X85.741 Y124.289 E.05375
G1 X85.741 Y85.729 E1.20905
G1 X86.023 Y84.594 E.03667
G1 X86.233 Y84.181 E.01453
M204 S1000
G1 X86.566 Y84.353 F10800
M204 S800
G1 F1200
G1 X86.73 Y84.036 E.01118
G1 X87.486 Y83.231 E.03463
G1 X87.972 Y82.88 E.01879
G1 X89.44 Y82.418 E.04825
G1 X160.533 Y82.421 E2.22909
G1 X161.329 Y82.581 E.02545
M73 P3 R31
M73 Q3 S31
G1 X162.064 Y82.905 E.02518
G1 X162.93 Y83.617 E.03516
G1 X163.585 Y84.623 E.03763
G1 X163.882 Y85.752 E.03663
G1 X163.882 Y124.248 E1.20699
G1 X163.617 Y125.292 E.03378
G1 X163.27 Y125.964 E.02372
G1 X162.514 Y126.769 E.03463
G1 X162.028 Y127.12 E.01879
G1 X160.561 Y127.582 E.04825
G1 X89.452 Y127.582 E2.22955
G1 X88.408 Y127.317 E.03378
G1 X87.736 Y126.97 E.02372
G1 X86.931 Y126.214 E.03463
G1 X86.58 Y125.728 E.01879
G1 X86.118 Y124.261 E.04825
G1 X86.118 Y85.752 E1.2074
G1 X86.383 Y84.708 E.03378
G1 X86.539 Y84.406 E.01066
M204 S1000
G1 X86.87 Y84.58 F10800
M204 S800
G1 F1200
G1 X87.051 Y84.235 E.0122
G1 X87.746 Y83.504 E.03162
G1 X88.166 Y83.204 E.01619
G1 X89.468 Y82.795 E.0428
G1 X160.514 Y82.798 E2.2276
G1 X161.196 Y82.935 E.02178
M73 P3 R30
G1 X161.887 Y83.239 E.02369
G1 X162.667 Y83.888 E.03181
G1 X163.229 Y84.75 E.03225
G1 X163.505 Y85.778 E.03337
G1 X163.505 Y124.223 E1.20543
G1 X163.258 Y125.175 E.03084
M73 Q3 S30
G1 X162.949 Y125.765 E.02087
G1 X162.254 Y126.496 E.03162
G1 X161.834 Y126.796 E.01619
G1 X160.532 Y127.205 E.0428
G1 X89.477 Y127.205 E2.22788
G1 X88.525 Y126.958 E.03084
M73 P4 R30
M73 Q4 S30
G1 X87.935 Y126.649 E.02087
G1 X87.204 Y125.954 E.03162
G1 X86.904 Y125.534 E.01619
G1 X86.495 Y124.232 E.0428
G1 X86.495 Y85.777 E1.20573
G1 X86.742 Y84.825 E.03084
G1 X86.842 Y84.633 E.00679
M204 S1000
G1 X87.172 Y84.809 F10800
M204 S800
G1 F1200
G1 X87.371 Y84.437 E.01322
G1 X88.004 Y83.78 E.02862
G1 X88.359 Y83.53 E.01361
G1 X89.497 Y83.172 E.03741
G1 X160.495 Y83.176 E2.22609
G1 X161.099 Y83.3 E.01933
G1 X161.708 Y83.572 E.02093
G1 X162.401 Y84.157 E.02843
G1 X162.895 Y84.928 E.0287
G1 X163.128 Y85.802 E.02837
G1 X163.128 Y124.198 E1.20388
G1 X162.9 Y125.056 E.02785
G1 X162.629 Y125.563 E.01801
G1 X161.996 Y126.22 E.02862
G1 X161.641 Y126.47 E.01361
G1 X160.503 Y126.828 E.03741
G1 X89.502 Y126.828 E2.22619
G1 X88.644 Y126.6 E.02785
G1 X88.137 Y126.329 E.01801
G1 X87.48 Y125.696 E.02862
G1 X87.23 Y125.341 E.01361
G1 X86.872 Y124.203 E.03741
G1 X86.872 Y85.802 E1.20404
G1 X87.1 Y84.944 E.02785
G1 X87.144 Y84.862 E.00291
M204 S1000
G1 X87.472 Y85.04 F10800
M204 S800
G1 F1200
G1 X87.688 Y84.641 E.01424
G1 X88.26 Y84.057 E.02562
G1 X88.55 Y83.856 E.01106
G1 X89.526 Y83.549 E.03208
G1 X160.474 Y83.553 E2.22455
G1 X160.999 Y83.664 E.01681
M73 P5 R30
M73 Q5 S30
G1 X161.527 Y83.904 E.01817
G1 X162.134 Y84.425 E.0251
G1 X162.539 Y85.056 E.02351
G1 X162.751 Y85.828 E.0251
G1 X162.751 Y124.172 E1.20225
G1 X162.542 Y124.934 E.02478
G1 X162.312 Y125.359 E.01515
G1 X161.74 Y125.943 E.02562
G1 X161.45 Y126.144 E.01106
G1 X160.474 Y126.451 E.03208
G1 X89.528 Y126.451 E2.22447
G1 X88.766 Y126.242 E.02478
G1 X88.341 Y126.012 E.01515
G1 X87.757 Y125.44 E.02562
G1 X87.556 Y125.15 E.01106
G1 X87.249 Y124.174 E.03207
G1 X87.249 Y85.828 E1.20232
G1 X87.449 Y85.095 E.02381
M204 S1000
G1 X87.812 Y85.198 F10800
M204 S800
G1 F1200
G1 X88.004 Y84.849 E.01251
G1 X88.514 Y84.337 E.02264
G1 X88.739 Y84.183 E.00855
G1 X89.555 Y83.926 E.02682
G1 X160.453 Y83.93 E2.22298
G1 X160.897 Y84.027 E.01424
G1 X161.343 Y84.234 E.01541
G1 X161.866 Y84.691 E.02178
G1 X162.185 Y85.186 E.01847
G1 X162.374 Y85.855 E.02179
G1 X162.374 Y124.145 E1.20057
G1 X162.186 Y124.809 E.02163
G1 X161.996 Y125.151 E.01229
G1 X161.486 Y125.663 E.02264
G1 X161.261 Y125.817 E.00855
G1 X160.445 Y126.074 E.02682
G1 X89.555 Y126.074 E2.22273
G1 X88.891 Y125.886 E.02163
G1 X88.549 Y125.696 E.01229
G1 X88.037 Y125.186 E.02264
G1 X87.883 Y124.961 E.00855
G1 X87.626 Y124.145 E.02682
G1 X87.626 Y85.855 E1.20058
G1 X87.796 Y85.256 E.01952
M204 S1000
M73 P6 R30
M73 Q6 S30
G1 X88.156 Y85.362 F10800
M204 S800
G1 F1200
G1 X88.318 Y85.06 E.01074
G1 X88.764 Y84.619 E.01967
G1 X88.925 Y84.512 E.00606
G1 X89.584 Y84.303 E.02167
G1 X160.431 Y84.307 E2.22136
G1 X160.791 Y84.39 E.01157
G1 X161.156 Y84.562 E.01266
G1 X161.596 Y84.954 E.01848
G1 X161.831 Y85.32 E.01362
G1 X161.997 Y85.883 E.01841
G1 X161.997 Y124.117 E1.19881
G1 X161.831 Y124.68 E.01838
G1 X161.682 Y124.94 E.00942
G1 X161.236 Y125.381 E.01967
G1 X161.075 Y125.488 E.00606
G1 X160.416 Y125.697 E.02167
G1 X89.583 Y125.697 E2.22093
G1 X89.02 Y125.531 E.01838
G1 X88.76 Y125.382 E.00942
G1 X88.319 Y124.936 E.01967
G1 X88.212 Y124.775 E.00606
G1 X88.003 Y124.116 E.02167
G1 X88.003 Y85.883 E1.19878
G1 X88.139 Y85.419 E.01515
M204 S1000
G1 X88.498 Y85.53 F10800
M204 S800
G1 F1200
G1 X88.521 Y85.455 E.00246
G1 X88.628 Y85.275 E.00656
G1 X89.011 Y84.904 E.01672
G1 X89.107 Y84.843 E.00358
G1 X89.613 Y84.68 E.01667
G1 X160.409 Y84.684 E2.21975
G1 X160.647 Y84.739 E.00767
M73 P6 R29
G1 X160.968 Y84.891 E.01111
G1 X161.323 Y85.215 E.01508
G1 X161.479 Y85.457 E.00902
G1 X161.62 Y85.912 E.01495
G1 X161.62 Y124.088 E1.19696
G1 X161.479 Y124.545 E.015
G1 X161.372 Y124.725 E.00656
G1 X160.989 Y125.096 E.01672
G1 X160.893 Y125.157 E.00358
G1 X160.387 Y125.32 E.01667
G1 X89.612 Y125.32 E2.21908
G1 X89.155 Y125.179 E.015
M73 P7 R29
M73 Q7 S29
G1 X88.975 Y125.072 E.00656
G1 X88.604 Y124.689 E.01672
G1 X88.543 Y124.593 E.00358
G1 X88.38 Y124.087 E.01667
G1 X88.38 Y85.912 E1.19693
G1 X88.481 Y85.587 E.01066
M204 S1000
G1 X88.836 Y85.704 F10800
M204 S800
G1 F1200
G1 X88.871 Y85.598 E.00352
G1 X88.934 Y85.497 E.00372
G1 X89.253 Y85.194 E.0138
G1 X89.644 Y85.057 E.01299
G1 X160.387 Y85.061 E2.21809
G1 X160.504 Y85.088 E.00377
G1 X160.778 Y85.218 E.0095
G1 X161.047 Y85.473 E.0116
G1 X161.13 Y85.6 E.00476
G1 X161.243 Y85.944 E.01136
G1 X161.243 Y124.056 E1.19497
G1 X161.129 Y124.402 E.01143
G1 X161.066 Y124.503 E.00372
G1 X160.747 Y124.806 E.0138
G1 X160.356 Y124.943 E.01299
G1 X89.644 Y124.943 E2.21712
G1 X89.298 Y124.829 E.01143
G1 X89.197 Y124.766 E.00372
G1 X88.894 Y124.447 E.0138
G1 X88.757 Y124.056 E.01299
G1 X88.757 Y85.944 E1.19497
G1 X88.817 Y85.761 E.00603
M204 S1000
G1 X89.168 Y85.887 F10800
M204 S800
G1 F1200
G1 X89.232 Y85.728 E.00537
G1 X89.466 Y85.511 E.01002
G1 X89.679 Y85.434 E.00709
G1 X160.335 Y85.434 E2.21536
G1 X160.585 Y85.544 E.00856
G1 X160.784 Y85.752 E.00902
G1 X160.866 Y85.979 E.00757
G1 X160.866 Y124.021 E1.19277
G1 X160.784 Y124.248 E.00757
M73 P8 R29
M73 Q8 S29
G1 X160.534 Y124.489 E.0109
G1 X160.321 Y124.566 E.00709
G1 X89.679 Y124.566 E2.21492
G1 X89.452 Y124.484 E.00757
G1 X89.211 Y124.234 E.0109
G1 X89.134 Y124.021 E.00709
G1 X89.134 Y85.979 E1.19277
G1 X89.147 Y85.943 E.0012
M204 S1000
G1 X89.511 Y86.021 F10800
M204 S800
G1 F1200
G1 X89.54 Y85.952 E.00235
G1 X89.652 Y85.84 E.00495
G1 X89.721 Y85.811 E.00235
G1 X160.279 Y85.811 E2.21229
G1 X160.348 Y85.84 E.00235
G1 X160.46 Y85.952 E.00495
G1 X160.489 Y86.021 E.00235
G1 X160.489 Y123.979 E1.19014
G1 X160.46 Y124.048 E.00235
G1 X160.348 Y124.16 E.00495
G1 X160.279 Y124.189 E.00235
G1 X89.721 Y124.189 E2.21229
G1 X89.652 Y124.16 E.00235
G1 X89.54 Y124.048 E.00495
G1 X89.511 Y123.979 E.00235
G1 X89.511 Y86.081 E1.18826
M204 S1000
; printing object lid-v2.stl id:0 copy 0
G1 X90.01 Y86.31 F10800
M204 S800
;TYPE:External perimeter
G1 F1200
G1 X159.99 Y86.31 E2.19417
G1 X159.99 Y123.69 E1.17202
M73 P9 R29
M73 Q9 S29
G1 X90.01 Y123.69 E2.19417
G1 X90.01 Y86.37 E1.17014
M204 S1000
G1 X90.405 Y86.375 F10800
G1 X90.387 Y86.687
M204 S800
;TYPE:Perimeter
G1 F1200
G1 X159.613 Y86.687 E2.17053
G1 X159.613 Y123.313 E1.14838
G1 X90.387 Y123.313 E2.17053
G1 X90.387 Y86.747 E1.1465
M204 S1000
;WIPE_START
M73 P9 R28
G1 F8640
M73 P10 R28
M73 Q10 S29
G1 X93.679 Y86.744 E-.76
;WIPE_END
G1 E-.04 F2100
G1 Z.6 F720
G1 X95.59 Y112.49 F10800
G1 Z.2 F720
G1 E.8 F2100
M204 S800
;TYPE:External perimeter
G1 F1200
G1 X154.41 Y112.49 E1.84426
G1 X154.41 Y114.91 E.07588
M73 Q10 S28
G1 X95.59 Y114.91 E1.84426
G1 X95.59 Y112.55 E.074
M204 S1000
G1 X95.395 Y112.141 F10800
G1 X95.213 Y112.113
M204 S800
;TYPE:Perimeter
G1 F1200
G1 X154.787 Y112.113 E1.86791
G1 X154.787 Y115.287 E.09952
G1 X95.213 Y115.287 E1.86791
G1 X95.213 Y112.173 E.09764
M204 S1000
;WIPE_START
G1 F8640
G1 X98.504 Y112.17 E-.76
;WIPE_END
G1 E-.04 F2100
G1 Z.6 F720
G1 X95.59 Y97.51 F10800
G1 Z.2 F720
G1 E.8 F2100
M204 S800
;TYPE:External perimeter
G1 F1200
G1 X95.59 Y95.09 E.07588
G1 X154.41 Y95.09 E1.84426
G1 X154.41 Y97.51 E.07588
G1 X95.65 Y97.51 E1.84238
M204 S1000
G1 X95.19 Y97.515 F10800
M73 P11 R28
M73 Q11 S28
G1 X95.213 Y97.887
M204 S800
;TYPE:Perimeter
G1 F1200
G1 X95.213 Y94.713 E.09952
G1 X154.787 Y94.713 E1.86791
G1 X154.787 Y97.887 E.09952
G1 X95.273 Y97.887 E1.86602
M204 S1000
;WIPE_START
G1 F8640
G1 X95.213 Y94.713 E-.73305
G1 X95.33 Y94.713 E-.02695
;WIPE_END
G1 E-.04 F2100
G1 Z.6 F720
G1 X95.59 Y103.79 F10800
G1 Z.2 F720
G1 E.8 F2100
M204 S800
;TYPE:External perimeter
G1 F1200
G1 X154.41 Y103.79 E1.84426
G1 X154.41 Y106.21 E.07588
G1 X95.59 Y106.21 E1.84426
G1 X95.59 Y103.85 E.074
M204 S1000
G1 X95.395 Y103.441 F10800
G1 X95.213 Y103.413
M204 S800
;TYPE:Perimeter
G1 F1200
G1 X154.787 Y103.413 E1.86791
G1 X154.787 Y106.587 E.09952
G1 X95.213 Y106.587 E1.86791
G1 X95.213 Y103.473 E.09764
M204 S1000
;WIPE_START
M73 P12 R28
M73 Q12 S28
G1 F8640
G1 X98.504 Y103.47 E-.76
;WIPE_END
G1 E-.04 F2100
G1 Z.6 F720
G1 X158.734 Y86.8 F10800
G1 Z.2 F720
G1 E.8 F2100
M204 S800
;TYPE:Solid infill
;WIDTH:0.421508
G1 F1200
G1 X159.33 Y87.396 E.02652
G1 X159.33 Y87.931 E.01685
G1 X158.369 Y86.97 E.04281
G1 X157.833 Y86.97 E.01685
G1 X159.33 Y88.467 E.06664
G1 X159.33 Y89.002 E.01685
G1 X157.298 Y86.97 E.09048
G1 X156.762 Y86.97 E.01685
G1 X159.33 Y89.538 E.11431
G1 X159.33 Y90.073 E.01685
G1 X156.227 Y86.97 E.13815
G1 X155.692 Y86.97 E.01685
G1 X159.33 Y90.608 E.16198
G1 X159.33 Y91.144 E.01685
G1 X155.156 Y86.97 E.18582
G1 X154.621 Y86.97 E.01685
G1 X159.33 Y91.679 E.20966
G1 X159.33 Y92.215 E.01685
G1 X154.085 Y86.97 E.23349
G1 X153.55 Y86.97 E.01685
G1 X159.33 Y92.75 E.25733
G1 X159.33 Y93.285 E.01685
G1 X153.015 Y86.97 E.28116
G1 X152.479 Y86.97 E.01685
G1 X159.33 Y93.821 E.305
G1 X159.33 Y94.356 E.01685
G1 X151.944 Y86.97 E.32883
G1 X151.408 Y86.97 E.01685
G1 X159.33 Y94.892 E.35267
G1 X159.33 Y95.427 E.01685
G1 X150.873 Y86.97 E.3765
G1 X150.338 Y86.97 E.01685
G1 X159.33 Y95.962 E.40034
G1 X159.33 Y96.498 E.01685
G1 X149.802 Y86.97 E.42418
G1 X149.267 Y86.97 E.01685
G1 X159.33 Y97.033 E.44801
G1 X159.33 Y97.569 E.01685
G1 X148.731 Y86.97 E.47185
G1 X148.196 Y86.97 E.01685
G1 X159.33 Y98.104 E.49568
G1 X159.33 Y98.639 E.01685
G1 X147.661 Y86.97 E.51952
G1 X147.125 Y86.97 E.01685
G1 X154.585 Y94.43 E.33212
G1 X155.07 Y94.43 E.01525
G1 X155.07 Y94.915 E.01525
G1 X159.33 Y99.175 E.18966
G1 X159.33 Y99.71 E.01685
G1 X155.07 Y95.45 E.18966
G1 X155.07 Y95.985 E.01685
G1 X159.33 Y100.246 E.18966
G1 X159.33 Y100.781 E.01685
G1 X155.07 Y96.521 E.18966
G1 X155.07 Y97.056 E.01685
G1 X159.33 Y101.316 E.18966
G1 X159.33 Y101.852 E.01685
G1 X155.07 Y97.592 E.18966
G1 X155.07 Y98.127 E.01685
G1 X159.33 Y102.387 E.18966
G1 X159.33 Y102.923 E.01685
G1 X154.577 Y98.17 E.21159
G1 X154.042 Y98.17 E.01685
G1 X159.33 Y103.458 E.23543
G1 X159.33 Y103.994 E.01685
G1 X153.506 Y98.17 E.25926
G1 X152.971 Y98.17 E.01685
G1 X159.33 Y104.529 E.2831
G1 X159.33 Y105.064 E.01685
G1 X152.436 Y98.17 E.30693
G1 X151.9 Y98.17 E.01685
G1 X159.33 Y105.6 E.33077
G1 X159.33 Y106.135 E.01685
G1 X151.365 Y98.17 E.35461
G1 X150.829 Y98.17 E.01685
G1 X159.33 Y106.671 E.37844
G1 X159.33 Y107.206 E.01685
M73 P13 R27
