; generated by PrusaSlicer 2.4.1+linux-x64-GTK3 on 2022-04-18 at 16:02:03 UTC

; 

; external perimeters extrusion width = 0.45mm
; perimeters extrusion width = 0.45mm
; infill extrusion width = 0.45mm
; solid infill extrusion width = 0.45mm
; top infill extrusion width = 0.40mm
; first layer extrusion width = 0.42mm

M73 P0 R26
M73 Q0 S27
M201 X1000 Y1000 Z200 E5000 ; sets maximum accelerations, mm/sec^2
M203 X200 Y200 Z12 E120 ; sets maximum feedrates, mm / sec
M204 P1250 R1250 T1250 ; sets acceleration (P, T) and retract acceleration (R), mm/sec^2
M205 X8.00 Y8.00 Z0.40 E4.50 ; sets the jerk limits, mm/sec
M205 S0 T0 ; sets the minimum extruding and travel feed rate, mm/sec
M107
;TYPE:Custom
M862.3 P "MK3S" ; printer model check
M862.1 P0.4 ; nozzle diameter check
M115 U3.10.1 ; tell printer latest fw version
G90 ; use absolute coordinates
M83 ; extruder relative mode
M104 S215 ; set extruder temp
M140 S60 ; set bed temp
M190 S60 ; wait for bed temp
M109 S215 ; wait for extruder temp
G28 W ; home all without mesh bed level
G80 ; mesh bed leveling
G1 Z0.2 F720
G1 Y-3 F1000 ; go outside print area
G92 E0
G1 X60 E9 F1000 ; intro line
G1 X100 E12.5 F1000 ; intro line
G92 E0
M221 S95

; Don't change E values below. Excessive value can damage the printer.

M907 E538 ; set extruder motor current
G21 ; set units to millimeters
G90 ; use absolute coordinates
M83 ; use relative distances for extrusion
M900 K0.05 ; Filament gcode LA 1.5
M900 K30 ; Filament gcode LA 1.0
M107
;LAYER_CHANGE
;Z:0.2
;HEIGHT:0.2
;BEFORE_LAYER_CHANGE
G92 E0.0
;0.2


G1 E-.8 F2100
G1 Z.4 F720
;AFTER_LAYER_CHANGE
;0.2
G1 X82.919 Y82.307 F10800
G1 Z.2 F720
G1 E.8 F2100
M204 S800
;TYPE:Skirt/Brim
;WIDTH:0.42
G1 F1200
G1 X85.907 Y79.319 E.13247
G1 X87.588 Y78.623 E.05704
G1 X162.412 Y78.623 E2.34608
G1 X164.093 Y79.319 E.05704
G1 X167.081 Y82.307 E.13247
G1 X167.777 Y83.988 E.05704
G1 X167.777 Y126.012 E1.31766
G1 X167.081 Y127.693 E.05704
G1 X164.093 Y130.681 E.13247
G1 X162.412 Y131.377 E.05704
G1 X87.588 Y131.377 E2.34608
G1 X85.907 Y130.681 E.05704
M73 P1 R26
M73 Q1 S27
G1 X82.919 Y127.693 E.13247
G1 X82.223 Y126.012 E.05704
G1 X82.223 Y83.988 E1.31766
G1 X82.896 Y82.362 E.05516
M204 S1000
;WIPE_START
G1 F8640
G1 X85.211 Y80.022 E-.76
;WIPE_END
G1 E-.04 F2100
G1 Z.6 F720
G1 X85.545 Y83.681 F10800
G1 Z.2 F720
G1 E.8 F2100
M204 S800
G1 F1200
G1 X85.659 Y83.45 E.00808
G1 X86.596 Y82.419 E.04366
G1 X87.281 Y81.911 E.02674
G1 X89.253 Y81.287 E.06487
G1 X160.689 Y81.29 E2.23983
G1 X161.71 Y81.484 E.03256
M73 Q1 S26
G1 X162.688 Y81.9 E.03333
G1 X163.812 Y82.796 E.04508
G1 X164.705 Y84.134 E.05044
G1 X165.113 Y85.679 E.05011
G1 X165.113 Y124.318 E1.2115
G1 X164.799 Y125.63 E.04231
G1 X164.341 Y126.55 E.03223
G1 X163.404 Y127.581 E.04366
G1 X162.719 Y128.089 E.02674
G1 X160.747 Y128.713 E.06486
G1 X89.282 Y128.713 E2.24073
G1 X87.97 Y128.399 E.04231
G1 X87.05 Y127.941 E.03223
G1 X86.019 Y127.004 E.04366
G1 X85.511 Y126.319 E.02674
G1 X84.887 Y124.347 E.06486
G1 X84.887 Y85.682 E1.21231
G1 X85.201 Y84.37 E.04231
M73 P2 R26
M73 Q2 S26
G1 X85.518 Y83.734 E.02226
M204 S1000
G1 X85.853 Y83.903 F10800
M204 S800
G1 F1200
G1 X85.984 Y83.643 E.00912
G1 X86.861 Y82.688 E.04065
G1 X87.479 Y82.234 E.02407
G1 X89.282 Y81.664 E.05929
G1 X160.671 Y81.667 E2.23835
G1 X161.617 Y81.85 E.03023
G1 X162.515 Y82.236 E.03062
G1 X163.553 Y83.071 E.0418
G1 X164.349 Y84.262 E.0449
G1 X164.736 Y85.704 E.04682
G1 X164.736 Y124.295 E1.20999
G1 X164.438 Y125.519 E.03951
G1 X164.016 Y126.357 E.0294
G1 X163.139 Y127.312 E.04065
G1 X162.521 Y127.766 E.02407
G1 X160.718 Y128.336 E.05929
G1 X89.305 Y128.336 E2.23911
G1 X88.081 Y128.038 E.03951
G1 X87.243 Y127.616 E.0294
G1 X86.288 Y126.739 E.04065
G1 X85.834 Y126.121 E.02407
G1 X85.264 Y124.318 E.05929
G1 X85.264 Y85.705 E1.21068
G1 X85.562 Y84.481 E.03951
G1 X85.826 Y83.957 E.0184
M204 S1000
G1 X86.16 Y84.127 F10800
M204 S800
G1 F1200
G1 X86.307 Y83.839 E.01015
G1 X87.124 Y82.959 E.03764
G1 X87.676 Y82.556 E.02142
G1 X89.311 Y82.041 E.05375
G1 X160.652 Y82.044 E2.23686
G1 X161.524 Y82.216 E.02786
M73 P3 R26
M73 Q3 S26
G1 X162.34 Y82.571 E.0279
G1 X163.293 Y83.345 E.03848
G1 X164.017 Y84.443 E.04126
G1 X164.359 Y85.728 E.0417
G1 X164.359 Y124.271 E1.2085
G1 X164.077 Y125.406 E.03667
M73 P3 R25
G1 X163.693 Y126.161 E.02656
G1 X162.876 Y127.041 E.03764
G1 X162.324 Y127.444 E.02142
G1 X160.689 Y127.959 E.05375
G1 X89.329 Y127.959 E2.23747
G1 X88.194 Y127.677 E.03667
G1 X87.439 Y127.293 E.02656
G1 X86.559 Y126.476 E.03764
G1 X86.156 Y125.924 E.02142
G1 X85.641 Y124.289 E.05375
G1 X85.641 Y85.729 E1.20905
G1 X85.923 Y84.594 E.03667
G1 X86.133 Y84.181 E.01453
M204 S1000
G1 X86.466 Y84.353 F10800
M204 S800
G1 F1200
G1 X86.63 Y84.036 E.01118
G1 X87.386 Y83.231 E.03463
G1 X87.872 Y82.88 E.01879
G1 X89.34 Y82.418 E.04825
G1 X160.633 Y82.421 E2.23536
G1 X161.429 Y82.581 E.02545
G1 X162.164 Y82.905 E.02518
G1 X163.03 Y83.617 E.03516
G1 X163.685 Y84.623 E.03763
G1 X163.982 Y85.752 E.03663
G1 X163.982 Y124.248 E1.20699
G1 X163.717 Y125.292 E.03378
G1 X163.37 Y125.964 E.02372
G1 X162.614 Y126.769 E.03463
G1 X162.128 Y127.12 E.01879
G1 X160.661 Y127.582 E.04825
G1 X89.352 Y127.582 E2.23582
G1 X88.308 Y127.317 E.03378
M73 P4 R25
M73 Q4 S26
G1 X87.636 Y126.97 E.02372
G1 X86.831 Y126.214 E.03463
G1 X86.48 Y125.728 E.01879
G1 X86.018 Y124.261 E.04825
G1 X86.018 Y85.752 E1.2074
G1 X86.283 Y84.708 E.03378
G1 X86.439 Y84.406 E.01066
M204 S1000
G1 X86.77 Y84.58 F10800
M204 S800
G1 F1200
G1 X86.951 Y84.235 E.0122
G1 X87.646 Y83.504 E.03162
G1 X88.066 Y83.204 E.01619
G1 X89.368 Y82.795 E.0428
G1 X160.614 Y82.798 E2.23388
G1 X161.296 Y82.935 E.02178
G1 X161.987 Y83.239 E.02369
G1 X162.767 Y83.888 E.03181
G1 X163.329 Y84.75 E.03225
G1 X163.605 Y85.778 E.03337
G1 X163.605 Y124.223 E1.20543
G1 X163.358 Y125.175 E.03084
G1 X163.049 Y125.765 E.02087
G1 X162.354 Y126.496 E.03162
G1 X161.934 Y126.796 E.01619
G1 X160.632 Y127.205 E.0428
G1 X89.377 Y127.205 E2.23415
G1 X88.425 Y126.958 E.03084
G1 X87.835 Y126.649 E.02087
G1 X87.104 Y125.954 E.03162
G1 X86.804 Y125.534 E.01619
G1 X86.395 Y124.232 E.0428
G1 X86.395 Y85.777 E1.20573
G1 X86.642 Y84.825 E.03084
M73 P5 R25
M73 Q4 S25
G1 X86.742 Y84.633 E.00679
M204 S1000
G1 X87.072 Y84.809 F10800
M204 S800
G1 F1200
G1 X87.271 Y84.437 E.01322
G1 X87.904 Y83.78 E.02862
G1 X88.259 Y83.53 E.01361
G1 X89.397 Y83.172 E.03741
G1 X160.595 Y83.176 E2.23236
G1 X161.199 Y83.3 E.01933
M73 Q5 S25
G1 X161.808 Y83.572 E.02093
G1 X162.501 Y84.157 E.02843
G1 X162.995 Y84.928 E.0287
G1 X163.228 Y85.802 E.02837
G1 X163.228 Y124.198 E1.20388
G1 X163 Y125.056 E.02785
G1 X162.729 Y125.563 E.01801
G1 X162.096 Y126.22 E.02862
G1 X161.741 Y126.47 E.01361
G1 X160.603 Y126.828 E.03741
G1 X89.402 Y126.828 E2.23246
G1 X88.544 Y126.6 E.02785
G1 X88.037 Y126.329 E.01801
G1 X87.38 Y125.696 E.02862
G1 X87.13 Y125.341 E.01361
G1 X86.772 Y124.203 E.03741
G1 X86.772 Y85.802 E1.20404
G1 X87 Y84.944 E.02785
G1 X87.044 Y84.862 E.00291
M204 S1000
G1 X87.372 Y85.04 F10800
M204 S800
G1 F1200
G1 X87.588 Y84.641 E.01424
G1 X88.16 Y84.057 E.02562
G1 X88.45 Y83.856 E.01106
G1 X89.426 Y83.549 E.03208
G1 X160.574 Y83.553 E2.23082
G1 X161.099 Y83.664 E.01681
M73 P6 R25
G1 X161.627 Y83.904 E.01817
G1 X162.234 Y84.425 E.0251
G1 X162.639 Y85.056 E.02351
G1 X162.851 Y85.828 E.0251
G1 X162.851 Y124.172 E1.20225
G1 X162.642 Y124.934 E.02478
M73 Q6 S25
G1 X162.412 Y125.359 E.01515
G1 X161.84 Y125.943 E.02562
G1 X161.55 Y126.144 E.01106
G1 X160.574 Y126.451 E.03208
G1 X89.428 Y126.451 E2.23074
G1 X88.666 Y126.242 E.02478
G1 X88.241 Y126.012 E.01515
G1 X87.657 Y125.44 E.02562
G1 X87.456 Y125.15 E.01106
G1 X87.149 Y124.174 E.03207
G1 X87.149 Y85.828 E1.20232
G1 X87.349 Y85.095 E.02381
M204 S1000
G1 X87.712 Y85.198 F10800
M204 S800
G1 F1200
G1 X87.904 Y84.849 E.01251
G1 X88.414 Y84.337 E.02264
G1 X88.639 Y84.183 E.00855
G1 X89.455 Y83.926 E.02682
G1 X160.553 Y83.93 E2.22925
G1 X160.997 Y84.027 E.01424
G1 X161.443 Y84.234 E.01541
G1 X161.966 Y84.691 E.02178
G1 X162.285 Y85.186 E.01847
G1 X162.474 Y85.855 E.02179
G1 X162.474 Y124.145 E1.20057
G1 X162.286 Y124.809 E.02163
M73 P6 R24
G1 X162.096 Y125.151 E.01229
G1 X161.586 Y125.663 E.02264
G1 X161.361 Y125.817 E.00855
G1 X160.545 Y126.074 E.02682
G1 X89.455 Y126.074 E2.229
G1 X88.791 Y125.886 E.02163
M73 P7 R24
G1 X88.449 Y125.696 E.01229
G1 X87.937 Y125.186 E.02264
G1 X87.783 Y124.961 E.00855
G1 X87.526 Y124.145 E.02682
G1 X87.526 Y85.855 E1.20058
G1 X87.696 Y85.256 E.01952
M204 S1000
M73 Q7 S25
G1 X88.056 Y85.362 F10800
M204 S800
G1 F1200
G1 X88.218 Y85.06 E.01074
G1 X88.664 Y84.619 E.01967
G1 X88.825 Y84.512 E.00606
G1 X89.484 Y84.303 E.02167
G1 X160.531 Y84.307 E2.22763
G1 X160.891 Y84.39 E.01157
G1 X161.256 Y84.562 E.01266
G1 X161.696 Y84.954 E.01848
G1 X161.931 Y85.32 E.01362
G1 X162.097 Y85.883 E.01841
G1 X162.097 Y124.117 E1.19881
G1 X161.931 Y124.68 E.01838
G1 X161.782 Y124.94 E.00942
G1 X161.336 Y125.381 E.01967
G1 X161.175 Y125.488 E.00606
G1 X160.516 Y125.697 E.02167
G1 X89.483 Y125.697 E2.2272
G1 X88.92 Y125.531 E.01838
G1 X88.66 Y125.382 E.00942
G1 X88.219 Y124.936 E.01967
G1 X88.112 Y124.775 E.00606
G1 X87.903 Y124.116 E.02167
G1 X87.903 Y85.883 E1.19878
G1 X88.039 Y85.419 E.01515
M204 S1000
G1 X88.398 Y85.53 F10800
M204 S800
G1 F1200
G1 X88.421 Y85.455 E.00246
G1 X88.528 Y85.275 E.00656
G1 X88.911 Y84.904 E.01672
G1 X89.007 Y84.843 E.00358
G1 X89.513 Y84.68 E.01667
G1 X160.509 Y84.684 E2.22602
G1 X160.747 Y84.739 E.00767
M73 P8 R24
M73 Q8 S25
G1 X161.068 Y84.891 E.01111
G1 X161.423 Y85.215 E.01508
G1 X161.579 Y85.457 E.00902
G1 X161.72 Y85.912 E.01495
G1 X161.72 Y124.088 E1.19696
G1 X161.579 Y124.545 E.015
G1 X161.472 Y124.725 E.00656
G1 X161.089 Y125.096 E.01672
G1 X160.993 Y125.157 E.00358
G1 X160.487 Y125.32 E.01667
G1 X89.512 Y125.32 E2.22535
G1 X89.055 Y125.179 E.015
G1 X88.875 Y125.072 E.00656
G1 X88.504 Y124.689 E.01672
G1 X88.443 Y124.593 E.00358
G1 X88.28 Y124.087 E.01667
G1 X88.28 Y85.912 E1.19693
G1 X88.381 Y85.587 E.01066
M204 S1000
G1 X88.736 Y85.704 F10800
M204 S800
G1 F1200
G1 X88.771 Y85.598 E.00352
G1 X88.834 Y85.497 E.00372
G1 X89.153 Y85.194 E.0138
G1 X89.544 Y85.057 E.01299
G1 X160.487 Y85.061 E2.22436
G1 X160.604 Y85.088 E.00377
M73 Q8 S24
G1 X160.878 Y85.218 E.0095
G1 X161.147 Y85.473 E.0116
G1 X161.23 Y85.6 E.00476
G1 X161.343 Y85.944 E.01136
G1 X161.343 Y124.056 E1.19497
G1 X161.229 Y124.402 E.01143
G1 X161.166 Y124.503 E.00372
M73 P9 R24
G1 X160.847 Y124.806 E.0138
G1 X160.456 Y124.943 E.01299
G1 X89.544 Y124.943 E2.22339
G1 X89.198 Y124.829 E.01143
M73 Q9 S24
G1 X89.097 Y124.766 E.00372
G1 X88.794 Y124.447 E.0138
G1 X88.657 Y124.056 E.01299
G1 X88.657 Y85.944 E1.19497
G1 X88.717 Y85.761 E.00603
M204 S1000
G1 X89.068 Y85.887 F10800
M204 S800
G1 F1200
G1 X89.132 Y85.728 E.00537
G1 X89.366 Y85.511 E.01002
G1 X89.579 Y85.434 E.00709
G1 X160.435 Y85.434 E2.22163
G1 X160.685 Y85.544 E.00856
G1 X160.884 Y85.752 E.00902
G1 X160.966 Y85.979 E.00757
G1 X160.966 Y124.021 E1.19277
G1 X160.884 Y124.248 E.00757
G1 X160.634 Y124.489 E.0109
G1 X160.421 Y124.566 E.00709
G1 X89.579 Y124.566 E2.22119
G1 X89.352 Y124.484 E.00757
G1 X89.111 Y124.234 E.0109
G1 X89.034 Y124.021 E.00709
G1 X89.034 Y85.979 E1.19277
G1 X89.047 Y85.943 E.0012
M204 S1000
M73 P10 R24
G1 X89.411 Y86.021 F10800
M204 S800
G1 F1200
G1 X89.44 Y85.952 E.00235
G1 X89.552 Y85.84 E.00495
G1 X89.621 Y85.811 E.00235
G1 X160.379 Y85.811 E2.21856
G1 X160.448 Y85.84 E.00235
M73 Q10 S24
G1 X160.56 Y85.952 E.00495
G1 X160.589 Y86.021 E.00235
G1 X160.589 Y123.979 E1.19014
G1 X160.56 Y124.048 E.00235
G1 X160.448 Y124.16 E.00495
G1 X160.379 Y124.189 E.00235
G1 X89.621 Y124.189 E2.21856
G1 X89.552 Y124.16 E.00235
M73 P10 R23
G1 X89.44 Y124.048 E.00495
G1 X89.411 Y123.979 E.00235
G1 X89.411 Y86.081 E1.18826
M204 S1000
; printing object lid.stl id:0 copy 0
G1 X89.91 Y86.31 F10800
M204 S800
;TYPE:External perimeter
G1 F1200
G1 X160.09 Y86.31 E2.20044
G1 X160.09 Y123.69 E1.17202
G1 X89.91 Y123.69 E2.20044
M73 P11 R23
G1 X89.91 Y86.37 E1.17014
M204 S1000
M73 Q11 S24
G1 X90.305 Y86.375 F10800
G1 X90.287 Y86.687
M204 S800
;TYPE:Perimeter
G1 F1200
G1 X159.713 Y86.687 E2.1768
G1 X159.713 Y123.313 E1.14838
G1 X90.287 Y123.313 E2.1768
G1 X90.287 Y86.747 E1.1465
M204 S1000
;WIPE_START
G1 F8640
M73 P12 R23
G1 X93.579 Y86.744 E-.76
;WIPE_END
G1 E-.04 F2100
G1 Z.6 F720
G1 X159.6 Y87.563 F10800
G1 Z.2 F720
G1 E.8 F2100
M204 S800
;TYPE:Solid infill
;WIDTH:0.42031
G1 F1200
G1 X159.007 Y86.97 E.02633
G1 X158.473 Y86.97 E.01675
G1 X159.43 Y87.927 E.04248
G1 X159.43 Y88.461 E.01675
G1 X157.939 Y86.97 E.06617
G1 X157.405 Y86.97 E.01675
G1 X159.43 Y88.995 E.08985
G1 X159.43 Y89.528 E.01675
G1 X156.872 Y86.97 E.11354
G1 X156.338 Y86.97 E.01675
G1 X159.43 Y90.062 E.13722
G1 X159.43 Y90.596 E.01675
G1 X155.804 Y86.97 E.16091
G1 X155.271 Y86.97 E.01675
G1 X159.43 Y91.129 E.18459
G1 X159.43 Y91.663 E.01675
M73 Q12 S24
G1 X154.737 Y86.97 E.20828
G1 X154.203 Y86.97 E.01675
G1 X159.43 Y92.197 E.23196
G1 X159.43 Y92.731 E.01675
G1 X153.669 Y86.97 E.25565
G1 X153.136 Y86.97 E.01675
G1 X159.43 Y93.264 E.27933
G1 X159.43 Y93.798 E.01675
G1 X152.602 Y86.97 E.30302
G1 X152.068 Y86.97 E.01675
G1 X159.43 Y94.332 E.3267
G1 X159.43 Y94.865 E.01675
G1 X151.535 Y86.97 E.35039
G1 X151.001 Y86.97 E.01675
G1 X159.43 Y95.399 E.37407
G1 X159.43 Y95.933 E.01675
G1 X150.467 Y86.97 E.39776
G1 X149.933 Y86.97 E.01675
M73 Q12 S23
G1 X159.43 Y96.467 E.42144
G1 X159.43 Y97 E.01675
G1 X149.4 Y86.97 E.44513
G1 X148.866 Y86.97 E.01675
G1 X159.43 Y97.534 E.46881
G1 X159.43 Y98.068 E.01675
G1 X148.332 Y86.97 E.4925
G1 X147.799 Y86.97 E.01675
G1 X159.43 Y98.601 E.51618
G1 X159.43 Y99.135 E.01675
G1 X147.265 Y86.97 E.53987
G1 X146.731 Y86.97 E.01675
G1 X159.43 Y99.669 E.56355
G1 X159.43 Y100.202 E.01675
G1 X146.198 Y86.97 E.58724
G1 X145.664 Y86.97 E.01675
G1 X159.43 Y100.736 E.61092
G1 X159.43 Y101.27 E.01675
G1 X145.13 Y86.97 E.63461
G1 X144.596 Y86.97 E.01675
M73 P13 R23
G1 X159.43 Y101.804 E.65829
G1 X159.43 Y102.337 E.01675
G1 X144.063 Y86.97 E.68198
G1 X143.529 Y86.97 E.01675
G1 X159.43 Y102.871 E.70566
G1 X159.43 Y103.405 E.01675
M73 Q13 S23
G1 X142.995 Y86.97 E.72935
G1 X142.462 Y86.97 E.01675
G1 X159.43 Y103.938 E.75303
G1 X159.43 Y104.472 E.01675
G1 X141.928 Y86.97 E.77672
G1 X141.394 Y86.97 E.01675
G1 X159.43 Y105.006 E.8004
G1 X159.43 Y105.54 E.01675
G1 X140.86 Y86.97 E.82409
G1 X140.327 Y86.97 E.01675
G1 X159.43 Y106.073 E.84777
G1 X159.43 Y106.607 E.01675
G1 X139.793 Y86.97 E.87146
G1 X139.259 Y86.97 E.01675
G1 X159.43 Y107.141 E.89514
G1 X159.43 Y107.674 E.01675
G1 X138.726 Y86.97 E.91883
G1 X138.192 Y86.97 E.01675
M73 P14 R23
G1 X159.43 Y108.208 E.94251
G1 X159.43 Y108.742 E.01675
G1 X137.658 Y86.97 E.9662
G1 X137.124 Y86.97 E.01675
G1 X159.43 Y109.276 E.98988
G1 X159.43 Y109.809 E.01675
M73 P14 R22
M73 Q14 S23
G1 X136.591 Y86.97 E1.01357
G1 X136.057 Y86.97 E.01675
G1 X159.43 Y110.343 E1.03726
G1 X159.43 Y110.877 E.01675
G1 X135.523 Y86.97 E1.06094
G1 X134.99 Y86.97 E.01675
G1 X159.43 Y111.41 E1.08463
G1 X159.43 Y111.944 E.01675
G1 X134.456 Y86.97 E1.10831
G1 X133.922 Y86.97 E.01675
G1 X159.43 Y112.478 E1.132
G1 X159.43 Y113.012 E.01675
G1 X133.388 Y86.97 E1.15568
G1 X132.855 Y86.97 E.01675
M73 P15 R22
G1 X159.43 Y113.545 E1.17937
G1 X159.43 Y114.079 E.01675
G1 X132.321 Y86.97 E1.20305
G1 X131.787 Y86.97 E.01675
M73 Q15 S23
G1 X159.43 Y114.613 E1.22674
G1 X159.43 Y115.146 E.01675
G1 X131.254 Y86.97 E1.25042
G1 X130.72 Y86.97 E.01675
G1 X159.43 Y115.68 E1.27411
G1 X159.43 Y116.214 E.01675
G1 X130.186 Y86.97 E1.29779
G1 X129.653 Y86.97 E.01675
G1 X159.43 Y116.747 E1.32148
G1 X159.43 Y117.281 E.01675
G1 X129.119 Y86.97 E1.34516
G1 X128.585 Y86.97 E.01675
M73 P16 R22
G1 X159.43 Y117.815 E1.36885
G1 X159.43 Y118.349 E.01675
M73 Q15 S22
G1 X128.051 Y86.97 E1.39253
G1 X127.518 Y86.97 E.01675
M73 Q16 S22
G1 X159.43 Y118.882 E1.41622
G1 X159.43 Y119.416 E.01675
G1 X126.984 Y86.97 E1.4399
G1 X126.45 Y86.97 E.01675
G1 X159.43 Y119.95 E1.46359
G1 X159.43 Y120.483 E.01675
G1 X125.917 Y86.97 E1.48727
G1 X125.383 Y86.97 E.01675
G1 X159.43 Y121.017 E1.51096
G1 X159.43 Y121.551 E.01675
M73 P17 R22
