; generated by PrusaSlicer 2.4.1+linux-x64-GTK3 on 2022-04-17 at 19:19:25 UTC

; 

; external perimeters extrusion width = 0.45mm
; perimeters extrusion width = 0.45mm
; infill extrusion width = 0.45mm
; solid infill extrusion width = 0.45mm
; top infill extrusion width = 0.40mm
; first layer extrusion width = 0.42mm

; external perimeters extrusion width = 0.45mm
; perimeters extrusion width = 0.45mm
; infill extrusion width = 0.45mm
; solid infill extrusion width = 0.45mm
; top infill extrusion width = 0.40mm
; first layer extrusion width = 0.42mm

; external perimeters extrusion width = 0.45mm
; perimeters extrusion width = 0.45mm
; infill extrusion width = 0.45mm
; solid infill extrusion width = 0.45mm
; top infill extrusion width = 0.40mm
; first layer extrusion width = 0.42mm

M73 P0 R165
M73 Q0 S166
M201 X1000 Y1000 Z200 E5000 ; sets maximum accelerations, mm/sec^2
M203 X200 Y200 Z12 E120 ; sets maximum feedrates, mm / sec
M204 P1250 R1250 T1250 ; sets acceleration (P, T) and retract acceleration (R), mm/sec^2
M205 X8.00 Y8.00 Z0.40 E4.50 ; sets the jerk limits, mm/sec
M205 S0 T0 ; sets the minimum extruding and travel feed rate, mm/sec
M107
;TYPE:Custom
M862.3 P "MK3S" ; printer model check
M862.1 P0.4 ; nozzle diameter check
M115 U3.10.1 ; tell printer latest fw version
G90 ; use absolute coordinates
M83 ; extruder relative mode
M104 S215 ; set extruder temp
M140 S60 ; set bed temp
M190 S60 ; wait for bed temp
M109 S215 ; wait for extruder temp
G28 W ; home all without mesh bed level
G80 ; mesh bed leveling
G1 Z0.2 F720
G1 Y-3 F1000 ; go outside print area
G92 E0
G1 X60 E9 F1000 ; intro line
G1 X100 E12.5 F1000 ; intro line
G92 E0
M221 S95

; Don't change E values below. Excessive value can damage the printer.

M907 E538 ; set extruder motor current
G21 ; set units to millimeters
G90 ; use absolute coordinates
M83 ; use relative distances for extrusion
M900 K0.05 ; Filament gcode LA 1.5
M900 K30 ; Filament gcode LA 1.0
M107
;LAYER_CHANGE
;Z:0.2
;HEIGHT:0.2
;BEFORE_LAYER_CHANGE
G92 E0.0
;0.2


G1 E-.8 F2100
G1 Z.4 F720
;AFTER_LAYER_CHANGE
;0.2
G1 X62.621 Y93.994 F10800
G1 Z.2 F720
G1 E.8 F2100
M204 S800
;TYPE:Skirt/Brim
;WIDTH:0.42
G1 F1200
G1 X63.694 Y93.377 E.03882
G1 X133.369 Y74.96 E2.25963
G1 X133.976 Y74.881 E.01921
G1 X209.001 Y74.881 E2.35236
G1 X210.682 Y75.577 E.05704
G1 X213.669 Y78.565 E.13247
G1 X214.366 Y80.245 E.05704
G1 X214.366 Y122.27 E1.31766
G1 X214.233 Y162.46 E1.26013
G1 X213.537 Y164.133 E.05682
G1 X210.549 Y167.121 E.13247
G1 X208.868 Y167.817 E.05704
G1 X133.843 Y167.817 E2.35236
G1 X133.118 Y167.703 E.02301
G1 X65.176 Y145.938 E2.2369
G1 X64.221 Y145.356 E.0351
G1 X61.233 Y142.368 E.13247
G1 X60.539 Y140.788 E.0541
G1 X58.939 Y103.207 E1.17939
G1 X58.937 Y98.662 E.14251
G1 X59.633 Y96.981 E.05704
G1 X62.578 Y94.036 E.13059
M204 S1000
;WIPE_START
G1 F8640
G1 X63.694 Y93.377 E-.29931
G1 X65.623 Y92.867 E-.46069
;WIPE_END
G1 E-.04 F2100
G1 Z.6 F720
G1 X64.119 Y96.558 F10800
G1 Z.2 F720
G1 E.8 F2100
M204 S800
G1 F1200
G1 X64.381 Y96.397 E.00964
G1 X65.991 Y95.961 E.0523
G1 X131.277 Y95.969 E2.04699
G1 X131.321 Y81.608 E.45029
G1 X131.742 Y80.263 E.04419
G1 X132.518 Y79.113 E.04347
G1 X133.089 Y78.584 E.02444
G1 X133.693 Y78.155 E.0232
G1 X135.642 Y77.544 E.06405
G1 X207.278 Y77.548 E2.24608
G1 X208.298 Y77.742 E.03256
G1 X209.276 Y78.158 E.03333
G1 X210.401 Y79.053 E.04508
G1 X211.294 Y80.392 E.05044
G1 X211.702 Y81.937 E.05011
G1 X211.702 Y120.583 E1.21173
G1 X211.494 Y121.446 E.02782
G1 X211.569 Y121.817 E.01188
G1 X211.569 Y160.758 E1.22095
G1 X211.248 Y162.093 E.04306
G1 X210.72 Y163.094 E.03547
G1 X209.799 Y164.079 E.0423
G1 X208.795 Y164.713 E.03723
G1 X207.178 Y165.153 E.05255
G1 X135.07 Y165.086 E2.26088
G1 X133.848 Y164.681 E.04037
G1 X132.948 Y164.112 E.03338
G1 X132.215 Y163.379 E.03251
G1 X131.594 Y162.404 E.03624
G1 X131.174 Y160.999 E.04598
G1 X131.143 Y143.388 E.55218
G1 X67.596 Y143.388 E1.99246
G1 X66.282 Y143.073 E.04236
G1 X65.314 Y142.581 E.03405
G1 X64.295 Y141.642 E.04345
G1 X63.643 Y140.619 E.03804
G1 X63.2 Y138.997 E.05271
G1 X63.2 Y105.65 E1.04557
G1 X62.434 Y104.802 E.03583
M73 P0 R164
G1 X61.858 Y103.649 E.0404
G1 X61.598 Y102.299 E.04312
G1 X61.638 Y100.085 E.06942
G1 X62.033 Y98.752 E.04359
G1 X62.704 Y97.689 E.03942
G1 X63.475 Y96.951 E.03347
G1 X64.068 Y96.589 E.02177
M204 S1000
G1 X64.262 Y96.91 F10800
M204 S800
G1 F1200
G1 X64.554 Y96.734 E.01068
G1 X66.016 Y96.338 E.0475
G1 X131.653 Y96.346 E2.05801
G1 X131.69 Y81.691 E.4595
G1 X132.071 Y80.449 E.04075
M73 Q0 S165
G1 X132.79 Y79.375 E.04053
G1 X133.336 Y78.869 E.02334
G1 X133.886 Y78.48 E.02111
G1 X135.671 Y77.921 E.05864
G1 X207.259 Y77.925 E2.24461
G1 X208.206 Y78.108 E.03023
G1 X209.103 Y78.493 E.03062
G1 X210.142 Y79.329 E.0418
G1 X210.938 Y80.519 E.0449
G1 X211.325 Y81.962 E.04682
G1 X211.325 Y120.56 E1.21021
G1 X211.107 Y121.44 E.02844
G1 X211.192 Y121.838 E.01277
G1 X211.192 Y160.735 E1.21957
G1 X210.887 Y161.98 E.04019
G1 X210.4 Y162.893 E.03247
G1 X209.542 Y163.802 E.03918
G1 X208.619 Y164.379 E.03412
G1 X207.153 Y164.776 E.04763
G1 X135.159 Y164.718 E2.25733
G1 X134.028 Y164.349 E.03729
G1 X133.2 Y163.83 E.03066
G1 X132.496 Y163.126 E.0312
G1 X131.948 Y162.271 E.03186
G1 X131.543 Y160.917 E.04429
G1 X131.52 Y143.011 E.56143
G1 X67.619 Y143.011 E2.00355
G1 X66.394 Y142.712 E.03954
G1 X65.511 Y142.258 E.03115
G1 X64.571 Y141.383 E.04026
G1 X63.977 Y140.442 E.03489
G1 X63.578 Y138.972 E.04775
G1 X63.578 Y105.503 E1.04941
G1 X62.758 Y104.608 E.03803
G1 X62.223 Y103.551 E.03716
G1 X61.975 Y102.286 E.04042
G1 X62.015 Y100.119 E.06796
G1 X62.386 Y98.887 E.04034
G1 X63.009 Y97.912 E.03626
G1 X63.719 Y97.239 E.03069
G1 X64.211 Y96.941 E.01802
M204 S1000
G1 X64.406 Y97.264 F10800
M204 S800
G1 F1200
G1 X64.726 Y97.07 E.01173
G1 X66.041 Y96.715 E.04269
G1 X132.03 Y96.723 E2.06904
G1 X132.059 Y81.773 E.46877
G1 X132.401 Y80.633 E.0373
G1 X133.063 Y79.636 E.03754
G1 X133.583 Y79.154 E.02222
G1 X134.079 Y78.806 E.019
G1 X135.7 Y78.299 E.05325
G1 X207.241 Y78.302 E2.24312
G1 X208.112 Y78.474 E.02786
G1 X208.929 Y78.829 E.0279
G1 X209.881 Y79.603 E.03848
G1 X210.606 Y80.701 E.04126
G1 X210.948 Y81.986 E.0417
G1 X210.948 Y120.535 E1.20869
G1 X210.719 Y121.436 E.02912
G1 X210.815 Y121.861 E.01366
G1 X210.815 Y160.711 E1.21814
G1 X210.528 Y161.865 E.03727
G1 X210.081 Y162.691 E.02946
G1 X209.287 Y163.523 E.03607
G1 X208.445 Y164.043 E.03102
G1 X207.129 Y164.399 E.04276
G1 X135.246 Y164.35 E2.25383
G1 X134.208 Y164.017 E.03418
G1 X133.419 Y163.522 E.02921
G1 X132.778 Y162.875 E.02856
G1 X132.301 Y162.137 E.02755
G1 X131.912 Y160.835 E.04259
G1 X131.896 Y142.634 E.57069
G1 X67.643 Y142.634 E2.01463
G1 X66.508 Y142.352 E.03667
G1 X65.709 Y141.936 E.02824
G1 X64.848 Y141.126 E.03707
G1 X64.311 Y140.266 E.03176
G1 X63.955 Y138.947 E.04285
G1 X63.955 Y105.354 E1.05329
G1 X63.082 Y104.414 E.04021
G1 X62.572 Y103.404 E.03548
G1 X62.353 Y102.273 E.03612
G1 X62.392 Y100.151 E.06653
G1 X62.719 Y99.066 E.03553
G1 X63.287 Y98.168 E.03332
G1 X63.933 Y97.551 E.02803
G1 X64.355 Y97.295 E.01548
M204 S1000
G1 X64.548 Y97.616 F10800
M204 S800
G1 F1200
G1 X64.897 Y97.407 E.01277
G1 X66.066 Y97.092 E.03794
G1 X132.407 Y97.1 E2.08007
G1 X132.428 Y81.855 E.47802
M73 P1 R164
M73 Q1 S165
G1 X132.754 Y80.769 E.03555
G1 X133.336 Y79.898 E.03285
G1 X133.83 Y79.44 E.02112
G1 X134.271 Y79.132 E.01687
G1 X135.728 Y78.676 E.04788
G1 X207.222 Y78.679 E2.24162
G1 X208.017 Y78.839 E.02545
G1 X208.752 Y79.163 E.02518
G1 X209.619 Y79.875 E.03516
G1 X210.273 Y80.881 E.03763
G1 X210.571 Y82.01 E.03663
G1 X210.571 Y120.511 E1.20715
G1 X210.329 Y121.432 E.02987
G1 X210.438 Y121.884 E.01457
G1 X210.438 Y160.687 E1.21665
G1 X210.168 Y161.748 E.03431
G1 X209.763 Y162.487 E.02644
G1 X209.033 Y163.244 E.03296
G1 X208.272 Y163.707 E.02793
G1 X207.104 Y164.022 E.03794
G1 X135.332 Y163.982 E2.25037
G1 X134.386 Y163.683 E.0311
M73 P1 R163
G1 X133.671 Y163.24 E.02638
G1 X133.059 Y162.623 E.02725
G1 X132.655 Y162.002 E.02322
G1 X132.281 Y160.754 E.04086
G1 X132.273 Y142.257 E.57995
G1 X67.666 Y142.257 E2.02571
G1 X66.623 Y141.992 E.03376
M73 Q1 S164
G1 X65.908 Y141.615 E.02533
G1 X65.126 Y140.87 E.03388
G1 X64.647 Y140.093 E.02864
G1 X64.332 Y138.923 E.038
G1 X64.332 Y105.204 E1.05722
G1 X63.406 Y104.219 E.04237
G1 X62.92 Y103.258 E.03378
G1 X62.73 Y102.261 E.03182
G1 X62.768 Y100.184 E.06512
G1 X63.052 Y99.245 E.03077
G1 X63.565 Y98.424 E.03034
G1 X64.178 Y97.838 E.0266
G1 X64.496 Y97.647 E.01164
M204 S1000
G1 X64.687 Y97.969 F10800
M204 S800
G1 F1200
G1 X65.067 Y97.745 E.01383
G1 X66.09 Y97.47 E.03324
G1 X132.783 Y97.478 E2.09111
G1 X132.797 Y81.934 E.48735
G1 X133.085 Y80.952 E.03209
G1 X133.609 Y80.158 E.02982
G1 X134.076 Y79.726 E.01997
G1 X134.462 Y79.458 E.01473
G1 X135.757 Y79.053 E.04254
G1 X207.203 Y79.056 E2.24014
G1 X207.884 Y79.193 E.02178
G1 X208.576 Y79.497 E.02369
G1 X209.355 Y80.146 E.03181
G1 X209.917 Y81.008 E.03225
G1 X210.194 Y82.036 E.03337
G1 X210.194 Y120.485 E1.20556
G1 X209.939 Y121.43 E.03068
G1 X210.061 Y121.909 E.01549
G1 X210.061 Y160.663 E1.21511
G1 X209.81 Y161.629 E.03129
G1 X209.447 Y162.281 E.0234
G1 X208.781 Y162.962 E.02986
G1 X208.101 Y163.37 E.02486
G1 X207.079 Y163.645 E.03318
G1 X135.415 Y163.614 E2.24697
G1 X134.563 Y163.35 E.02797
G1 X133.889 Y162.932 E.02487
G1 X133.341 Y162.372 E.02457
G1 X133.008 Y161.867 E.01896
G1 X132.651 Y160.672 E.03912
G1 X132.651 Y141.746 E.59341
G1 X132.148 Y141.88 E.01632
G1 X67.691 Y141.88 E2.02099
G1 X66.739 Y141.633 E.03084
G1 X66.149 Y141.324 E.02087
G1 X65.404 Y140.615 E.03224
G1 X64.984 Y139.921 E.02546
G1 X64.709 Y138.898 E.03321
G1 X64.709 Y105.053 E1.06119
G1 X63.729 Y104.022 E.0446
G1 X63.285 Y103.159 E.03043
G1 X63.108 Y102.247 E.02911
G1 X63.145 Y100.217 E.06366
G1 X63.386 Y99.421 E.02607
G1 X63.843 Y98.68 E.02732
G1 X64.422 Y98.126 E.02513
G1 X64.635 Y98 E.00775
M204 S1000
G1 X64.829 Y98.321 F10800
M204 S800
G1 F1200
G1 X65.193 Y98.101 E.01334
G1 X66.116 Y97.847 E.03003
G1 X133.16 Y97.855 E2.10212
G1 X133.167 Y82.011 E.49675
G1 X133.417 Y81.133 E.02863
G1 X133.882 Y80.419 E.02673
G1 X134.322 Y80.012 E.01879
G1 X134.652 Y79.785 E.01256
G1 X135.785 Y79.43 E.03724
G1 X207.183 Y79.433 E2.23863
G1 X207.787 Y79.558 E.01933
G1 X208.397 Y79.83 E.02093
G1 X209.09 Y80.415 E.02843
G1 X209.583 Y81.186 E.0287
G1 X209.817 Y82.06 E.02837
G1 X209.817 Y120.459 E1.20397
G1 X209.548 Y121.429 E.03157
G1 X209.684 Y121.935 E.01642
G1 X209.684 Y160.638 E1.2135
G1 X209.452 Y161.507 E.02821
G1 X209.132 Y162.072 E.02036
G1 X208.53 Y162.68 E.02682
G1 X207.976 Y163.014 E.02029
G1 X207.053 Y163.268 E.02999
G1 X135.498 Y163.245 E2.24358
G1 X134.738 Y163.015 E.02488
G1 X134.141 Y162.651 E.02191
G1 X133.622 Y162.12 E.02329
G1 X133.36 Y161.729 E.01476
G1 X133.028 Y160.643 E.03561
G1 X133.028 Y141.236 E.6085
G1 X132.118 Y141.503 E.02972
G1 X67.716 Y141.503 E2.01928
G1 X66.858 Y141.275 E.02785
G1 X66.351 Y141.004 E.01801
G1 X65.685 Y140.362 E.029
G1 X65.321 Y139.751 E.02231
G1 X65.086 Y138.873 E.02849
G1 X65.086 Y104.9 E1.06519
G1 X64.05 Y103.822 E.04689
G1 X63.649 Y103.057 E.02707
G1 X63.485 Y102.234 E.02634
G1 X63.521 Y100.252 E.06215
G1 X63.738 Y99.557 E.02282
G1 X64.123 Y98.934 E.02295
G1 X64.637 Y98.437 E.02243
G1 X64.777 Y98.352 E.00516
M204 S1000
G1 X64.968 Y98.673 F10800
M204 S800
G1 F1200
G1 X65.363 Y98.438 E.01441
G1 X66.142 Y98.224 E.02532
G1 X133.538 Y98.232 E2.11315
G1 X133.538 Y82.086 E.50624
G1 X133.75 Y81.312 E.02517
G1 X134.157 Y80.679 E.02358
G1 X134.568 Y80.298 E.01756
G1 X134.841 Y80.112 E.01037
G1 X135.814 Y79.807 E.03199
G1 X207.163 Y79.811 E2.23709
G1 X207.688 Y79.922 E.01681
M73 P1 R162
G1 X208.215 Y80.162 E.01817
G1 X208.823 Y80.683 E.0251
G1 X209.228 Y81.314 E.02351
G1 X209.44 Y82.086 E.0251
G1 X209.44 Y120.432 E1.20232
G1 X209.207 Y121.247 E.02659
M73 Q1 S163
G1 X209.141 Y121.381 E.00467
G1 X209.307 Y121.962 E.01895
G1 X209.307 Y160.612 E1.21182
G1 X209.095 Y161.382 E.02506
G1 X208.819 Y161.86 E.01731
G1 X208.282 Y162.395 E.02377
G1 X207.806 Y162.676 E.01733
G1 X207.028 Y162.891 E.0253
G1 X135.577 Y162.875 E2.24028
G1 X134.913 Y162.68 E.02173
G1 X134.359 Y162.342 E.02033
G1 X133.904 Y161.87 E.02057
G1 X133.71 Y161.588 E.01072
G1 X133.405 Y160.614 E.03201
G1 X133.405 Y140.611 E.62718
G1 X133.021 Y140.841 E.01402
G1 X132.089 Y141.126 E.03056
G1 X67.742 Y141.126 E2.01756
G1 X66.98 Y140.917 E.02478
G1 X66.555 Y140.686 E.01515
G1 X65.967 Y140.11 E.02582
G1 X65.677 Y139.625 E.0177
G1 X65.463 Y138.847 E.02531
G1 X65.463 Y104.747 E1.06919
G1 X64.369 Y103.62 E.04924
G1 X64.013 Y102.954 E.02369
G1 X63.862 Y102.219 E.02351
G1 X63.898 Y100.288 E.06058
G1 X64.089 Y99.695 E.01951
G1 X64.402 Y99.189 E.01867
G1 X64.916 Y98.703 E.02218
M204 S1000
G1 X65.129 Y99.01 F10800
M204 S800
G1 F1200
G1 X65.491 Y98.794 E.01321
G1 X66.169 Y98.601 E.02209
G1 X133.915 Y98.609 E2.12413
G1 X133.915 Y82.113 E.51723
G1 X134.104 Y81.442 E.02184
G1 X134.43 Y80.94 E.01878
G1 X134.813 Y80.585 E.01636
G1 X135.028 Y80.44 E.00814
G1 X135.843 Y80.184 E.02679
G1 X207.142 Y80.188 E2.23552
G1 X207.585 Y80.285 E.01424
G1 X208.031 Y80.492 E.01541
G1 X208.554 Y80.949 E.02178
G1 X208.873 Y81.444 E.01847
G1 X209.062 Y82.113 E.02179
G1 X209.062 Y120.404 E1.2006
G1 X208.853 Y121.116 E.02326
M73 P2 R162
G1 X208.732 Y121.333 E.0078
M73 Q2 S163
G1 X208.93 Y121.991 E.02155
G1 X208.93 Y160.585 E1.21007
G1 X208.74 Y161.254 E.02182
G1 X208.508 Y161.645 E.01425
G1 X208.034 Y162.11 E.0208
G1 X207.678 Y162.321 E.01297
G1 X207.001 Y162.514 E.02208
G1 X135.658 Y162.506 E2.23691
G1 X135.043 Y162.325 E.0201
G1 X134.614 Y162.063 E.01576
G1 X134.187 Y161.62 E.01928
G1 X134.038 Y161.4 E.00834
G1 X133.782 Y160.585 E.02679
G1 X133.782 Y139.666 E.65591
G1 X133.101 Y140.337 E.02998
G1 X132.875 Y140.492 E.00857
G1 X132.059 Y140.749 E.02682
G1 X67.769 Y140.749 E2.01579
G1 X67.105 Y140.561 E.02163
G1 X66.763 Y140.37 E.01229
G1 X66.25 Y139.86 E.02269
G1 X66.033 Y139.498 E.01324
G1 X65.84 Y138.82 E.02209
G1 X65.84 Y104.592 E1.07319
G1 X64.689 Y103.418 E.05157
G1 X64.358 Y102.801 E.02195
G1 X64.24 Y102.206 E.01901
G1 X64.274 Y100.325 E.059
G1 X64.439 Y99.837 E.01614
G1 X64.681 Y99.443 E.0145
G1 X65.086 Y99.051 E.01767
M204 S1000
G1 X65.348 Y99.322 F10800
M204 S800
G1 F1200
G1 X65.622 Y99.148 E.01017
G1 X66.197 Y98.978 E.0188
G1 X133.643 Y98.981 E2.11474
G1 X134.292 Y99.144 E.02095
G1 X134.292 Y82.141 E.53312
G1 X134.458 Y81.577 E.01844
G1 X134.703 Y81.201 E.01407
G1 X135.057 Y80.873 E.01513
G1 X135.213 Y80.77 E.00588
G1 X135.872 Y80.561 E.02167
G1 X207.119 Y80.565 E2.2339
G1 X207.479 Y80.648 E.01157
G1 X207.844 Y80.82 E.01266
G1 X208.284 Y81.212 E.01848
G1 X208.52 Y81.577 E.01362
G1 X208.685 Y82.141 E.01841
G1 X208.685 Y120.375 E1.19881
G1 X208.5 Y120.98 E.01985
G1 X208.32 Y121.284 E.01107
G1 X208.553 Y122.022 E.02425
G1 X208.553 Y160.557 E1.20825
G1 X208.386 Y161.122 E.01848
G1 X208.2 Y161.427 E.01119
G1 X207.789 Y161.823 E.0179
G1 X207.548 Y161.966 E.0088
G1 X206.973 Y162.137 E.0188
G1 X135.739 Y162.137 E2.2335
G1 X135.173 Y161.97 E.01848
G1 X134.869 Y161.784 E.01119
G1 X134.471 Y161.372 E.01795
G1 X134.367 Y161.215 E.00591
G1 X134.159 Y160.556 E.02166
G1 X134.159 Y122.023 E1.20819
G1 X134.344 Y121.417 E.01985
G1 X134.524 Y121.113 E.01108
G1 X134.292 Y120.373 E.02432
G1 X134.292 Y103.755 E.52105
G1 X133.611 Y104.436 E.03019
G1 X133.611 Y138.792 E1.0772
G1 X133.445 Y139.354 E.01838
M73 P2 R161
G1 X133.296 Y139.615 E.00942
G1 X132.85 Y140.056 E.01967
G1 X132.689 Y140.163 E.00606
G1 X132.03 Y140.372 E.02167
G1 X67.797 Y140.372 E2.01399
G1 X67.234 Y140.206 E.01838
G1 X66.974 Y140.057 E.00942
G1 X66.534 Y139.612 E.01961
G1 X66.387 Y139.367 E.00896
G1 X66.217 Y138.792 E.0188
G1 X66.217 Y104.437 E1.07718
G1 X65.008 Y103.216 E.05388
M73 Q2 S162
G1 X64.705 Y102.649 E.02017
G1 X64.617 Y102.194 E.01451
G1 X64.651 Y100.364 E.05738
G1 X64.787 Y99.983 E.01268
G1 X64.961 Y99.697 E.01051
G1 X65.305 Y99.364 E.01502
M204 S1000
G1 X65.567 Y99.635 F10800
M204 S800
G1 F1200
G1 X65.757 Y99.501 E.00728
G1 X66.226 Y99.355 E.01542
G1 X133.623 Y99.359 E2.11317
G1 X133.866 Y99.416 E.00782
G1 X134.243 Y99.607 E.01324
G1 X134.669 Y99.989 E.01795
