; generated by PrusaSlicer 2.4.1+linux-x64-GTK3 on 2022-04-28 at 17:16:48 UTC

; 

; external perimeters extrusion width = 0.45mm
; perimeters extrusion width = 0.45mm
; infill extrusion width = 0.45mm
; solid infill extrusion width = 0.45mm
; top infill extrusion width = 0.40mm
; first layer extrusion width = 0.42mm

; external perimeters extrusion width = 0.45mm
; perimeters extrusion width = 0.45mm
; infill extrusion width = 0.45mm
; solid infill extrusion width = 0.45mm
; top infill extrusion width = 0.40mm
; first layer extrusion width = 0.42mm

; external perimeters extrusion width = 0.45mm
; perimeters extrusion width = 0.45mm
; infill extrusion width = 0.45mm
; solid infill extrusion width = 0.45mm
; top infill extrusion width = 0.40mm
; first layer extrusion width = 0.42mm

M73 P0 R251
M73 Q0 S255
M201 X1000 Y1000 Z200 E5000 ; sets maximum accelerations, mm/sec^2
M203 X200 Y200 Z12 E120 ; sets maximum feedrates, mm / sec
M204 P1250 R1250 T1250 ; sets acceleration (P, T) and retract acceleration (R), mm/sec^2
M205 X8.00 Y8.00 Z0.40 E4.50 ; sets the jerk limits, mm/sec
M205 S0 T0 ; sets the minimum extruding and travel feed rate, mm/sec
M107
;TYPE:Custom
M862.3 P "MK3S" ; printer model check
M862.1 P0.4 ; nozzle diameter check
M115 U3.10.1 ; tell printer latest fw version
G90 ; use absolute coordinates
M83 ; extruder relative mode
M104 S215 ; set extruder temp
M140 S60 ; set bed temp
M190 S60 ; wait for bed temp
M109 S215 ; wait for extruder temp
G28 W ; home all without mesh bed level
G80 ; mesh bed leveling
G1 Z0.2 F720
G1 Y-3 F1000 ; go outside print area
G92 E0
G1 X60 E9 F1000 ; intro line
G1 X100 E12.5 F1000 ; intro line
G92 E0
M221 S95

; Don't change E values below. Excessive value can damage the printer.

M907 E538 ; set extruder motor current
G21 ; set units to millimeters
G90 ; use absolute coordinates
M83 ; use relative distances for extrusion
M900 K0.05 ; Filament gcode LA 1.5
M900 K30 ; Filament gcode LA 1.0
M107
;LAYER_CHANGE
;Z:0.2
;HEIGHT:0.2
;BEFORE_LAYER_CHANGE
G92 E0.0
;0.2


G1 E-.8 F2100
G1 Z.4 F720
;AFTER_LAYER_CHANGE
;0.2
G1 X46.149 Y44.346 F10800
G1 Z.2 F720
G1 E.8 F2100
M204 S800
;TYPE:Skirt/Brim
;WIDTH:0.42
G1 F1200
G1 X49.137 Y41.359 E.13247
G1 X50.817 Y40.663 E.05704
G1 X115.642 Y40.663 E2.03254
G1 X116.524 Y40.832 E.02815
M73 P0 R250
G1 X161.898 Y58.952 E1.53192
G1 X162.697 Y59.479 E.03001
G1 X165.685 Y62.466 E.13247
G1 X166.381 Y64.147 E.05704
G1 X166.381 Y135.372 E2.23321
G1 X165.685 Y137.053 E.05704
G1 X162.697 Y140.04 E.13247
G1 X161.828 Y140.594 E.03232
G1 X117.216 Y156.792 E1.48812
G1 X116.405 Y156.934 E.02583
G1 X49.08 Y156.934 E2.11093
G1 X47.399 Y156.238 E.05704
G1 X44.411 Y153.251 E.13247
G1 X43.715 Y151.57 E.05704
G1 X43.717 Y86.844 E2.02943
G1 X45.455 Y45.926 E1.2841
G1 X46.125 Y44.401 E.05223
M204 S1000
;WIPE_START
M73 Q0 S254
G1 F8640
G1 X48.44 Y42.062 E-.76
;WIPE_END
G1 E-.04 F2100
G1 Z.6 F720
G1 X48.847 Y45.543 F10800
G1 Z.2 F720
G1 E.8 F2100
M204 S800
G1 F1200
G1 X49.466 Y44.793 E.0305
G1 X50.435 Y44.001 E.03921
G1 X51.2 Y43.643 E.0265
G1 X52.511 Y43.326 E.04229
G1 X113.919 Y43.33 E1.92541
G1 X114.939 Y43.524 E.03256
G1 X115.918 Y43.939 E.03333
G1 X117.039 Y44.833 E.04494
G1 X117.848 Y45.987 E.04422
G1 X118.297 Y47.387 E.04607
G1 X118.341 Y61.449 E.44091
G1 X159.3 Y61.45 E1.28425
G1 X160.447 Y61.687 E.0367
G1 X161.502 Y62.19 E.03666
G1 X162.43 Y62.972 E.03805
G1 X163.117 Y63.893 E.03603
G1 X163.718 Y65.818 E.06322
G1 X163.718 Y133.678 E2.12771
G1 X163.401 Y134.99 E.04229
G1 X163.043 Y135.755 E.0265
G1 X162.251 Y136.723 E.03921
G1 X161.501 Y137.342 E.0305
G1 X159.369 Y138.073 E.07066
G1 X119.103 Y138.073 E1.26251
G1 X119.051 Y150.256 E.38198
G1 X118.526 Y151.789 E.05082
G1 X118.051 Y152.475 E.02615
G1 X117.472 Y153.087 E.02641
G1 X116.344 Y153.824 E.04228
G1 X115.075 Y154.22 E.04166
G1 X50.774 Y154.271 E2.0161
G1 X49.462 Y153.955 E.04234
G1 X48.661 Y153.577 E.02775
G1 X47.163 Y152.13 E.06531
G1 X46.694 Y151.188 E.03301
G1 X46.379 Y149.875 E.04232
G1 X46.379 Y88.719 E1.91751
G1 X46.61 Y87.541 E.03764
G1 X47.143 Y86.429 E.03867
G1 X48.116 Y85.327 E.0461
G1 X48.116 Y47.675 E1.18053
G1 X48.828 Y45.6 E.06878
M204 S1000
G1 X49.161 Y45.756 F10800
M204 S800
G1 F1200
G1 X49.721 Y45.071 E.02773
G1 X50.618 Y44.332 E.03646
G1 X51.309 Y44.004 E.02398
G1 X52.534 Y43.703 E.03955
G1 X113.901 Y43.707 E1.92411
G1 X114.847 Y43.89 E.03023
G1 X115.745 Y44.275 E.03062
G1 X116.781 Y45.109 E.04169
G1 X117.522 Y46.178 E.04079
G1 X117.928 Y47.472 E.04253
G1 X117.965 Y61.826 E.45006
G1 X159.281 Y61.827 E1.29545
G1 X160.307 Y62.038 E.03282
G1 X161.278 Y62.495 E.03366
G1 X162.17 Y63.246 E.03656
G1 X162.795 Y64.091 E.03296
G1 X163.341 Y65.846 E.05763
G1 X163.341 Y133.655 E2.1261
G1 X163.04 Y134.88 E.03955
G1 X162.712 Y135.571 E.02398
G1 X161.973 Y136.469 E.03646
G1 X161.288 Y137.029 E.02773
G1 X159.338 Y137.696 E.06464
G1 X118.727 Y137.696 E1.27332
G1 X118.684 Y150.164 E.39094
G1 X118.201 Y151.597 E.04742
G1 X117.767 Y152.226 E.02395
G1 X117.214 Y152.812 E.02526
G1 X116.204 Y153.473 E.03785
G1 X115.045 Y153.843 E.03814
G1 X50.797 Y153.894 E2.01444
G1 X49.571 Y153.593 E.03959
M73 P0 R249
G1 X48.851 Y153.25 E.025
G1 X47.486 Y151.931 E.05953
G1 X47.055 Y151.077 E.03001
G1 X46.756 Y149.852 E.03951
G1 X46.756 Y88.738 E1.9162
G1 X46.975 Y87.639 E.03513
G1 X47.471 Y86.617 E.03562
G1 X48.289 Y85.692 E.03872
G1 X48.493 Y85.539 E.00801
G1 X48.493 Y47.706 E1.18621
G1 X49.141 Y45.812 E.06276
M204 S1000
G1 X49.475 Y45.967 F10800
M204 S800
G1 F1200
G1 X49.977 Y45.349 E.02497
G1 X50.803 Y44.661 E.03371
G1 X51.42 Y44.365 E.02145
G1 X52.558 Y44.08 E.03678
G1 X113.882 Y44.084 E1.92278
G1 X114.754 Y44.256 E.02786
G1 X115.57 Y44.611 E.0279
G1 X116.521 Y45.383 E.03843
G1 X117.194 Y46.366 E.03735
G1 X117.56 Y47.555 E.039
G1 X117.588 Y62.203 E.45927
G1 X159.262 Y62.204 E1.30663
G1 X160.207 Y62.402 E.03028
G1 X161.093 Y62.824 E.03078
G1 X161.909 Y63.518 E.03357
G1 X162.472 Y64.288 E.02992
G1 X162.963 Y65.875 E.05208
G1 X162.963 Y133.632 E2.12448
G1 X162.679 Y134.77 E.03677
G1 X162.383 Y135.386 E.02145
G1 X161.695 Y136.213 E.03371
G1 X161.077 Y136.715 E.02497
G1 X159.307 Y137.319 E.05865
G1 X118.351 Y137.319 E1.28415
G1 X118.316 Y150.075 E.39995
G1 X117.874 Y151.407 E.04401
G1 X117.483 Y151.978 E.02171
G1 X116.955 Y152.536 E.02407
G1 X116.021 Y153.143 E.03493
G1 X114.96 Y153.474 E.03485
G1 X50.821 Y153.517 E2.01105
G1 X49.682 Y153.232 E.0368
M73 Q0 S253
G1 X49.042 Y152.924 E.02226
G1 X47.807 Y151.732 E.05383
G1 X47.415 Y150.964 E.02702
G1 X47.133 Y149.829 E.03667
G1 X47.133 Y88.757 E1.91487
G1 X47.34 Y87.738 E.03259
G1 X47.797 Y86.807 E.03254
G1 X48.553 Y85.961 E.03557
G1 X48.871 Y85.737 E.01217
G1 X48.871 Y47.737 E1.19147
G1 X49.455 Y46.024 E.05676
M204 S1000
G1 X49.789 Y46.177 F10800
M204 S800
G1 F1200
G1 X50.234 Y45.625 E.02223
G1 X50.99 Y44.989 E.03097
G1 X51.532 Y44.725 E.01892
G1 X52.582 Y44.458 E.03395
G1 X113.863 Y44.461 E1.92143
G1 X114.659 Y44.621 E.02545
G1 X115.394 Y44.945 E.02518
G1 X116.26 Y45.657 E.03515
G1 X116.865 Y46.553 E.0339
G1 X117.191 Y47.637 E.0355
G1 X117.212 Y62.58 E.46853
G1 X159.241 Y62.581 E1.31781
G1 X160.105 Y62.765 E.02769
G1 X160.906 Y63.153 E.02789
G1 X161.645 Y63.789 E.03058
G1 X162.148 Y64.484 E.02689
G1 X162.586 Y65.903 E.04658
G1 X162.586 Y133.608 E2.12284
G1 X162.319 Y134.657 E.03395
G1 X162.055 Y135.2 E.01892
G1 X161.419 Y135.955 E.03097
G1 X160.867 Y136.4 E.02223
G1 X159.276 Y136.942 E.05269
G1 X117.974 Y136.942 E1.29498
G1 X117.949 Y149.986 E.40901
G1 X117.547 Y151.218 E.0406
G1 X117.199 Y151.73 E.01943
G1 X116.697 Y152.26 E.02289
G1 X115.881 Y152.792 E.03052
G1 X114.93 Y153.097 E.03132
G1 X50.844 Y153.14 E2.00936
G1 X49.795 Y152.872 E.03397
G1 X49.235 Y152.598 E.01954
G1 X48.127 Y151.531 E.04824
G1 X47.775 Y150.849 E.02405
G1 X47.51 Y149.805 E.03378
G1 X47.51 Y88.777 E1.9135
G1 X47.704 Y87.84 E.03
G1 X48.123 Y86.999 E.02944
G1 X48.816 Y86.232 E.03243
G1 X49.248 Y85.939 E.01635
G1 X49.248 Y47.768 E1.19682
G1 X49.77 Y46.234 E.05081
M204 S1000
G1 X50.105 Y46.386 F10800
M204 S800
G1 F1200
G1 X50.493 Y45.9 E.01952
G1 X51.179 Y45.317 E.02823
G1 X51.647 Y45.085 E.01639
G1 X52.606 Y44.835 E.03108
G1 X113.844 Y44.838 E1.92008
G1 X114.525 Y44.975 E.02178
G1 X115.217 Y45.279 E.02369
G1 X115.997 Y45.928 E.03181
G1 X116.535 Y46.736 E.03044
G1 X116.821 Y47.716 E.03201
G1 X116.835 Y62.957 E.47787
G1 X159.221 Y62.958 E1.32897
G1 X160.001 Y63.129 E.02506
G1 X160.717 Y63.48 E.02499
G1 X161.38 Y64.058 E.02759
G1 X161.823 Y64.678 E.02389
G1 X162.209 Y65.931 E.04113
G1 X162.209 Y133.583 E2.12118
G1 X161.959 Y134.542 E.03107
G1 X161.727 Y135.011 E.01639
G1 X161.144 Y135.697 E.02823
G1 X160.657 Y136.085 E.01952
G1 X159.245 Y136.565 E.04678
G1 X117.597 Y136.565 E1.30583
M73 P0 R248
G1 X117.581 Y149.9 E.41812
G1 X117.219 Y151.03 E.0372
G1 X116.914 Y151.483 E.01712
G1 X116.439 Y151.984 E.02166
G1 X115.699 Y152.46 E.02758
G1 X114.845 Y152.729 E.02808
G1 X50.869 Y152.763 E2.00592
G1 X49.909 Y152.512 E.03109
G1 X49.428 Y152.274 E.01684
G1 X48.447 Y151.328 E.04274
G1 X48.134 Y150.733 E.02108
G1 X47.887 Y149.78 E.03084
G1 X47.887 Y88.795 E1.91215
G1 X48.052 Y87.985 E.02591
G1 X48.448 Y87.192 E.02781
G1 X49.077 Y86.505 E.0292
G1 X49.625 Y86.143 E.02058
G1 X49.625 Y47.799 E1.20226
G1 X50.085 Y46.443 E.0449
M204 S1000
G1 X50.421 Y46.594 F10800
M204 S800
G1 F1200
G1 X50.753 Y46.173 E.01682
G1 X51.37 Y45.642 E.02551
G1 X51.765 Y45.444 E.01386
G1 X52.632 Y45.212 E.02814
G1 X113.825 Y45.215 E1.91867
G1 X114.428 Y45.34 E.01933
G1 X115.038 Y45.612 E.02093
G1 X115.732 Y46.197 E.02846
G1 X116.203 Y46.918 E.02698
G1 X116.451 Y47.793 E.02854
G1 X116.458 Y63.512 E.49284
G1 X117.096 Y63.331 E.02078
G1 X159.199 Y63.335 E1.32013
G1 X159.895 Y63.491 E.02237
G1 X160.525 Y63.805 E.02207
G1 X161.113 Y64.325 E.02459
G1 X161.498 Y64.87 E.02092
G1 X161.832 Y65.959 E.03573
G1 X161.832 Y133.558 E2.11951
G1 X161.6 Y134.425 E.02814
M73 Q0 S252
G1 X161.402 Y134.82 E.01386
G1 X160.871 Y135.436 E.02551
G1 X160.45 Y135.769 E.01682
G1 X159.214 Y136.188 E.04091
G1 X117.22 Y136.188 E1.31668
G1 X117.212 Y149.815 E.42728
M73 P1 R248
G1 X116.89 Y150.844 E.0338
G1 X116.629 Y151.235 E.01476
G1 X116.182 Y151.708 E.0204
G1 X115.52 Y152.128 E.02458
G1 X114.762 Y152.36 E.02485
G1 X50.894 Y152.386 E2.00253
G1 X50.027 Y152.154 E.02815
M73 Q1 S252
G1 X49.624 Y151.95 E.01415
G1 X48.765 Y151.124 E.03738
G1 X48.492 Y150.614 E.01813
G1 X48.264 Y149.755 E.02785
G1 X48.264 Y88.815 E1.91074
G1 X48.416 Y88.088 E.02329
G1 X48.772 Y87.387 E.02464
G1 X49.336 Y86.78 E.02599
G1 X50.002 Y86.349 E.02486
G1 X50.002 Y47.83 E1.20776
G1 X50.401 Y46.651 E.03903
M204 S1000
G1 X50.738 Y46.8 F10800
M204 S800
G1 F1200
G1 X51.015 Y46.444 E.01416
G1 X51.563 Y45.966 E.0228
G1 X51.885 Y45.802 E.01132
G1 X52.658 Y45.589 E.02513
G1 X113.804 Y45.592 E1.91721
G1 X114.329 Y45.704 E.01681
G1 X114.857 Y45.944 E.01817
G1 X115.464 Y46.465 E.0251
G1 X115.869 Y47.096 E.02351
G1 X116.081 Y47.868 E.0251
G1 X116.081 Y64.025 E.50659
G1 X117.125 Y63.708 E.03421
G1 X159.179 Y63.712 E1.31855
G1 X159.748 Y63.839 E.01828
G1 X160.334 Y64.131 E.02053
G1 X160.844 Y64.59 E.02151
G1 X161.171 Y65.06 E.01797
G1 X161.455 Y65.987 E.0304
G1 X161.455 Y133.532 E2.11781
G1 X161.242 Y134.305 E.02513
G1 X161.077 Y134.626 E.01132
G1 X160.599 Y135.174 E.0228
G1 X160.243 Y135.452 E.01416
G1 X159.183 Y135.811 E.0351
G1 X117.124 Y135.811 E1.31874
G1 X116.843 Y135.759 E.00894
G1 X116.843 Y149.732 E.43812
G1 X116.56 Y150.66 E.03041
G1 X116.343 Y150.988 E.01234
G1 X115.924 Y151.432 E.01913
G1 X115.381 Y151.777 E.02016
G1 X114.732 Y151.983 E.02137
G1 X50.92 Y152.008 E2.00077
G1 X50.147 Y151.796 E.02514
G1 X49.821 Y151.628 E.01149
G1 X49.081 Y150.917 E.03216
G1 X48.85 Y150.492 E.0152
G1 X48.641 Y149.729 E.02478
G1 X48.641 Y88.834 E1.90934
G1 X48.764 Y88.236 E.01914
G1 X49.095 Y87.583 E.02295
G1 X49.594 Y87.056 E.02274
G1 X50.042 Y86.766 E.01672
G1 X50.379 Y86.647 E.01121
G1 X50.379 Y47.861 E1.21613
G1 X50.719 Y46.857 E.03321
M204 S1000
G1 X51.056 Y47.005 F10800
M204 S800
G1 F1200
G1 X51.28 Y46.714 E.01151
G1 X51.76 Y46.289 E.02012
G1 X52.008 Y46.158 E.00878
G1 X52.685 Y45.966 E.02204
G1 X113.783 Y45.97 E1.9157
G1 X114.226 Y46.067 E.01424
G1 X114.673 Y46.274 E.01541
G1 X115.196 Y46.73 E.02178
G1 X115.514 Y47.226 E.01847
G1 X115.704 Y47.895 E.02179
G1 X115.704 Y64.789 E.52971
G1 X116.374 Y64.331 E.02545
G1 X117.155 Y64.086 E.02567
G1 X159.156 Y64.089 E1.31693
G1 X159.639 Y64.201 E.01553
M73 P1 R247
G1 X160.138 Y64.455 E.01757
G1 X160.572 Y64.852 E.01844
G1 X160.843 Y65.249 E.01507
G1 X161.078 Y66.015 E.02514
G1 X161.078 Y133.505 E2.11609
G1 X160.886 Y134.181 E.02204
G1 X160.755 Y134.429 E.00878
G1 X160.33 Y134.91 E.02012
G1 X160.039 Y135.133 E.01151
G1 X159.152 Y135.433 E.02934
G1 X117.158 Y135.433 E1.3167
G1 X116.466 Y135.24 E.02253
G1 X116.466 Y149.703 E.45346
G1 X116.209 Y150.519 E.02682
G1 X116.06 Y150.74 E.00836
G1 X115.667 Y151.154 E.01791
G1 X115.204 Y151.443 E.01711
G1 X114.648 Y151.614 E.01823
G1 X50.947 Y151.631 E1.99731
G1 X50.271 Y151.439 E.02204
G1 X50.021 Y151.307 E.00885
G1 X49.397 Y150.709 E.02712
G1 X49.206 Y150.366 E.01228
G1 X49.018 Y149.703 E.02163
G1 X49.018 Y88.852 E1.90792
G1 X49.113 Y88.38 E.01511
G1 X49.39 Y87.819 E.01961
G1 X49.819 Y87.36 E.01969
G1 X50.224 Y87.098 E.01512
G1 X50.834 Y86.901 E.02009
G1 X50.756 Y86.59 E.01005
G1 X50.756 Y47.892 E1.21336
G1 X51.037 Y47.062 E.02746
M204 S1000
G1 X51.375 Y47.207 F10800
M204 S800
G1 F1200
G1 X51.546 Y46.981 E.00889
G1 X51.961 Y46.608 E.01749
G1 X52.136 Y46.513 E.00624
G1 X52.713 Y46.343 E.01885
G1 X113.761 Y46.347 E1.91412
G1 X114.12 Y46.43 E.01157
M73 Q1 S251
G1 X114.486 Y46.602 E.01266
G1 X114.925 Y46.994 E.01848
G1 X115.161 Y47.359 E.01362
G1 X115.327 Y47.923 E.01841
G1 X115.327 Y65.837 E.56169
G1 X115.647 Y65.886 E.01017
G1 X115.777 Y65.467 E.01374
G1 X115.872 Y65.291 E.00626
G1 X116.27 Y64.854 E.01853
G1 X116.519 Y64.68 E.00953
G1 X117.186 Y64.463 E.02198
G1 X159.135 Y64.466 E1.31529
G1 X159.493 Y64.549 E.01152
G1 X159.904 Y64.752 E.01438
G1 X160.3 Y65.114 E.01682
G1 X160.514 Y65.434 E.01208
G1 X160.701 Y66.043 E.01998
G1 X160.701 Y133.477 E2.11432
G1 X160.531 Y134.053 E.01885
G1 X160.436 Y134.228 E.00624
G1 X160.063 Y134.643 E.01749
G1 X159.836 Y134.814 E.00889
G1 X159.122 Y135.056 E.02367
G1 X117.187 Y135.056 E1.31483
G1 X116.611 Y134.886 E.01884
G1 X116.089 Y134.582 E.01893
G1 X116.089 Y149.674 E.47319
G1 X115.88 Y150.333 E.02168
G1 X115.774 Y150.493 E.00602
G1 X115.41 Y150.878 E.01662
G1 X115.069 Y151.09 E.01258
G1 X114.564 Y151.246 E.01658
G1 X50.975 Y151.254 E1.99379
G1 X50.399 Y151.084 E.01884
G1 X50.224 Y150.989 E.00625
G1 X49.71 Y150.497 E.0223
G1 X49.561 Y150.237 E.0094
G1 X49.395 Y149.675 E.01838
G1 X49.395 Y88.87 E1.90649
G1 X49.464 Y88.519 E.01119
G1 X49.688 Y88.052 E.01626
G1 X50.049 Y87.66 E.01671
G1 X50.366 Y87.448 E.01195
G1 X50.922 Y87.268 E.01834
G1 X51.341 Y87.25 E.01315
G1 X51.133 Y86.557 E.02266
G1 X51.133 Y47.922 E1.21138
G1 X51.356 Y47.264 E.02179
M204 S1000
;WIPE_START
G1 F8640
G1 X51.546 Y46.981 E-.07873
G1 X51.961 Y46.608 E-.12883
G1 X52.136 Y46.513 E-.04598
G1 X52.713 Y46.343 E-.13879
G1 X54.305 Y46.343 E-.36767
;WIPE_END
G1 E-.04 F2100
G1 Z.6 F720
G1 X115.327 Y67.956 F10800
G1 Z.2 F720
G1 E.8 F2100
M204 S800
G1 F1200
G1 X115.649 Y67.909 E.01021
G1 X115.783 Y68.356 E.01466
G1 X116.025 Y68.733 E.01403
G1 X117.743 Y70.441 E.07597
G1 X118.264 Y70.706 E.01831
G1 X118.455 Y70.752 E.00618
G1 X118.807 Y70.771 E.01105
G1 X118.807 Y128.748 E1.81781
G1 X118.455 Y128.767 E.01105
G1 X118.264 Y128.813 E.00618
G1 X117.744 Y129.077 E.01828
G1 X116.089 Y130.717 E.07303
G1 X116.089 Y88.84 E1.313
G1 X115.924 Y88.278 E.01838
G1 X115.741 Y87.975 E.01107
G1 X115.292 Y87.549 E.01942
G1 X115.05 Y87.401 E.0089
G1 X115.327 Y86.558 E.0278
G1 X115.327 Y68.016 E.58138
M204 S1000
;WIPE_START
G1 F8640
G1 X115.649 Y67.909 E-.07843
G1 X115.783 Y68.356 E-.10794
G1 X116.025 Y68.733 E-.10331
G1 X117.47 Y70.169 E-.47032
;WIPE_END
G1 E-.04 F2100
G1 Z.6 F720
G1 X115.704 Y68.945 F10800
G1 Z.2 F720
G1 E.8 F2100
M204 S800
G1 F1200
G1 X117.499 Y70.73 E.07938
G1 X118.115 Y71.053 E.02182
G1 X118.43 Y71.138 E.01022
