; generated by PrusaSlicer 2.4.1+linux-x64-GTK3 on 2022-04-23 at 19:31:08 UTC

; 

; external perimeters extrusion width = 0.45mm
; perimeters extrusion width = 0.45mm
; infill extrusion width = 0.45mm
; solid infill extrusion width = 0.45mm
; top infill extrusion width = 0.40mm
; first layer extrusion width = 0.42mm

; external perimeters extrusion width = 0.45mm
; perimeters extrusion width = 0.45mm
; infill extrusion width = 0.45mm
; solid infill extrusion width = 0.45mm
; top infill extrusion width = 0.40mm
; first layer extrusion width = 0.42mm

; external perimeters extrusion width = 0.45mm
; perimeters extrusion width = 0.45mm
; infill extrusion width = 0.45mm
; solid infill extrusion width = 0.45mm
; top infill extrusion width = 0.40mm
; first layer extrusion width = 0.42mm

M73 P0 R233
M73 Q0 S237
M201 X1000 Y1000 Z200 E5000 ; sets maximum accelerations, mm/sec^2
M203 X200 Y200 Z12 E120 ; sets maximum feedrates, mm / sec
M204 P1250 R1250 T1250 ; sets acceleration (P, T) and retract acceleration (R), mm/sec^2
M205 X8.00 Y8.00 Z0.40 E4.50 ; sets the jerk limits, mm/sec
M205 S0 T0 ; sets the minimum extruding and travel feed rate, mm/sec
M107
;TYPE:Custom
M862.3 P "MK3S" ; printer model check
M862.1 P0.4 ; nozzle diameter check
M115 U3.10.1 ; tell printer latest fw version
G90 ; use absolute coordinates
M83 ; extruder relative mode
M104 S215 ; set extruder temp
M140 S60 ; set bed temp
M190 S60 ; wait for bed temp
M109 S215 ; wait for extruder temp
G28 W ; home all without mesh bed level
G80 ; mesh bed leveling
G1 Z0.2 F720
G1 Y-3 F1000 ; go outside print area
G92 E0
G1 X60 E9 F1000 ; intro line
G1 X100 E12.5 F1000 ; intro line
G92 E0
M221 S95

; Don't change E values below. Excessive value can damage the printer.

M907 E538 ; set extruder motor current
G21 ; set units to millimeters
G90 ; use absolute coordinates
M83 ; use relative distances for extrusion
M900 K0.05 ; Filament gcode LA 1.5
M900 K30 ; Filament gcode LA 1.0
M107
;LAYER_CHANGE
;Z:0.2
;HEIGHT:0.2
;BEFORE_LAYER_CHANGE
G92 E0.0
;0.2


G1 E-.8 F2100
G1 Z.4 F720
;AFTER_LAYER_CHANGE
;0.2
G1 X57.905 Y58.401 F10800
G1 Z.2 F720
G1 E.8 F2100
M204 S800
;TYPE:Skirt/Brim
;WIDTH:0.42
G1 F1200
G1 X59.557 Y57.355 E.06131
G1 X106.422 Y50.737 E1.48401
G1 X168.222 Y50.737 E1.9377
G1 X169.529 Y51.128 E.04278
G1 X170.406 Y52.174 E.04278
G1 X170.599 Y53.046 E.02801
G1 X171.766 Y94.121 E1.2884
G1 X171.766 Y158.121 E2.00668
G1 X171.374 Y159.428 E.04278
G1 X170.328 Y160.304 E.04278
G1 X169.389 Y160.498 E.03008
G1 X105.889 Y160.498 E1.991
G1 X104.56 Y160.092 E.04357
G1 X58.562 Y129.079 E1.73942
G1 X57.697 Y128.024 E.04278
G1 X57.514 Y127.108 E.02928
G1 X57.514 Y59.708 E2.11328
G1 X57.888 Y58.459 E.0409
M204 S1000
; printing object sdb-display-casing-v5.stl_1 id:0 copy 0
;WIPE_START
G1 F8640
G1 X59.557 Y57.355 E-.46209
G1 X60.835 Y57.174 E-.29791
;WIPE_END
G1 E-.04 F2100
G1 Z.6 F720
G1 X68.704 Y80.621 F10800
G1 Z.2 F720
G1 E.8 F2100
M204 S800
;TYPE:Perimeter
G1 F1200
G1 X79.278 Y80.621 E.33155
G1 X79.278 Y94.195 E.42561
G1 X68.704 Y94.195 E.33155
G1 X68.704 Y80.681 E.42373
M204 S1000
G1 X69.081 Y80.998 F10800
M204 S800
;TYPE:External perimeter
G1 F1200
G1 X78.901 Y80.998 E.3079
G1 X78.901 Y93.818 E.40196
G1 X69.081 Y93.818 E.3079
G1 X69.081 Y81.058 E.40008
M204 S1000
G1 X68.994 Y80.608 F10800
;WIPE_START
G1 F8640
G1 X72.372 Y81.038 E-.76
;WIPE_END
G1 E-.04 F2100
G1 Z.6 F720
G1 X82.923 Y116.019 F10800
G1 Z.2 F720
G1 E.8 F2100
M204 S800
;TYPE:Perimeter
G1 F1200
G1 X83.703 Y115.711 E.02629
G1 X84.491 Y115.616 E.02489
G1 X85.279 Y115.711 E.02489
G1 X86.021 Y115.993 E.02489
G1 X86.674 Y116.444 E.02489
G1 X87.201 Y117.038 E.02489
G1 X87.57 Y117.741 E.02489
G1 X87.759 Y118.512 E.02489
G1 X87.759 Y119.305 E.02489
G1 X87.57 Y120.076 E.02489
G1 X87.201 Y120.779 E.02489
G1 X86.674 Y121.373 E.02489
G1 X86.021 Y121.824 E.02489
G1 X85.279 Y122.106 E.02489
G1 X84.491 Y122.201 E.02489
G1 X83.703 Y122.106 E.02489
G1 X82.96 Y121.824 E.02489
G1 X82.307 Y121.373 E.02489
G1 X81.781 Y120.779 E.02489
G1 X81.412 Y120.076 E.02489
G1 X81.222 Y119.305 E.02489
G1 X81.222 Y118.512 E.02489
G1 X81.412 Y117.741 E.02489
G1 X81.781 Y117.038 E.02489
G1 X82.307 Y116.444 E.02489
G1 X82.873 Y116.053 E.02157
M204 S1000
G1 X83.137 Y116.329 F10800
M204 S800
;TYPE:External perimeter
G1 F1200
G1 X83.794 Y116.08 E.02202
G1 X84.491 Y115.995 E.02202
G1 X85.188 Y116.08 E.02202
G1 X85.844 Y116.329 E.02202
G1 X86.422 Y116.728 E.02202
G1 X86.888 Y117.254 E.02202
G1 X87.214 Y117.875 E.02202
G1 X87.382 Y118.557 E.02202
G1 X87.382 Y119.26 E.02202
G1 X87.214 Y119.941 E.02202
G1 X86.888 Y120.563 E.02202
G1 X86.422 Y121.089 E.02202
G1 X85.844 Y121.488 E.02202
G1 X85.188 Y121.737 E.02202
G1 X84.491 Y121.821 E.02202
G1 X83.794 Y121.737 E.02202
G1 X83.137 Y121.488 E.02202
G1 X82.559 Y121.089 E.02202
G1 X82.093 Y120.563 E.02202
G1 X81.767 Y119.941 E.02202
G1 X81.599 Y119.26 E.02202
G1 X81.599 Y118.557 E.02202
G1 X81.767 Y117.875 E.02202
G1 X82.093 Y117.254 E.02202
G1 X82.559 Y116.728 E.02202
G1 X83.088 Y116.363 E.02014
M204 S1000
G1 X83.153 Y115.929 F10800
;WIPE_START
G1 F8640
G1 X83.794 Y116.08 E-.17563
G1 X84.491 Y115.995 E-.16215
G1 X85.188 Y116.08 E-.16215
G1 X85.844 Y116.329 E-.16215
G1 X86.193 Y116.57 E-.09791
;WIPE_END
G1 E-.04 F2100
G1 Z.6 F720
G1 X97.996 Y60.495 F10800
G1 Z.2 F720
G1 E.8 F2100
M204 S800
;TYPE:Perimeter
G1 F1200
G1 X97.304 Y60.783 E.02352
G1 X97.304 Y126.034 E2.04592
G1 X97.996 Y126.321 E.02352
M73 Q0 S236
G1 X60.678 Y126.321 E1.1701
G1 X60.678 Y60.495 E2.06392
G1 X97.936 Y60.495 E1.16822
M204 S1000
M73 P0 R232
G1 X98.453 Y60.558 F10800
M204 S800
G1 F1200
G1 X98.391 Y60.495 E.00278
G1 X100.504 Y60.495 E.06624
G1 X100.504 Y60.982 E.01527
G1 X99.691 Y61.795 E.03605
G1 X98.496 Y60.601 E.05298
M204 S1000
;WIPE_START
G1 F8640
G1 X98.391 Y60.495 E-.03432
G1 X100.504 Y60.495 E-.48784
G1 X100.504 Y60.982 E-.11243
G1 X100.119 Y61.366 E-.12542
;WIPE_END
G1 E-.04 F2100
G1 Z.6 F720
G1 X99.691 Y125.022 F10800
G1 Z.2 F720
G1 E.8 F2100
M204 S800
G1 F1200
G1 X100.504 Y125.834 E.03605
G1 X100.504 Y126.321 E.01527
G1 X98.391 Y126.321 E.06624
G1 X99.648 Y125.064 E.05576
M204 S1000
;WIPE_START
G1 F8640
G1 X100.504 Y125.834 E-.26582
G1 X100.504 Y126.321 E-.11243
G1 X98.85 Y126.321 E-.38175
;WIPE_END
G1 E-.04 F2100
G1 Z.6 F720
G1 X98.187 Y60.825 F10800
G1 Z.2 F720
G1 E.8 F2100
M204 S800
;TYPE:External perimeter
G1 F1200
G1 X97.681 Y61.034 E.01718
G1 X97.681 Y125.782 E2.03013
G1 X98.187 Y125.992 E.01718
G1 X99.691 Y124.488 E.06668
G1 X100.881 Y125.678 E.05277
G1 X100.881 Y126.698 E.03199
G1 X60.301 Y126.698 E1.27236
G1 X60.301 Y60.118 E2.08757
G1 X100.881 Y60.118 E1.27236
G1 X100.881 Y61.139 E.03199
G1 X99.691 Y62.329 E.05277
G1 X98.229 Y60.867 E.0648
M204 S1000
G1 X97.915 Y60.531 F10800
;WIPE_START
G1 F8640
G1 X97.681 Y61.034 E-.13243
G1 X97.681 Y63.752 E-.62757
;WIPE_END
G1 E-.04 F2100
G1 Z.6 F720
G1 X99.533 Y60.609 F10800
G1 Z.2 F720
G1 E.8 F2100
M204 S800
;TYPE:Solid infill
;WIDTH:0.465053
G1 F1200
G1 X100.005 Y61.081 E.02345
G1 X99.707 Y61.379 E.01482
G1 X98.936 Y60.609 E.03827
M204 S1000
;WIPE_START
G1 F8640
G1 X99.707 Y61.379 E-.25174
G1 X100.005 Y61.081 E-.09747
G1 X99.533 Y60.609 E-.15426
;WIPE_END
G1 E-.29653 F2100
G1 Z.6 F720
G1 X96.426 Y60.609 F10800
G1 Z.2 F720
G1 E.8 F2100
M204 S800
;WIDTH:0.420813
G1 F1200
G1 X97.021 Y61.203 E.02641
G1 X97.021 Y61.737 E.01679
G1 X96.062 Y60.778 E.04262
G1 X95.527 Y60.778 E.01679
G1 X97.021 Y62.272 E.06637
G1 X97.021 Y62.806 E.01679
G1 X94.993 Y60.778 E.09011
G1 X94.458 Y60.778 E.01679
G1 X97.021 Y63.341 E.11386
G1 X97.021 Y63.875 E.01679
G1 X93.924 Y60.778 E.13761
G1 X93.39 Y60.778 E.01679
G1 X97.021 Y64.409 E.16136
G1 X97.021 Y64.944 E.01679
G1 X92.855 Y60.778 E.18511
G1 X92.321 Y60.778 E.01679
G1 X97.021 Y65.478 E.20886
G1 X97.021 Y66.013 E.01679
G1 X91.786 Y60.778 E.2326
G1 X91.252 Y60.778 E.01679
G1 X97.021 Y66.547 E.25635
G1 X97.021 Y67.082 E.01679
G1 X90.718 Y60.778 E.2801
G1 X90.183 Y60.778 E.01679
G1 X97.021 Y67.616 E.30385
G1 X97.021 Y68.15 E.01679
G1 X89.649 Y60.778 E.3276
G1 X89.114 Y60.778 E.01679
G1 X97.021 Y68.685 E.35134
G1 X97.021 Y69.219 E.01679
G1 X88.58 Y60.778 E.37509
G1 X88.045 Y60.778 E.01679
G1 X97.021 Y69.754 E.39884
G1 X97.021 Y70.288 E.01679
G1 X87.511 Y60.778 E.42259
G1 X86.977 Y60.778 E.01679
G1 X97.021 Y70.822 E.44634
G1 X97.021 Y71.357 E.01679
G1 X86.442 Y60.778 E.47009
G1 X85.908 Y60.778 E.01679
G1 X97.021 Y71.891 E.49383
G1 X97.021 Y72.426 E.01679
G1 X85.373 Y60.778 E.51758
G1 X84.839 Y60.778 E.01679
G1 X97.021 Y72.96 E.54133
G1 X97.021 Y73.495 E.01679
G1 X84.304 Y60.778 E.56508
G1 X83.77 Y60.778 E.01679
G1 X97.021 Y74.029 E.58883
G1 X97.021 Y74.563 E.01679
G1 X83.236 Y60.778 E.61258
G1 X82.701 Y60.778 E.01679
G1 X97.021 Y75.098 E.63632
G1 X97.021 Y75.632 E.01679
G1 X82.167 Y60.778 E.66007
G1 X81.632 Y60.778 E.01679
G1 X97.021 Y76.167 E.68382
G1 X97.021 Y76.701 E.01679
G1 X81.098 Y60.778 E.70757
G1 X80.564 Y60.778 E.01679
G1 X97.021 Y77.236 E.73132
G1 X97.021 Y77.77 E.01679
G1 X80.029 Y60.778 E.75507
G1 X79.495 Y60.778 E.01679
G1 X97.021 Y78.304 E.77881
G1 X97.021 Y78.839 E.01679
G1 X78.96 Y60.778 E.80256
G1 X78.426 Y60.778 E.01679
G1 X97.021 Y79.373 E.82631
G1 X97.021 Y79.908 E.01679
G1 X77.891 Y60.778 E.85006
G1 X77.357 Y60.778 E.01679
G1 X97.021 Y80.442 E.87381
G1 X97.021 Y80.976 E.01679
G1 X76.823 Y60.778 E.89755
G1 X76.288 Y60.778 E.01679
G1 X97.021 Y81.511 E.9213
G1 X97.021 Y82.045 E.01679
G1 X75.754 Y60.778 E.94505
G1 X75.219 Y60.778 E.01679
G1 X97.021 Y82.58 E.9688
G1 X97.021 Y83.114 E.01679
G1 X74.685 Y60.778 E.99255
G1 X74.15 Y60.778 E.01679
G1 X97.021 Y83.649 E1.0163
G1 X97.021 Y84.183 E.01679
M73 Q0 S235
G1 X73.616 Y60.778 E1.04004
G1 X73.082 Y60.778 E.01679
G1 X97.021 Y84.717 E1.06379
G1 X97.021 Y85.252 E.01679
M73 P0 R231
G1 X72.547 Y60.778 E1.08754
G1 X72.013 Y60.778 E.01679
G1 X97.021 Y85.786 E1.11129
G1 X97.021 Y86.321 E.01679
G1 X71.478 Y60.778 E1.13504
G1 X70.944 Y60.778 E.01679
G1 X97.021 Y86.855 E1.15879
G1 X97.021 Y87.39 E.01679
G1 X70.41 Y60.778 E1.18253
G1 X69.875 Y60.778 E.01679
G1 X97.021 Y87.924 E1.20628
G1 X97.021 Y88.458 E.01679
G1 X69.341 Y60.778 E1.23003
G1 X68.806 Y60.778 E.01679
G1 X97.021 Y88.993 E1.25378
G1 X97.021 Y89.527 E.01679
G1 X68.272 Y60.778 E1.27753
G1 X67.737 Y60.778 E.01679
G1 X97.021 Y90.062 E1.30127
G1 X97.021 Y90.596 E.01679
G1 X67.203 Y60.778 E1.32502
G1 X66.669 Y60.778 E.01679
G1 X97.021 Y91.131 E1.34877
G1 X97.021 Y91.665 E.01679
G1 X66.134 Y60.778 E1.37252
G1 X65.6 Y60.778 E.01679
G1 X97.021 Y92.199 E1.39627
G1 X97.021 Y92.734 E.01679
G1 X65.065 Y60.778 E1.42002
G1 X64.531 Y60.778 E.01679
G1 X97.021 Y93.268 E1.44376
G1 X97.021 Y93.803 E.01679
G1 X63.996 Y60.778 E1.46751
G1 X63.462 Y60.778 E.01679
G1 X97.021 Y94.337 E1.49126
G1 X97.021 Y94.871 E.01679
G1 X62.928 Y60.778 E1.51501
G1 X62.393 Y60.778 E.01679
M73 P1 R231
M73 Q1 S235
G1 X97.021 Y95.406 E1.53876
G1 X97.021 Y95.94 E.01679
G1 X61.859 Y60.778 E1.56251
G1 X61.324 Y60.778 E.01679
G1 X97.021 Y96.475 E1.58625
G1 X97.021 Y97.009 E.01679
G1 X60.961 Y60.949 E1.60242
G1 X60.961 Y61.483 E.01679
G1 X97.021 Y97.544 E1.60242
G1 X97.021 Y98.078 E.01679
G1 X60.961 Y62.018 E1.60242
G1 X60.961 Y62.552 E.01679
M73 Q1 S234
G1 X78.747 Y80.339 E.79038
G1 X78.212 Y80.339 E.01679
G1 X60.961 Y63.087 E.76663
G1 X60.961 Y63.621 E.01679
G1 X77.678 Y80.339 E.74288
G1 X77.144 Y80.339 E.01679
G1 X60.961 Y64.155 E.71914
G1 X60.961 Y64.69 E.01679
M73 P1 R230
G1 X76.609 Y80.339 E.69539
G1 X76.075 Y80.339 E.01679
G1 X60.961 Y65.224 E.67164
G1 X60.961 Y65.759 E.01679
G1 X75.54 Y80.339 E.64789
G1 X75.006 Y80.339 E.01679
G1 X60.961 Y66.293 E.62414
G1 X60.961 Y66.828 E.01679
G1 X74.472 Y80.339 E.60039
G1 X73.937 Y80.339 E.01679
G1 X60.961 Y67.362 E.57665
G1 X60.961 Y67.896 E.01679
G1 X73.403 Y80.339 E.5529
G1 X72.868 Y80.339 E.01679
G1 X60.961 Y68.431 E.52915
G1 X60.961 Y68.965 E.01679
G1 X72.334 Y80.339 E.5054
G1 X71.799 Y80.339 E.01679
G1 X60.961 Y69.5 E.48165
G1 X60.961 Y70.034 E.01679
G1 X71.265 Y80.339 E.4579
G1 X70.731 Y80.339 E.01679
G1 X60.961 Y70.568 E.43416
G1 X60.961 Y71.103 E.01679
G1 X70.196 Y80.339 E.41041
G1 X69.662 Y80.339 E.01679
G1 X60.961 Y71.637 E.38666
G1 X60.961 Y72.172 E.01679
G1 X69.127 Y80.339 E.36291
G1 X68.593 Y80.339 E.01679
G1 X60.961 Y72.706 E.33916
G1 X60.961 Y73.241 E.01679
G1 X68.421 Y80.701 E.33151
G1 X68.421 Y81.235 E.01679
G1 X60.961 Y73.775 E.33151
G1 X60.961 Y74.309 E.01679
G1 X68.421 Y81.77 E.33151
G1 X68.421 Y82.304 E.01679
G1 X60.961 Y74.844 E.33151
G1 X60.961 Y75.378 E.01679
G1 X68.421 Y82.839 E.33151
G1 X68.421 Y83.373 E.01679
G1 X60.961 Y75.913 E.33151
G1 X60.961 Y76.447 E.01679
G1 X68.421 Y83.907 E.33151
G1 X68.421 Y84.442 E.01679
G1 X60.961 Y76.982 E.33151
G1 X60.961 Y77.516 E.01679
G1 X68.421 Y84.976 E.33151
G1 X68.421 Y85.511 E.01679
G1 X60.961 Y78.05 E.33151
G1 X60.961 Y78.585 E.01679
G1 X68.421 Y86.045 E.33151
G1 X68.421 Y86.579 E.01679
G1 X60.961 Y79.119 E.33151
G1 X60.961 Y79.654 E.01679
G1 X68.421 Y87.114 E.33151
G1 X68.421 Y87.648 E.01679
G1 X60.961 Y80.188 E.33151
G1 X60.961 Y80.722 E.01679
G1 X68.421 Y88.183 E.33151
G1 X68.421 Y88.717 E.01679
G1 X60.961 Y81.257 E.33151
G1 X60.961 Y81.791 E.01679
G1 X68.421 Y89.252 E.33151
G1 X68.421 Y89.786 E.01679
G1 X60.961 Y82.326 E.33151
G1 X60.961 Y82.86 E.01679
G1 X68.421 Y90.32 E.33151
G1 X68.421 Y90.855 E.01679
G1 X60.961 Y83.395 E.33151
G1 X60.961 Y83.929 E.01679
G1 X68.421 Y91.389 E.33151
G1 X68.421 Y91.924 E.01679
G1 X60.961 Y84.463 E.33151
G1 X60.961 Y84.998 E.01679
G1 X68.421 Y92.458 E.33151
G1 X68.421 Y92.993 E.01679
G1 X60.961 Y85.532 E.33151
G1 X60.961 Y86.067 E.01679
G1 X68.59 Y93.697 E.33905
M204 S1000
;WIPE_START
G1 F8640
G1 X66.263 Y91.369 E-.76
;WIPE_END
G1 E-.04 F2100
G1 Z.6 F720
G1 X79.391 Y80.982 F10800
G1 Z.2 F720
G1 E.8 F2100
M204 S800
G1 F1200
G1 X97.021 Y98.612 E.78343
G1 X97.021 Y99.147 E.01679
G1 X79.561 Y81.687 E.77589
G1 X79.561 Y82.221 E.01679
G1 X97.021 Y99.681 E.77589
G1 X97.021 Y100.216 E.01679
G1 X79.561 Y82.755 E.77589
G1 X79.561 Y83.29 E.01679
G1 X97.021 Y100.75 E.77589
G1 X97.021 Y101.285 E.01679
G1 X79.561 Y83.824 E.77589
G1 X79.561 Y84.359 E.01679
G1 X97.021 Y101.819 E.77589
G1 X97.021 Y102.353 E.01679
G1 X79.561 Y84.893 E.77589
G1 X79.561 Y85.428 E.01679
G1 X97.021 Y102.888 E.77589
G1 X97.021 Y103.422 E.01679
G1 X79.561 Y85.962 E.77589
G1 X79.561 Y86.496 E.01679
G1 X97.021 Y103.957 E.77589
G1 X97.021 Y104.491 E.01679
G1 X79.561 Y87.031 E.77589
G1 X79.561 Y87.565 E.01679
G1 X97.021 Y105.025 E.77589
G1 X97.021 Y105.56 E.01679
G1 X79.561 Y88.1 E.77589
G1 X79.561 Y88.634 E.01679
G1 X97.021 Y106.094 E.77589
G1 X97.021 Y106.629 E.01679
G1 X79.561 Y89.168 E.77589
G1 X79.561 Y89.703 E.01679
G1 X97.021 Y107.163 E.77589
G1 X97.021 Y107.698 E.01679
G1 X79.561 Y90.237 E.77589
G1 X79.561 Y90.772 E.01679
G1 X97.021 Y108.232 E.77589
G1 X97.021 Y108.766 E.01679
G1 X79.561 Y91.306 E.77589
G1 X79.561 Y91.841 E.01679
G1 X97.021 Y109.301 E.77589
G1 X97.021 Y109.835 E.01679
M73 Q1 S233
G1 X79.561 Y92.375 E.77589
G1 X79.561 Y92.909 E.01679
G1 X97.021 Y110.37 E.77589
G1 X97.021 Y110.904 E.01679
G1 X79.561 Y93.444 E.77589
G1 X79.561 Y93.978 E.01679
G1 X97.021 Y111.439 E.77589
G1 X97.021 Y111.973 E.01679
M73 P1 R229
G1 X79.526 Y94.478 E.77742
G1 X78.992 Y94.478 E.01679
G1 X97.021 Y112.507 E.80116
G1 X97.021 Y113.042 E.01679
G1 X78.457 Y94.478 E.82491
G1 X77.923 Y94.478 E.01679
G1 X97.021 Y113.576 E.84866
G1 X97.021 Y114.111 E.01679
G1 X77.388 Y94.478 E.87241
G1 X76.854 Y94.478 E.01679
G1 X97.021 Y114.645 E.89616
G1 X97.021 Y115.179 E.01679
G1 X76.32 Y94.478 E.91991
G1 X75.785 Y94.478 E.01679
G1 X97.021 Y115.714 E.94365
G1 X97.021 Y116.248 E.01679
G1 X75.251 Y94.478 E.9674
G1 X74.716 Y94.478 E.01679
G1 X97.021 Y116.783 E.99115
G1 X97.021 Y117.317 E.01679
G1 X74.182 Y94.478 E1.0149
G1 X73.647 Y94.478 E.01679
G1 X97.021 Y117.852 E1.03865
G1 X97.021 Y118.386 E.01679
G1 X73.113 Y94.478 E1.06239
G1 X72.579 Y94.478 E.01679
G1 X97.021 Y118.92 E1.08614
G1 X97.021 Y119.455 E.01679
G1 X72.044 Y94.478 E1.10989
G1 X71.51 Y94.478 E.01679
G1 X97.021 Y119.989 E1.13364
G1 X97.021 Y120.524 E.01679
G1 X70.975 Y94.478 E1.15739
G1 X70.441 Y94.478 E.01679
