; generated by PrusaSlicer 2.4.1+linux-x64-GTK3 on 2022-04-23 at 10:47:37 UTC

; 

; external perimeters extrusion width = 0.45mm
; perimeters extrusion width = 0.45mm
; infill extrusion width = 0.45mm
; solid infill extrusion width = 0.45mm
; top infill extrusion width = 0.40mm
; first layer extrusion width = 0.42mm

; external perimeters extrusion width = 0.45mm
; perimeters extrusion width = 0.45mm
; infill extrusion width = 0.45mm
; solid infill extrusion width = 0.45mm
; top infill extrusion width = 0.40mm
; first layer extrusion width = 0.42mm

; external perimeters extrusion width = 0.45mm
; perimeters extrusion width = 0.45mm
; infill extrusion width = 0.45mm
; solid infill extrusion width = 0.45mm
; top infill extrusion width = 0.40mm
; first layer extrusion width = 0.42mm

M73 P0 R185
M73 Q0 S187
M201 X1000 Y1000 Z200 E5000 ; sets maximum accelerations, mm/sec^2
M203 X200 Y200 Z12 E120 ; sets maximum feedrates, mm / sec
M204 P1250 R1250 T1250 ; sets acceleration (P, T) and retract acceleration (R), mm/sec^2
M205 X8.00 Y8.00 Z0.40 E4.50 ; sets the jerk limits, mm/sec
M205 S0 T0 ; sets the minimum extruding and travel feed rate, mm/sec
M107
;TYPE:Custom
M862.3 P "MK3S" ; printer model check
M862.1 P0.4 ; nozzle diameter check
M115 U3.10.1 ; tell printer latest fw version
G90 ; use absolute coordinates
M83 ; extruder relative mode
M104 S215 ; set extruder temp
M140 S60 ; set bed temp
M190 S60 ; wait for bed temp
M109 S215 ; wait for extruder temp
G28 W ; home all without mesh bed level
G80 ; mesh bed leveling
G1 Z0.2 F720
G1 Y-3 F1000 ; go outside print area
G92 E0
G1 X60 E9 F1000 ; intro line
G1 X100 E12.5 F1000 ; intro line
G92 E0
M221 S95

; Don't change E values below. Excessive value can damage the printer.

M907 E538 ; set extruder motor current
G21 ; set units to millimeters
G90 ; use absolute coordinates
M83 ; use relative distances for extrusion
M900 K0.05 ; Filament gcode LA 1.5
M900 K30 ; Filament gcode LA 1.0
M107
;LAYER_CHANGE
;Z:0.2
;HEIGHT:0.2
;BEFORE_LAYER_CHANGE
G92 E0.0
;0.2


G1 E-.8 F2100
G1 Z.4 F720
;AFTER_LAYER_CHANGE
;0.2
G1 X79.72 Y85.836 F10800
G1 Z.2 F720
G1 E.8 F2100
M204 S800
;TYPE:Skirt/Brim
;WIDTH:0.42
G1 F1200
G1 X81.361 Y84.791 E.06101
G1 X122.46 Y78.802 E1.30223
G1 X183.26 Y78.802 E1.90634
G1 X184.567 Y79.193 E.04278
M73 P0 R184
G1 X185.574 Y80.637 E.0552
G1 X194.919 Y120.56 E1.2856
G1 X194.982 Y121.102 E.0171
G1 X194.982 Y159.602 E1.20714
G1 X194.59 Y160.909 E.04278
G1 X193.544 Y161.786 E.04278
G1 X192.605 Y161.979 E.03008
G1 X121.805 Y161.979 E2.21988
G1 X81.226 Y153.672 E1.29871
G1 X80.025 Y153.024 E.04278
G1 X79.328 Y151.343 E.05705
G1 X79.328 Y87.143 E2.01295
G1 X79.703 Y85.894 E.0409
M204 S1000
; printing object sdb-display-casing-v4.stl_2 id:1 copy 0
;WIPE_START
G1 F8640
G1 X81.361 Y84.791 E-.45984
G1 X82.647 Y84.604 E-.30016
;WIPE_END
G1 E-.04 F2100
G1 Z.6 F720
G1 X82.115 Y87.553 F10800
G1 Z.2 F720
G1 E.8 F2100
M204 S800
;TYPE:External perimeter
G1 F1200
G1 X116.875 Y87.553 E1.08987
G1 X118.475 Y85.953 E.07095
G1 X119.495 Y85.953 E.03199
G1 X119.495 Y152.533 E2.08757
G1 X118.475 Y152.533 E.03199
G1 X116.875 Y150.933 E.07095
G1 X82.115 Y150.933 E1.08987
G1 X82.115 Y87.613 E1.98535
M204 S1000
G1 X82.49 Y87.693 F10800
G1 X82.492 Y87.93
M204 S800
;TYPE:Perimeter
G1 F1200
G1 X117.031 Y87.93 E1.08294
G1 X118.631 Y86.33 E.07095
G1 X119.118 Y86.33 E.01527
G1 X119.118 Y152.156 E2.06392
G1 X118.631 Y152.156 E.01527
G1 X117.031 Y150.556 E.07095
G1 X82.492 Y150.556 E1.08294
G1 X82.492 Y87.99 E1.96171
M204 S1000
;WIPE_START
M73 Q0 S186
G1 F8640
G1 X85.784 Y87.985 E-.76
;WIPE_END
G1 E-.04 F2100
G1 Z.6 F720
G1 X103.487 Y140.279 F10800
G1 Z.2 F720
G1 E.8 F2100
M204 S800
;TYPE:External perimeter
G1 F1200
G1 X104.369 Y139.944 E.02958
G1 X105.305 Y139.83 E.02958
G1 X106.242 Y139.944 E.02958
G1 X107.124 Y140.279 E.02958
G1 X107.9 Y140.814 E.02958
G1 X108.526 Y141.52 E.02958
G1 X108.964 Y142.356 E.02958
G1 X109.19 Y143.272 E.02958
G1 X109.19 Y144.215 E.02958
G1 X108.964 Y145.131 E.02958
G1 X108.526 Y145.966 E.02958
G1 X107.9 Y146.672 E.02958
G1 X107.124 Y147.208 E.02958
G1 X106.242 Y147.543 E.02958
G1 X105.305 Y147.656 E.02958
G1 X104.369 Y147.543 E.02958
G1 X103.487 Y147.208 E.02958
G1 X102.71 Y146.672 E.02958
G1 X102.085 Y145.966 E.02958
G1 X101.647 Y145.131 E.02958
G1 X101.421 Y144.215 E.02958
G1 X101.421 Y143.272 E.02958
G1 X101.647 Y142.356 E.02958
G1 X102.085 Y141.52 E.02958
G1 X102.71 Y140.814 E.02958
G1 X103.437 Y140.313 E.0277
M204 S1000
G1 X103.503 Y139.879 F10800
G1 X103.31 Y139.942
M204 S800
;TYPE:Perimeter
G1 F1200
G1 X104.278 Y139.575 E.03245
G1 X104.818 Y139.51 E.01705
G1 X105.305 Y139.45 E.0154
G1 X106.333 Y139.575 E.03245
G1 X107.3 Y139.942 E.03245
G1 X108.152 Y140.53 E.03245
G1 X108.838 Y141.305 E.03245
G1 X109.319 Y142.221 E.03245
G1 X109.567 Y143.226 E.03245
G1 X109.567 Y144.261 E.03245
G1 X109.319 Y145.266 E.03245
G1 X108.838 Y146.182 E.03245
G1 X108.152 Y146.957 E.03245
G1 X107.3 Y147.544 E.03245
G1 X106.333 Y147.911 E.03245
G1 X105.305 Y148.036 E.03245
G1 X104.278 Y147.911 E.03245
G1 X103.31 Y147.544 E.03245
G1 X102.459 Y146.957 E.03245
G1 X101.772 Y146.182 E.03245
G1 X101.291 Y145.266 E.03245
G1 X101.044 Y144.261 E.03245
G1 X101.044 Y143.226 E.03245
G1 X101.291 Y142.221 E.03245
G1 X101.772 Y141.305 E.03245
G1 X102.459 Y140.53 E.03245
G1 X103.261 Y139.976 E.03057
M204 S1000
;WIPE_START
G1 F8640
G1 X104.278 Y139.575 E-.25243
G1 X104.818 Y139.51 E-.12557
G1 X105.305 Y139.45 E-.11339
G1 X106.333 Y139.575 E-.23896
G1 X106.453 Y139.621 E-.02965
;WIPE_END
G1 E-.04 F2100
G1 Z.6 F720
G1 X100.715 Y119.653 F10800
G1 Z.2 F720
G1 E.8 F2100
M204 S800
;TYPE:External perimeter
G1 F1200
G1 X89.895 Y119.653 E.33925
G1 X89.895 Y105.833 E.43332
G1 X100.715 Y105.833 E.33925
G1 X100.715 Y119.593 E.43144
M204 S1000
G1 X100.803 Y120.044 F10800
G1 X101.092 Y120.03
M204 S800
;TYPE:Perimeter
G1 F1200
G1 X89.518 Y120.03 E.3629
G1 X89.518 Y105.456 E.45696
G1 X101.092 Y105.456 E.3629
G1 X101.092 Y119.97 E.45508
M204 S1000
;WIPE_START
G1 F8640
G1 X97.801 Y119.987 E-.76
;WIPE_END
G1 E-.04 F2100
G1 Z.6 F720
G1 X118.46 Y86.662 F10800
G1 Z.2 F720
G1 E.8 F2100
M204 S800
;TYPE:Solid infill
;WIDTH:0.420825
G1 F1200
G1 X118.835 Y87.038 E.0167
G1 X118.835 Y87.572 E.01679
G1 X118.312 Y87.049 E.02324
G1 X118.045 Y87.316 E.01187
G1 X118.835 Y88.107 E.03512
G1 X118.835 Y88.641 E.01679
G1 X117.778 Y87.584 E.04699
G1 X117.511 Y87.851 E.01187
G1 X118.835 Y89.176 E.05887
G1 X118.835 Y89.71 E.01679
G1 X117.243 Y88.118 E.07074
G1 X117.148 Y88.213 E.00422
G1 X116.804 Y88.213 E.01082
G1 X118.835 Y90.244 E.09027
G1 X118.835 Y90.779 E.01679
G1 X116.27 Y88.213 E.11402
G1 X115.735 Y88.213 E.01679
G1 X118.835 Y91.313 E.13777
G1 X118.835 Y91.848 E.01679
G1 X115.201 Y88.213 E.16152
G1 X114.666 Y88.213 E.01679
G1 X118.835 Y92.382 E.18527
G1 X118.835 Y92.917 E.01679
G1 X114.132 Y88.213 E.20902
G1 X113.597 Y88.213 E.01679
G1 X118.835 Y93.451 E.23277
G1 X118.835 Y93.986 E.01679
G1 X113.063 Y88.213 E.25652
G1 X112.529 Y88.213 E.01679
G1 X118.835 Y94.52 E.28027
G1 X118.835 Y95.054 E.01679
G1 X111.994 Y88.213 E.30402
G1 X111.46 Y88.213 E.01679
G1 X118.835 Y95.589 E.32777
G1 X118.835 Y96.123 E.01679
G1 X110.925 Y88.213 E.35151
G1 X110.391 Y88.213 E.01679
G1 X118.835 Y96.658 E.37526
G1 X118.835 Y97.192 E.01679
G1 X109.856 Y88.213 E.39901
G1 X109.322 Y88.213 E.01679
G1 X118.835 Y97.727 E.42276
G1 X118.835 Y98.261 E.01679
G1 X108.788 Y88.213 E.44651
G1 X108.253 Y88.213 E.01679
G1 X118.835 Y98.795 E.47026
G1 X118.835 Y99.33 E.01679
G1 X107.719 Y88.213 E.49401
G1 X107.184 Y88.213 E.01679
G1 X118.835 Y99.864 E.51776
G1 X118.835 Y100.399 E.01679
G1 X106.65 Y88.213 E.54151
G1 X106.115 Y88.213 E.01679
G1 X118.835 Y100.933 E.56526
G1 X118.835 Y101.468 E.01679
G1 X105.581 Y88.213 E.58901
G1 X105.046 Y88.213 E.01679
G1 X118.835 Y102.002 E.61276
G1 X118.835 Y102.537 E.01679
G1 X104.512 Y88.213 E.63651
G1 X103.978 Y88.213 E.01679
G1 X118.835 Y103.071 E.66026
G1 X118.835 Y103.605 E.01679
M73 P0 R183
G1 X103.443 Y88.213 E.68401
G1 X102.909 Y88.213 E.01679
G1 X118.835 Y104.14 E.70776
G1 X118.835 Y104.674 E.01679
G1 X102.374 Y88.213 E.73151
G1 X101.84 Y88.213 E.01679
G1 X118.835 Y105.209 E.75526
G1 X118.835 Y105.743 E.01679
G1 X101.305 Y88.213 E.77901
G1 X100.771 Y88.213 E.01679
G1 X118.835 Y106.278 E.80276
G1 X118.835 Y106.812 E.01679
G1 X100.237 Y88.213 E.82651
G1 X99.702 Y88.213 E.01679
G1 X118.835 Y107.346 E.85026
G1 X118.835 Y107.881 E.01679
G1 X99.168 Y88.213 E.87401
G1 X98.633 Y88.213 E.01679
G1 X118.835 Y108.415 E.89776
G1 X118.835 Y108.95 E.01679
G1 X98.099 Y88.213 E.92151
G1 X97.564 Y88.213 E.01679
G1 X118.835 Y109.484 E.94526
G1 X118.835 Y110.019 E.01679
G1 X97.03 Y88.213 E.96901
G1 X96.495 Y88.213 E.01679
G1 X118.835 Y110.553 E.99276
G1 X118.835 Y111.088 E.01679
G1 X95.961 Y88.213 E1.01651
G1 X95.427 Y88.213 E.01679
G1 X118.835 Y111.622 E1.04026
G1 X118.835 Y112.156 E.01679
G1 X94.892 Y88.213 E1.06401
G1 X94.358 Y88.213 E.01679
G1 X118.835 Y112.691 E1.08776
G1 X118.835 Y113.225 E.01679
G1 X93.823 Y88.213 E1.11151
G1 X93.289 Y88.213 E.01679
G1 X118.835 Y113.76 E1.13526
G1 X118.835 Y114.294 E.01679
M73 Q0 S185
G1 X92.754 Y88.213 E1.15901
G1 X92.22 Y88.213 E.01679
G1 X118.835 Y114.829 E1.18276
G1 X118.835 Y115.363 E.01679
G1 X91.685 Y88.213 E1.20651
G1 X91.151 Y88.213 E.01679
G1 X118.835 Y115.898 E1.23026
G1 X118.835 Y116.432 E.01679
G1 X90.617 Y88.213 E1.25401
G1 X90.082 Y88.213 E.01679
M73 P1 R183
M73 Q1 S185
G1 X118.835 Y116.966 E1.27776
G1 X118.835 Y117.501 E.01679
G1 X89.548 Y88.213 E1.30151
G1 X89.013 Y88.213 E.01679
G1 X118.835 Y118.035 E1.32526
G1 X118.835 Y118.57 E.01679
G1 X88.479 Y88.213 E1.34901
G1 X87.944 Y88.213 E.01679
G1 X118.835 Y119.104 E1.37275
G1 X118.835 Y119.639 E.01679
G1 X87.41 Y88.213 E1.3965
G1 X86.876 Y88.213 E.01679
G1 X118.835 Y120.173 E1.42025
G1 X118.835 Y120.707 E.01679
G1 X86.341 Y88.213 E1.444
G1 X85.807 Y88.213 E.01679
G1 X118.835 Y121.242 E1.46775
G1 X118.835 Y121.776 E.01679
M73 P1 R182
G1 X85.272 Y88.213 E1.4915
G1 X84.738 Y88.213 E.01679
G1 X118.835 Y122.311 E1.51525
G1 X118.835 Y122.845 E.01679
G1 X84.203 Y88.213 E1.539
G1 X83.669 Y88.213 E.01679
G1 X100.629 Y105.173 E.75369
G1 X100.095 Y105.173 E.01679
G1 X83.134 Y88.213 E.75369
G1 X82.775 Y88.213 E.01129
G1 X82.775 Y88.388 E.0055
G1 X99.56 Y105.173 E.74591
G1 X99.026 Y105.173 E.01679
G1 X82.775 Y88.923 E.72216
G1 X82.775 Y89.457 E.01679
G1 X98.491 Y105.173 E.69841
G1 X97.957 Y105.173 E.01679
G1 X82.775 Y89.992 E.67466
G1 X82.775 Y90.526 E.01679
G1 X97.423 Y105.173 E.65091
G1 X96.888 Y105.173 E.01679
G1 X82.775 Y91.06 E.62716
G1 X82.775 Y91.595 E.01679
G1 X96.354 Y105.173 E.60341
G1 X95.819 Y105.173 E.01679
G1 X82.775 Y92.129 E.57966
G1 X82.775 Y92.664 E.01679
G1 X95.285 Y105.173 E.55591
G1 X94.75 Y105.173 E.01679
G1 X82.775 Y93.198 E.53216
G1 X82.775 Y93.733 E.01679
G1 X94.216 Y105.173 E.50841
G1 X93.681 Y105.173 E.01679
G1 X82.775 Y94.267 E.48466
G1 X82.775 Y94.802 E.01679
G1 X93.147 Y105.173 E.46091
G1 X92.613 Y105.173 E.01679
G1 X82.775 Y95.336 E.43716
G1 X82.775 Y95.87 E.01679
G1 X92.078 Y105.173 E.41341
G1 X91.544 Y105.173 E.01679
G1 X82.775 Y96.405 E.38966
G1 X82.775 Y96.939 E.01679
G1 X91.009 Y105.173 E.36591
G1 X90.475 Y105.173 E.01679
G1 X82.775 Y97.474 E.34217
G1 X82.775 Y98.008 E.01679
G1 X89.94 Y105.173 E.31842
G1 X89.406 Y105.173 E.01679
G1 X82.775 Y98.543 E.29467
G1 X82.775 Y99.077 E.01679
G1 X89.235 Y105.537 E.28709
G1 X89.235 Y106.072 E.01679
G1 X82.775 Y99.611 E.28709
G1 X82.775 Y100.146 E.01679
G1 X89.235 Y106.606 E.28709
G1 X89.235 Y107.141 E.01679
G1 X82.775 Y100.68 E.28709
G1 X82.775 Y101.215 E.01679
G1 X89.235 Y107.675 E.28709
G1 X89.235 Y108.209 E.01679
M73 Q1 S184
G1 X82.775 Y101.749 E.28709
G1 X82.775 Y102.284 E.01679
G1 X89.235 Y108.744 E.28709
G1 X89.235 Y109.278 E.01679
G1 X82.775 Y102.818 E.28709
G1 X82.775 Y103.353 E.01679
G1 X89.235 Y109.813 E.28709
G1 X89.235 Y110.347 E.01679
G1 X82.775 Y103.887 E.28709
G1 X82.775 Y104.421 E.01679
G1 X89.235 Y110.882 E.28709
G1 X89.235 Y111.416 E.01679
G1 X82.775 Y104.956 E.28709
G1 X82.775 Y105.49 E.01679
G1 X89.235 Y111.951 E.28709
G1 X89.235 Y112.485 E.01679
G1 X82.775 Y106.025 E.28709
G1 X82.775 Y106.559 E.01679
G1 X89.235 Y113.019 E.28709
G1 X89.235 Y113.554 E.01679
G1 X82.775 Y107.094 E.28709
G1 X82.775 Y107.628 E.01679
G1 X89.235 Y114.088 E.28709
G1 X89.235 Y114.623 E.01679
G1 X82.775 Y108.162 E.28709
G1 X82.775 Y108.697 E.01679
G1 X89.235 Y115.157 E.28709
G1 X89.235 Y115.692 E.01679
G1 X82.775 Y109.231 E.28709
G1 X82.775 Y109.766 E.01679
G1 X89.235 Y116.226 E.28709
G1 X89.235 Y116.76 E.01679
G1 X82.775 Y110.3 E.28709
G1 X82.775 Y110.835 E.01679
G1 X89.235 Y117.295 E.28709
G1 X89.235 Y117.829 E.01679
G1 X82.775 Y111.369 E.28709
G1 X82.775 Y111.904 E.01679
G1 X89.235 Y118.364 E.28709
G1 X89.235 Y118.898 E.01679
G1 X82.775 Y112.438 E.28709
G1 X82.775 Y112.972 E.01679
G1 X89.405 Y119.602 E.29463
M204 S1000
;WIPE_START
G1 F8640
G1 X87.078 Y117.275 E-.76
;WIPE_END
G1 E-.04 F2100
G1 Z.6 F720
G1 X101.205 Y105.75 F10800
G1 Z.2 F720
G1 E.8 F2100
M204 S800
G1 F1200
G1 X118.835 Y123.38 E.78345
G1 X118.835 Y123.914 E.01679
G1 X101.375 Y106.454 E.77591
G1 X101.375 Y106.988 E.01679
G1 X118.835 Y124.449 E.77591
G1 X118.835 Y124.983 E.01679
G1 X101.375 Y107.523 E.77591
G1 X101.375 Y108.057 E.01679
G1 X118.835 Y125.517 E.77591
G1 X118.835 Y126.052 E.01679
G1 X101.375 Y108.592 E.77591
G1 X101.375 Y109.126 E.01679
G1 X118.835 Y126.586 E.77591
G1 X118.835 Y127.121 E.01679
G1 X101.375 Y109.66 E.77591
G1 X101.375 Y110.195 E.01679
G1 X118.835 Y127.655 E.77591
G1 X118.835 Y128.19 E.01679
G1 X101.375 Y110.729 E.77591
G1 X101.375 Y111.264 E.01679
G1 X118.835 Y128.724 E.77591
G1 X118.835 Y129.258 E.01679
G1 X101.375 Y111.798 E.77591
G1 X101.375 Y112.333 E.01679
G1 X118.835 Y129.793 E.77591
G1 X118.835 Y130.327 E.01679
G1 X101.375 Y112.867 E.77591
G1 X101.375 Y113.402 E.01679
G1 X118.835 Y130.862 E.77591
G1 X118.835 Y131.396 E.01679
M73 P1 R181
G1 X101.375 Y113.936 E.77591
G1 X101.375 Y114.47 E.01679
G1 X118.835 Y131.931 E.77591
G1 X118.835 Y132.465 E.01679
G1 X101.375 Y115.005 E.77591
G1 X101.375 Y115.539 E.01679
G1 X118.835 Y133 E.77591
G1 X118.835 Y133.534 E.01679
G1 X101.375 Y116.074 E.77591
G1 X101.375 Y116.608 E.01679
G1 X118.835 Y134.068 E.77591
G1 X118.835 Y134.603 E.01679
G1 X101.375 Y117.143 E.77591
G1 X101.375 Y117.677 E.01679
G1 X118.835 Y135.137 E.77591
G1 X118.835 Y135.672 E.01679
G1 X101.375 Y118.211 E.77591
G1 X101.375 Y118.746 E.01679
G1 X118.835 Y136.206 E.77591
G1 X118.835 Y136.741 E.01679
G1 X101.375 Y119.28 E.77591
G1 X101.375 Y119.815 E.01679
G1 X118.835 Y137.275 E.77591
G1 X118.835 Y137.809 E.01679
G1 X101.339 Y120.313 E.77751
G1 X100.805 Y120.313 E.01679
G1 X118.835 Y138.344 E.80126
G1 X118.835 Y138.878 E.01679
G1 X100.27 Y120.313 E.82501
G1 X99.736 Y120.313 E.01679
G1 X118.835 Y139.413 E.84876
G1 X118.835 Y139.947 E.01679
G1 X99.201 Y120.313 E.87251
G1 X98.667 Y120.313 E.01679
G1 X118.835 Y140.482 E.89626
G1 X118.835 Y141.016 E.01679
G1 X98.132 Y120.313 E.92001
G1 X97.598 Y120.313 E.01679
G1 X118.835 Y141.551 E.94376
G1 X118.835 Y142.085 E.01679
G1 X97.064 Y120.313 E.96751
G1 X96.529 Y120.313 E.01679
G1 X118.835 Y142.619 E.99126
G1 X118.835 Y143.154 E.01679
M73 P2 R181
M73 Q1 S183
G1 X95.995 Y120.313 E1.01501
G1 X95.46 Y120.313 E.01679
G1 X118.835 Y143.688 E1.03876
G1 X118.835 Y144.223 E.01679
M73 Q2 S183
G1 X94.926 Y120.313 E1.06251
G1 X94.391 Y120.313 E.01679
G1 X118.835 Y144.757 E1.08626
G1 X118.835 Y145.292 E.01679
G1 X93.857 Y120.313 E1.11001
G1 X93.323 Y120.313 E.01679
G1 X118.835 Y145.826 E1.13376
G1 X118.835 Y146.36 E.01679
G1 X92.788 Y120.313 E1.15751
G1 X92.254 Y120.313 E.01679
G1 X118.835 Y146.895 E1.18126
G1 X118.835 Y147.429 E.01679
G1 X91.719 Y120.313 E1.20501
G1 X91.185 Y120.313 E.01679
G1 X118.835 Y147.964 E1.22876
G1 X118.835 Y148.498 E.01679
G1 X90.65 Y120.313 E1.25251
G1 X90.116 Y120.313 E.01679
G1 X118.835 Y149.033 E1.27626
G1 X118.835 Y149.567 E.01679
G1 X89.581 Y120.313 E1.30001
G1 X89.235 Y120.313 E.01087
G1 X89.235 Y119.967 E.01087
G1 X82.775 Y113.507 E.28709
G1 X82.775 Y114.041 E.01679
G1 X118.835 Y150.102 E1.60247
