; generated by PrusaSlicer 2.4.1+linux-x64-GTK3 on 2022-04-24 at 17:50:50 UTC

; 

; external perimeters extrusion width = 0.45mm
; perimeters extrusion width = 0.45mm
; infill extrusion width = 0.45mm
; solid infill extrusion width = 0.45mm
; top infill extrusion width = 0.40mm
; first layer extrusion width = 0.42mm

; external perimeters extrusion width = 0.45mm
; perimeters extrusion width = 0.45mm
; infill extrusion width = 0.45mm
; solid infill extrusion width = 0.45mm
; top infill extrusion width = 0.40mm
; first layer extrusion width = 0.42mm

; external perimeters extrusion width = 0.45mm
; perimeters extrusion width = 0.45mm
; infill extrusion width = 0.45mm
; solid infill extrusion width = 0.45mm
; top infill extrusion width = 0.40mm
; first layer extrusion width = 0.42mm

M73 P0 R230
M73 Q0 S234
M201 X1000 Y1000 Z200 E5000 ; sets maximum accelerations, mm/sec^2
M203 X200 Y200 Z12 E120 ; sets maximum feedrates, mm / sec
M204 P1250 R1250 T1250 ; sets acceleration (P, T) and retract acceleration (R), mm/sec^2
M205 X8.00 Y8.00 Z0.40 E4.50 ; sets the jerk limits, mm/sec
M205 S0 T0 ; sets the minimum extruding and travel feed rate, mm/sec
M107
;TYPE:Custom
M862.3 P "MK3S" ; printer model check
M862.1 P0.4 ; nozzle diameter check
M115 U3.10.1 ; tell printer latest fw version
G90 ; use absolute coordinates
M83 ; extruder relative mode
M104 S215 ; set extruder temp
M140 S60 ; set bed temp
M190 S60 ; wait for bed temp
M109 S215 ; wait for extruder temp
G28 W ; home all without mesh bed level
G80 ; mesh bed leveling
G1 Z0.2 F720
G1 Y-3 F1000 ; go outside print area
G92 E0
G1 X60 E9 F1000 ; intro line
G1 X100 E12.5 F1000 ; intro line
G92 E0
M221 S95

; Don't change E values below. Excessive value can damage the printer.

M907 E538 ; set extruder motor current
G21 ; set units to millimeters
G90 ; use absolute coordinates
M83 ; use relative distances for extrusion
M900 K0.05 ; Filament gcode LA 1.5
M900 K30 ; Filament gcode LA 1.0
M107
;LAYER_CHANGE
;Z:0.2
;HEIGHT:0.2
;BEFORE_LAYER_CHANGE
G92 E0.0
;0.2


G1 E-.8 F2100
G1 Z.4 F720
;AFTER_LAYER_CHANGE
;0.2
G1 X88.091 Y81.849 F10800
G1 Z.2 F720
G1 E.8 F2100
M204 S800
;TYPE:Skirt/Brim
;WIDTH:0.42
G1 F1200
G1 X89.768 Y80.799 E.06203
G1 X145.327 Y73.522 E1.75691
G1 X183.736 Y73.502 E1.20428
G1 X185.532 Y74.322 E.0619
G1 X198.257 Y88.997 E.609
G1 X198.838 Y90.554 E.05212
G1 X198.838 Y154.554 E2.00668
G1 X198.446 Y155.861 E.04278
G1 X197.4 Y156.737 E.04278
G1 X196.461 Y156.931 E.03008
G1 X132.961 Y156.931 E1.991
G1 X89.856 Y152.923 E1.35734
G1 X88.591 Y152.412 E.04278
G1 X87.816 Y151.289 E.04278
G1 X87.7 Y150.556 E.02327
G1 X87.7 Y83.156 E2.11328
G1 X88.074 Y81.907 E.0409
M204 S1000
; printing object sdb-display-casing-v6.stl_1 id:0 copy 0
;WIPE_START
G1 F8640
G1 X89.768 Y80.799 E-.46731
G1 X91.025 Y80.635 E-.29269
;WIPE_END
G1 E-.04 F2100
G1 Z.6 F720
G1 X98.89 Y104.069 F10800
G1 Z.2 F720
G1 E.8 F2100
M204 S800
;TYPE:Perimeter
G1 F1200
G1 X109.464 Y104.069 E.33155
G1 X109.464 Y117.643 E.42561
G1 X98.89 Y117.643 E.33155
G1 X98.89 Y104.129 E.42373
M204 S1000
G1 X99.267 Y104.446 F10800
M204 S800
;TYPE:External perimeter
G1 F1200
G1 X109.087 Y104.446 E.3079
G1 X109.087 Y117.266 E.40196
G1 X99.267 Y117.266 E.3079
G1 X99.267 Y104.506 E.40008
M204 S1000
G1 X99.18 Y104.056 F10800
;WIPE_START
G1 F8640
G1 X102.558 Y104.486 E-.76
;WIPE_END
G1 E-.04 F2100
G1 Z.6 F720
G1 X112.705 Y138.366 F10800
G1 Z.2 F720
G1 E.8 F2100
M204 S800
;TYPE:Perimeter
G1 F1200
G1 X113.06 Y138.237 E.01184
G1 X113.434 Y138.142 E.0121
G1 X113.996 Y138.073 E.01775
G1 X114.366 Y138.073 E.01159
G1 X114.741 Y138.111 E.01183
G1 X115.111 Y138.186 E.01184
G1 X115.472 Y138.297 E.01184
G1 X115.82 Y138.444 E.01184
G1 X116.152 Y138.624 E.01184
G1 X116.464 Y138.837 E.01184
G1 X116.753 Y139.08 E.01184
G1 X117.017 Y139.35 E.01184
G1 X117.252 Y139.645 E.01184
G1 X117.457 Y139.962 E.01184
G1 X117.629 Y140.298 E.01184
G1 X117.767 Y140.65 E.01184
G1 X117.87 Y141.013 E.01184
G1 X117.935 Y141.385 E.01184
G1 X117.963 Y141.762 E.01184
G1 X117.954 Y142.139 E.01184
G1 X117.907 Y142.514 E.01184
G1 X117.823 Y142.882 E.01184
G1 X117.7 Y143.247 E.01207
G1 X117.461 Y143.744 E.01729
G1 X117.252 Y144.067 E.01207
G1 X117.017 Y144.363 E.01184
G1 X116.753 Y144.633 E.01184
G1 X116.464 Y144.876 E.01184
G1 X116.152 Y145.088 E.01184
G1 X115.82 Y145.269 E.01184
G1 X115.472 Y145.416 E.01184
G1 X115.111 Y145.527 E.01184
G1 X114.741 Y145.602 E.01184
G1 X114.366 Y145.639 E.01184
G1 X113.988 Y145.639 E.01184
G1 X113.612 Y145.602 E.01184
G1 X113.242 Y145.527 E.01184
G1 X112.881 Y145.416 E.01184
G1 X112.533 Y145.269 E.01184
G1 X112.202 Y145.088 E.01184
G1 X111.89 Y144.876 E.01184
G1 X111.6 Y144.633 E.01184
G1 X111.337 Y144.363 E.01184
G1 X111.101 Y144.067 E.01184
G1 X110.896 Y143.75 E.01184
G1 X110.724 Y143.414 E.01184
G1 X110.586 Y143.063 E.01184
G1 X110.484 Y142.699 E.01184
G1 X110.418 Y142.327 E.01184
G1 X110.39 Y141.951 E.01184
G1 X110.399 Y141.573 E.01184
G1 X110.446 Y141.199 E.01184
G1 X110.53 Y140.83 E.01184
G1 X110.651 Y140.472 E.01184
G1 X110.806 Y140.128 E.01184
G1 X110.995 Y139.801 E.01184
G1 X111.215 Y139.495 E.01184
G1 X111.465 Y139.211 E.01184
G1 X111.742 Y138.955 E.01184
G1 X112.043 Y138.727 E.01184
G1 X112.365 Y138.53 E.01184
G1 X112.651 Y138.392 E.00996
M204 S1000
G1 X112.852 Y138.714 F10800
M204 S800
;TYPE:External perimeter
G1 F1200
G1 X113.172 Y138.598 E.01066
G1 X113.504 Y138.513 E.01075
G1 X114.019 Y138.45 E.01627
G1 X114.347 Y138.45 E.01028
M73 Q0 S233
G1 X114.685 Y138.484 E.01066
G1 X115.018 Y138.551 E.01066
G1 X115.343 Y138.652 E.01066
G1 X115.656 Y138.784 E.01066
G1 X115.955 Y138.946 E.01066
G1 X116.236 Y139.138 E.01066
G1 X116.496 Y139.356 E.01066
G1 X116.734 Y139.6 E.01066
G1 X116.946 Y139.866 E.01066
G1 X117.13 Y140.151 E.01066
G1 X117.285 Y140.454 E.01066
G1 X117.409 Y140.77 E.01066
G1 X117.502 Y141.097 E.01066
G1 X117.561 Y141.432 E.01066
G1 X117.586 Y141.771 E.01066
G1 X117.578 Y142.111 E.01066
G1 X117.535 Y142.449 E.01066
G1 X117.46 Y142.78 E.01066
G1 X117.35 Y143.105 E.01074
G1 X117.132 Y143.559 E.01582
G1 X116.946 Y143.847 E.01074
G1 X116.734 Y144.113 E.01066
G1 X116.496 Y144.356 E.01066
G1 X116.236 Y144.575 E.01066
G1 X115.955 Y144.766 E.01066
G1 X115.656 Y144.929 E.01066
G1 X115.343 Y145.061 E.01066
G1 X115.018 Y145.161 E.01066
G1 X114.685 Y145.229 E.01066
G1 X114.347 Y145.262 E.01066
G1 X114.007 Y145.262 E.01066
G1 X113.668 Y145.229 E.01066
G1 X113.335 Y145.161 E.01066
G1 X113.01 Y145.061 E.01066
G1 X112.697 Y144.929 E.01066
G1 X112.398 Y144.766 E.01066
G1 X112.118 Y144.575 E.01066
G1 X111.857 Y144.356 E.01066
G1 X111.62 Y144.113 E.01066
G1 X111.408 Y143.847 E.01066
G1 X111.223 Y143.562 E.01066
G1 X111.068 Y143.259 E.01066
G1 X110.944 Y142.942 E.01066
G1 X110.852 Y142.615 E.01066
G1 X110.793 Y142.28 E.01066
G1 X110.767 Y141.941 E.01066
G1 X110.776 Y141.601 E.01066
G1 X110.818 Y141.264 E.01066
G1 X110.894 Y140.933 E.01066
G1 X111.002 Y140.61 E.01066
G1 X111.142 Y140.3 E.01066
G1 X111.312 Y140.006 E.01066
G1 X111.51 Y139.73 E.01066
G1 X111.735 Y139.475 E.01066
G1 X111.985 Y139.244 E.01066
G1 X112.256 Y139.039 E.01066
G1 X112.546 Y138.861 E.01066
G1 X112.798 Y138.74 E.00878
M204 S1000
G1 X112.894 Y138.376 F10800
;WIPE_START
G1 F8640
G1 X113.172 Y138.598 E-.0923
G1 X113.504 Y138.513 E-.07918
G1 X114.019 Y138.45 E-.11981
G1 X114.347 Y138.45 E-.07573
G1 X114.685 Y138.484 E-.07847
G1 X115.018 Y138.551 E-.0785
G1 X115.343 Y138.652 E-.0785
G1 X115.656 Y138.784 E-.0785
G1 X115.955 Y138.946 E-.07851
G1 X115.957 Y138.948 E-.00049
;WIPE_END
G1 E-.04 F2100
G1 Z.6 F720
G1 X128.183 Y83.943 F10800
G1 Z.2 F720
G1 E.8 F2100
M204 S800
;TYPE:Perimeter
G1 F1200
G1 X127.49 Y84.23 E.02352
G1 X127.49 Y149.482 E2.04592
G1 X128.183 Y149.769 E.02352
G1 X90.864 Y149.769 E1.1701
G1 X90.864 Y83.943 E2.06392
G1 X128.123 Y83.943 E1.16822
M204 S1000
M73 P0 R229
G1 X128.64 Y84.006 F10800
M204 S800
G1 F1200
G1 X128.577 Y83.943 E.00278
G1 X130.69 Y83.943 E.06624
G1 X130.69 Y84.43 E.01527
G1 X129.877 Y85.243 E.03605
G1 X128.682 Y84.048 E.05298
M204 S1000
;WIPE_START
G1 F8640
G1 X128.577 Y83.943 E-.03432
G1 X130.69 Y83.943 E-.48784
G1 X130.69 Y84.43 E-.11243
G1 X130.306 Y84.814 E-.12542
;WIPE_END
G1 E-.04 F2100
G1 Z.6 F720
G1 X129.877 Y148.469 F10800
G1 Z.2 F720
G1 E.8 F2100
M204 S800
G1 F1200
G1 X130.69 Y149.282 E.03605
G1 X130.69 Y149.769 E.01527
G1 X128.577 Y149.769 E.06624
G1 X129.834 Y148.512 E.05576
M204 S1000
;WIPE_START
G1 F8640
G1 X130.69 Y149.282 E-.26582
G1 X130.69 Y149.769 E-.11243
G1 X129.036 Y149.769 E-.38175
;WIPE_END
G1 E-.04 F2100
G1 Z.6 F720
G1 X128.373 Y84.273 F10800
G1 Z.2 F720
G1 E.8 F2100
M204 S800
;TYPE:External perimeter
G1 F1200
G1 X127.867 Y84.482 E.01718
G1 X127.867 Y149.23 E2.03013
G1 X128.373 Y149.44 E.01718
G1 X129.877 Y147.936 E.06668
G1 X131.067 Y149.126 E.05277
G1 X131.067 Y150.146 E.03199
G1 X90.487 Y150.146 E1.27236
G1 X90.487 Y83.566 E2.08757
G1 X131.067 Y83.566 E1.27236
G1 X131.067 Y84.587 E.03199
G1 X129.877 Y85.777 E.05277
G1 X128.415 Y84.315 E.0648
M204 S1000
G1 X128.101 Y83.979 F10800
;WIPE_START
G1 F8640
G1 X127.867 Y84.482 E-.13243
G1 X127.867 Y87.2 E-.62757
;WIPE_END
G1 E-.04 F2100
G1 Z.6 F720
G1 X127.377 Y84.821 F10800
G1 Z.2 F720
G1 E.8 F2100
M204 S800
;TYPE:Solid infill
;WIDTH:0.420813
G1 F1200
G1 X126.782 Y84.226 E.02641
G1 X126.248 Y84.226 E.01679
G1 X127.207 Y85.185 E.04262
G1 X127.207 Y85.72 E.01679
G1 X125.713 Y84.226 E.06637
G1 X125.179 Y84.226 E.01679
G1 X127.207 Y86.254 E.09011
G1 X127.207 Y86.789 E.01679
G1 X124.645 Y84.226 E.11386
G1 X124.11 Y84.226 E.01679
G1 X127.207 Y87.323 E.13761
G1 X127.207 Y87.857 E.01679
G1 X123.576 Y84.226 E.16136
G1 X123.041 Y84.226 E.01679
G1 X127.207 Y88.392 E.18511
G1 X127.207 Y88.926 E.01679
G1 X122.507 Y84.226 E.20886
G1 X121.972 Y84.226 E.01679
G1 X127.207 Y89.461 E.2326
G1 X127.207 Y89.995 E.01679
G1 X121.438 Y84.226 E.25635
G1 X120.904 Y84.226 E.01679
G1 X127.207 Y90.529 E.2801
G1 X127.207 Y91.064 E.01679
G1 X120.369 Y84.226 E.30385
G1 X119.835 Y84.226 E.01679
G1 X127.207 Y91.598 E.3276
G1 X127.207 Y92.133 E.01679
G1 X119.3 Y84.226 E.35134
G1 X118.766 Y84.226 E.01679
G1 X127.207 Y92.667 E.37509
G1 X127.207 Y93.202 E.01679
G1 X118.232 Y84.226 E.39884
G1 X117.697 Y84.226 E.01679
G1 X127.207 Y93.736 E.42259
G1 X127.207 Y94.27 E.01679
G1 X117.163 Y84.226 E.44634
G1 X116.628 Y84.226 E.01679
G1 X127.207 Y94.805 E.47009
G1 X127.207 Y95.339 E.01679
G1 X116.094 Y84.226 E.49383
G1 X115.559 Y84.226 E.01679
G1 X127.207 Y95.874 E.51758
G1 X127.207 Y96.408 E.01679
G1 X115.025 Y84.226 E.54133
G1 X114.491 Y84.226 E.01679
G1 X127.207 Y96.943 E.56508
G1 X127.207 Y97.477 E.01679
G1 X113.956 Y84.226 E.58883
G1 X113.422 Y84.226 E.01679
G1 X127.207 Y98.011 E.61258
G1 X127.207 Y98.546 E.01679
G1 X112.887 Y84.226 E.63632
G1 X112.353 Y84.226 E.01679
G1 X127.207 Y99.08 E.66007
G1 X127.207 Y99.615 E.01679
G1 X111.818 Y84.226 E.68382
G1 X111.284 Y84.226 E.01679
G1 X127.207 Y100.149 E.70757
G1 X127.207 Y100.683 E.01679
G1 X110.75 Y84.226 E.73132
G1 X110.215 Y84.226 E.01679
G1 X127.207 Y101.218 E.75507
G1 X127.207 Y101.752 E.01679
G1 X109.681 Y84.226 E.77881
G1 X109.146 Y84.226 E.01679
G1 X127.207 Y102.287 E.80256
G1 X127.207 Y102.821 E.01679
G1 X108.612 Y84.226 E.82631
G1 X108.078 Y84.226 E.01679
G1 X127.207 Y103.356 E.85006
G1 X127.207 Y103.89 E.01679
G1 X107.543 Y84.226 E.87381
G1 X107.009 Y84.226 E.01679
G1 X127.207 Y104.424 E.89755
G1 X127.207 Y104.959 E.01679
G1 X106.474 Y84.226 E.9213
G1 X105.94 Y84.226 E.01679
G1 X127.207 Y105.493 E.94505
G1 X127.207 Y106.028 E.01679
G1 X105.405 Y84.226 E.9688
G1 X104.871 Y84.226 E.01679
M73 Q0 S232
G1 X127.207 Y106.562 E.99255
G1 X127.207 Y107.097 E.01679
G1 X104.337 Y84.226 E1.0163
G1 X103.802 Y84.226 E.01679
G1 X127.207 Y107.631 E1.04004
G1 X127.207 Y108.165 E.01679
G1 X103.268 Y84.226 E1.06379
G1 X102.733 Y84.226 E.01679
G1 X127.207 Y108.7 E1.08754
G1 X127.207 Y109.234 E.01679
G1 X102.199 Y84.226 E1.11129
G1 X101.664 Y84.226 E.01679
M73 P0 R228
G1 X127.207 Y109.769 E1.13504
G1 X127.207 Y110.303 E.01679
G1 X101.13 Y84.226 E1.15879
G1 X100.596 Y84.226 E.01679
G1 X127.207 Y110.837 E1.18253
G1 X127.207 Y111.372 E.01679
G1 X100.061 Y84.226 E1.20628
G1 X99.527 Y84.226 E.01679
G1 X127.207 Y111.906 E1.23003
G1 X127.207 Y112.441 E.01679
G1 X98.992 Y84.226 E1.25378
G1 X98.458 Y84.226 E.01679
G1 X127.207 Y112.975 E1.27753
G1 X127.207 Y113.51 E.01679
G1 X97.924 Y84.226 E1.30127
G1 X97.389 Y84.226 E.01679
G1 X127.207 Y114.044 E1.32502
G1 X127.207 Y114.578 E.01679
G1 X96.855 Y84.226 E1.34877
G1 X96.32 Y84.226 E.01679
G1 X127.207 Y115.113 E1.37252
G1 X127.207 Y115.647 E.01679
G1 X95.786 Y84.226 E1.39627
G1 X95.251 Y84.226 E.01679
G1 X127.207 Y116.182 E1.42002
G1 X127.207 Y116.716 E.01679
G1 X94.717 Y84.226 E1.44376
G1 X94.183 Y84.226 E.01679
G1 X127.207 Y117.251 E1.46751
G1 X127.207 Y117.785 E.01679
G1 X93.648 Y84.226 E1.49126
G1 X93.114 Y84.226 E.01679
G1 X127.207 Y118.319 E1.51501
G1 X127.207 Y118.854 E.01679
M73 P1 R228
G1 X92.579 Y84.226 E1.53876
M73 Q1 S232
G1 X92.045 Y84.226 E.01679
G1 X127.207 Y119.388 E1.56251
G1 X127.207 Y119.923 E.01679
G1 X91.51 Y84.226 E1.58625
G1 X91.147 Y84.226 E.01143
G1 X91.147 Y84.397 E.00536
G1 X127.207 Y120.457 E1.60242
G1 X127.207 Y120.991 E.01679
G1 X91.147 Y84.931 E1.60242
G1 X91.147 Y85.466 E.01679
M73 Q1 S231
G1 X127.207 Y121.526 E1.60242
G1 X127.207 Y122.06 E.01679
G1 X109.747 Y104.6 E.77589
G1 X109.747 Y105.134 E.01679
G1 X127.207 Y122.595 E.77589
G1 X127.207 Y123.129 E.01679
G1 X109.747 Y105.669 E.77589
G1 X109.747 Y106.203 E.01679
G1 X127.207 Y123.664 E.77589
G1 X127.207 Y124.198 E.01679
G1 X109.747 Y106.738 E.77589
G1 X109.747 Y107.272 E.01679
G1 X127.207 Y124.732 E.77589
G1 X127.207 Y125.267 E.01679
M73 P1 R227
G1 X109.747 Y107.807 E.77589
G1 X109.747 Y108.341 E.01679
G1 X127.207 Y125.801 E.77589
G1 X127.207 Y126.336 E.01679
G1 X109.747 Y108.875 E.77589
G1 X109.747 Y109.41 E.01679
G1 X127.207 Y126.87 E.77589
G1 X127.207 Y127.405 E.01679
G1 X109.747 Y109.944 E.77589
G1 X109.747 Y110.479 E.01679
G1 X127.207 Y127.939 E.77589
G1 X127.207 Y128.473 E.01679
G1 X109.747 Y111.013 E.77589
G1 X109.747 Y111.548 E.01679
G1 X127.207 Y129.008 E.77589
G1 X127.207 Y129.542 E.01679
G1 X109.747 Y112.082 E.77589
G1 X109.747 Y112.616 E.01679
G1 X127.207 Y130.077 E.77589
G1 X127.207 Y130.611 E.01679
G1 X109.747 Y113.151 E.77589
G1 X109.747 Y113.685 E.01679
G1 X127.207 Y131.145 E.77589
G1 X127.207 Y131.68 E.01679
G1 X109.747 Y114.22 E.77589
G1 X109.747 Y114.754 E.01679
G1 X127.207 Y132.214 E.77589
G1 X127.207 Y132.749 E.01679
G1 X109.747 Y115.288 E.77589
G1 X109.747 Y115.823 E.01679
G1 X127.207 Y133.283 E.77589
G1 X127.207 Y133.818 E.01679
G1 X109.747 Y116.357 E.77589
G1 X109.747 Y116.892 E.01679
G1 X127.207 Y134.352 E.77589
G1 X127.207 Y134.886 E.01679
G1 X109.747 Y117.426 E.77589
G1 X109.747 Y117.926 E.01571
G1 X109.712 Y117.926 E.00108
G1 X127.207 Y135.421 E.77742
G1 X127.207 Y135.955 E.01679
G1 X109.178 Y117.926 E.80116
G1 X108.643 Y117.926 E.01679
G1 X127.207 Y136.49 E.82491
G1 X127.207 Y137.024 E.01679
G1 X108.109 Y117.926 E.84866
G1 X107.575 Y117.926 E.01679
G1 X127.207 Y137.559 E.87241
G1 X127.207 Y138.093 E.01679
G1 X107.04 Y117.926 E.89616
G1 X106.506 Y117.926 E.01679
G1 X127.207 Y138.627 E.91991
G1 X127.207 Y139.162 E.01679
G1 X105.971 Y117.926 E.94365
G1 X105.437 Y117.926 E.01679
G1 X127.207 Y139.696 E.9674
G1 X127.207 Y140.231 E.01679
G1 X104.902 Y117.926 E.99115
G1 X104.368 Y117.926 E.01679
G1 X127.207 Y140.765 E1.0149
G1 X127.207 Y141.299 E.01679
G1 X103.834 Y117.926 E1.03865
G1 X103.299 Y117.926 E.01679
G1 X127.207 Y141.834 E1.06239
G1 X127.207 Y142.368 E.01679
G1 X102.765 Y117.926 E1.08614
G1 X102.23 Y117.926 E.01679
G1 X127.207 Y142.903 E1.10989
G1 X127.207 Y143.437 E.01679
G1 X101.696 Y117.926 E1.13364
G1 X101.161 Y117.926 E.01679
G1 X127.207 Y143.972 E1.15739
G1 X127.207 Y144.506 E.01679
M73 Q1 S230
G1 X100.627 Y117.926 E1.18114
G1 X100.093 Y117.926 E.01679
G1 X127.207 Y145.04 E1.20488
G1 X127.207 Y145.575 E.01679
G1 X99.389 Y117.757 E1.23617
M204 S1000
;WIPE_START
G1 F8640
G1 X101.716 Y120.084 E-.76
;WIPE_END
G1 E-.04 F2100
G1 Z.6 F720
G1 X109.103 Y103.956 F10800
G1 Z.2 F720
G1 E.8 F2100
M204 S800
