; generated by PrusaSlicer 2.4.1+linux-x64-GTK3 on 2022-04-17 at 10:07:22 UTC

; 

; external perimeters extrusion width = 0.45mm
; perimeters extrusion width = 0.45mm
; infill extrusion width = 0.45mm
; solid infill extrusion width = 0.45mm
; top infill extrusion width = 0.40mm
; first layer extrusion width = 0.42mm

; external perimeters extrusion width = 0.45mm
; perimeters extrusion width = 0.45mm
; infill extrusion width = 0.45mm
; solid infill extrusion width = 0.45mm
; top infill extrusion width = 0.40mm
; first layer extrusion width = 0.42mm

; external perimeters extrusion width = 0.45mm
; perimeters extrusion width = 0.45mm
; infill extrusion width = 0.45mm
; solid infill extrusion width = 0.45mm
; top infill extrusion width = 0.40mm
; first layer extrusion width = 0.42mm

M73 P0 R312
M73 Q0 S316
M201 X1000 Y1000 Z200 E5000 ; sets maximum accelerations, mm/sec^2
M203 X200 Y200 Z12 E120 ; sets maximum feedrates, mm / sec
M204 P1250 R1250 T1250 ; sets acceleration (P, T) and retract acceleration (R), mm/sec^2
M205 X8.00 Y8.00 Z0.40 E4.50 ; sets the jerk limits, mm/sec
M205 S0 T0 ; sets the minimum extruding and travel feed rate, mm/sec
M107
;TYPE:Custom
M862.3 P "MK3S" ; printer model check
M862.1 P0.4 ; nozzle diameter check
M115 U3.10.1 ; tell printer latest fw version
G90 ; use absolute coordinates
M83 ; extruder relative mode
M104 S215 ; set extruder temp
M140 S60 ; set bed temp
M190 S60 ; wait for bed temp
M109 S215 ; wait for extruder temp
G28 W ; home all without mesh bed level
G80 ; mesh bed leveling
G1 Z0.2 F720
G1 Y-3 F1000 ; go outside print area
G92 E0
G1 X60 E9 F1000 ; intro line
G1 X100 E12.5 F1000 ; intro line
G92 E0
M221 S95

; Don't change E values below. Excessive value can damage the printer.
M907 E430 ; set extruder motor current
G21 ; set units to millimeters
G90 ; use absolute coordinates
M83 ; use relative distances for extrusion
M900 K0.05 ; Filament gcode LA 1.5
M900 K30 ; Filament gcode LA 1.0
M107
;LAYER_CHANGE
;Z:0.2
;HEIGHT:0.2
;BEFORE_LAYER_CHANGE
G92 E0.0
;0.2


G1 E-.8 F2100
G1 Z.4 F720
;AFTER_LAYER_CHANGE
;0.2
G1 X62.153 Y62.153 F10800
G1 Z.2 F720
G1 E.8 F2100
M204 S800
;TYPE:Skirt/Brim
;WIDTH:0.42
G1 F1200
G1 X62.98 Y61.327 E.03664
G1 X64.661 Y60.631 E.05704
G1 X142.086 Y60.631 E2.42761
G1 X142.592 Y60.685 E.01596
G1 X216.894 Y76.872 E2.38433
G1 X218.069 Y77.514 E.04197
G1 X221.056 Y80.502 E.13247
G1 X221.752 Y82.182 E.05704
G1 X221.749 Y88.136 E.18668
G1 X219.749 Y124.936 E1.15554
G1 X219.056 Y126.488 E.05328
G1 X216.069 Y129.476 E.13247
G1 X214.388 Y130.172 E.05704
G1 X145.747 Y130.172 E2.15217
G1 X64.865 Y129.649 E2.53607
G1 X63.199 Y128.953 E.0566
G1 X60.212 Y125.965 E.13247
G1 X59.516 Y124.323 E.05594
G1 X59.296 Y110.659 E.42849
G1 X59.296 Y65.995 E1.40038
G1 X59.992 Y64.315 E.05704
G1 X62.111 Y62.196 E.09395
M204 S1000
;WIPE_START
G1 F8640
G1 X62.98 Y61.327 E-.28371
G1 X64.661 Y60.631 E-.42009
G1 X64.904 Y60.631 E-.0562
;WIPE_END
G1 E-.04 F2100
G1 Z.6 F720
G1 X63.797 Y64.317 F10800
G1 Z.2 F720
G1 E.8 F2100
M204 S800
G1 F1200
G1 X64.582 Y63.806 E.02938
G1 X66.327 Y63.294 E.05702
G1 X140.362 Y63.298 E2.32131
G1 X141.383 Y63.492 E.03256
G1 X142.361 Y63.908 E.03333
G1 X143.482 Y64.801 E.04494
G1 X144.292 Y65.956 E.04422
G1 X144.74 Y67.355 E.04607
G1 X144.783 Y79.654 E.38566
G1 X145.43 Y79.481 E.02102
G1 X214.678 Y79.485 E2.1712
G1 X215.952 Y79.771 E.04096
M73 P0 R311
G1 X217.086 Y80.37 E.04022
G1 X217.85 Y81.059 E.03223
G1 X218.464 Y81.886 E.03231
G1 X219.013 Y83.381 E.04992
G1 X219.091 Y86.284 E.09107
G1 X218.768 Y87.644 E.04381
G1 X218.25 Y88.633 E.03502
G1 X217.089 Y89.832 E.05233
G1 X217.089 Y123.113 E1.0435
G1 X216.772 Y124.433 E.04257
G1 X216.112 Y125.625 E.04273
G1 X215.361 Y126.393 E.03367
G1 X214.693 Y126.884 E.026
G1 X212.722 Y127.508 E.06482
G1 X147.453 Y127.508 E2.04647
G1 X145.987 Y127.132 E.04744
G1 X145.01 Y126.58 E.0352
G1 X144.084 Y125.672 E.04066
G1 X143.854 Y125.334 E.01283
G1 X143.173 Y125.962 E.02905
G1 X142.588 Y126.375 E.02244
G1 X140.753 Y126.968 E.06048
G1 X136.082 Y126.974 E.14646
G1 X134.824 Y126.659 E.04064
G1 X133.835 Y126.13 E.03519
G1 X132.953 Y125.337 E.03719
G1 X132.426 Y124.586 E.02877
G1 X74.717 Y124.586 E1.80942
G1 X74.288 Y125.277 E.0255
G1 X73.289 Y126.175 E.04214
G1 X72.16 Y126.737 E.03953
G1 X70.903 Y126.987 E.0402
G1 X66.033 Y126.904 E.1527
G1 X65.092 Y126.609 E.03092
G1 X64.207 Y126.116 E.03177
G1 X63.246 Y125.208 E.04144
G1 X62.529 Y123.999 E.04408
G1 X62.185 Y122.629 E.0443
G1 X62.241 Y114.93 E.2414
G1 X62.704 Y113.558 E.04539
G1 X63.276 Y112.699 E.03237
G1 X63.752 Y112.231 E.02093
G1 X63.038 Y111.551 E.03091
G1 X62.55 Y110.861 E.0265
G1 X61.96 Y108.954 E.0626
G1 X61.96 Y67.69 E1.29379
G1 X62.274 Y66.378 E.04231
G1 X62.733 Y65.457 E.03224
G1 X63.756 Y64.361 E.04703
M204 S1000
G1 X64.024 Y64.619 F10800
M204 S800
G1 F1200
G1 X64.718 Y64.159 E.02609
G1 X66.355 Y63.671 E.05356
G1 X140.344 Y63.675 E2.31987
G1 X141.291 Y63.858 E.03023
G1 X142.188 Y64.243 E.03062
G1 X143.224 Y65.077 E.04169
G1 X143.965 Y66.146 E.04079
G1 X144.372 Y67.44 E.04253
G1 X144.407 Y80.158 E.39876
G1 X145.458 Y79.858 E.03427
G1 X214.657 Y79.862 E2.16968
G1 X215.8 Y80.116 E.03671
M73 Q0 S315
G1 X216.852 Y80.667 E.03721
G1 X217.583 Y81.326 E.03086
G1 X218.144 Y82.087 E.02966
G1 X218.648 Y83.48 E.04642
G1 X218.713 Y86.268 E.08744
G1 X218.407 Y87.531 E.04076
G1 X217.93 Y88.432 E.03196
G1 X216.897 Y89.488 E.0463
G1 X216.712 Y89.608 E.00695
G1 X216.712 Y123.09 E1.04979
G1 X216.412 Y124.319 E.03967
G1 X215.825 Y125.38 E.03802
G1 X215.103 Y126.118 E.03237
G1 X214.496 Y126.562 E.02357
G1 X212.693 Y127.131 E.05926
G1 X147.477 Y127.131 E2.0448
G1 X146.108 Y126.774 E.04438
G1 X145.22 Y126.266 E.03209
G1 X144.366 Y125.42 E.03769
G1 X143.848 Y124.627 E.02969
G1 X143.495 Y125.152 E.01984
G1 X142.945 Y125.661 E.02351
G1 X142.395 Y126.05 E.02112
G1 X140.667 Y126.6 E.05686
G1 X136.151 Y126.603 E.14158
G1 X134.94 Y126.299 E.03916
G1 X134.035 Y125.81 E.03225
G1 X133.223 Y125.072 E.03438
G1 X132.624 Y124.209 E.03297
G1 X74.503 Y124.209 E1.82234
G1 X74.014 Y125.017 E.02964
G1 X73.097 Y125.849 E.03881
G1 X72.015 Y126.388 E.0379
G1 X70.889 Y126.61 E.03599
G1 X66.12 Y126.536 E.14954
G1 X65.224 Y126.255 E.02943
G1 X64.413 Y125.799 E.02918
G1 X63.526 Y124.954 E.03841
G1 X62.868 Y123.832 E.04078
G1 X62.562 Y122.608 E.03956
G1 X62.618 Y114.963 E.2397
G1 X63.031 Y113.747 E.04027
G1 X63.578 Y112.926 E.03095
G1 X64.3 Y112.229 E.03146
G1 X63.335 Y111.317 E.04161
G1 X62.875 Y110.668 E.02497
G1 X62.337 Y108.926 E.05717
G1 X62.337 Y67.713 E1.29219
G1 X62.635 Y66.489 E.03951
G1 X63.057 Y65.651 E.0294
G1 X63.983 Y64.662 E.04248
M204 S1000
G1 X64.253 Y64.919 F10800
M204 S800
G1 F1200
G1 X64.856 Y64.511 E.02281
G1 X66.383 Y64.049 E.05005
G1 X140.325 Y64.052 E2.3184
G1 X141.197 Y64.224 E.02786
G1 X142.013 Y64.579 E.0279
G1 X142.964 Y65.351 E.03843
G1 X143.637 Y66.334 E.03735
G1 X144.003 Y67.523 E.039
G1 X144.031 Y80.664 E.41201
G1 X145.486 Y80.236 E.04756
G1 X214.636 Y80.239 E2.16814
G1 X215.692 Y80.479 E.03397
G1 X216.618 Y80.963 E.03276
G1 X217.291 Y81.565 E.02831
G1 X217.823 Y82.288 E.02816
G1 X218.282 Y83.577 E.04287
G1 X218.336 Y86.25 E.08383
G1 X218.047 Y87.417 E.03769
G1 X217.611 Y88.229 E.0289
G1 X216.65 Y89.202 E.04288
G1 X216.335 Y89.387 E.01146
G1 X216.335 Y123.066 E1.05601
G1 X216.052 Y124.204 E.03674
G1 X215.537 Y125.134 E.03335
G1 X214.844 Y125.843 E.03107
G1 X214.299 Y126.239 E.02113
G1 X212.665 Y126.754 E.05374
G1 X147.502 Y126.754 E2.04312
G1 X146.23 Y126.417 E.04128
G1 X145.431 Y125.953 E.02896
G1 X144.647 Y125.168 E.03476
G1 X144.244 Y124.541 E.02338
G1 X143.984 Y123.719 E.02703
G1 X143.22 Y124.892 E.04387
G1 X142.698 Y125.376 E.02233
G1 X142.202 Y125.724 E.019
G1 X140.582 Y126.231 E.05324
G1 X136.22 Y126.231 E.13675
G1 X135.055 Y125.939 E.03766
G1 X134.237 Y125.49 E.02926
G1 X133.494 Y124.81 E.03159
G1 X132.992 Y124.078 E.02783
G1 X132.89 Y123.831 E.00836
G1 X74.287 Y123.831 E1.83747
G1 X73.737 Y124.759 E.03381
G1 X72.903 Y125.525 E.0355
G1 X71.915 Y126.023 E.03471
G1 X70.873 Y126.232 E.0333
G1 X66.207 Y126.168 E.14634
G1 X65.357 Y125.901 E.02793
G1 X64.62 Y125.483 E.02655
G1 X63.806 Y124.7 E.03541
G1 X63.226 Y123.713 E.03591
G1 X62.939 Y122.586 E.03646
G1 X62.995 Y114.997 E.23796
G1 X63.358 Y113.936 E.03515
G1 X63.88 Y113.153 E.02953
G1 X64.514 Y112.547 E.02749
G1 X65.059 Y112.194 E.02035
G1 X64.471 Y111.872 E.02103
G1 X63.608 Y111.057 E.03721
G1 X63.201 Y110.476 E.02225
G1 X62.714 Y108.897 E.05179
G1 X62.714 Y67.736 E1.29057
G1 X62.996 Y66.601 E.03667
G1 X63.38 Y65.847 E.02655
G1 X64.212 Y64.962 E.03807
M204 S1000
G1 X64.483 Y65.218 F10800
M204 S800
G1 F1200
G1 X64.996 Y64.862 E.01957
G1 X66.412 Y64.426 E.04647
G1 X140.306 Y64.429 E2.3169
G1 X141.102 Y64.589 E.02545
M73 P0 R310
G1 X141.837 Y64.913 E.02518
G1 X142.703 Y65.625 E.03515
G1 X143.308 Y66.521 E.0339
G1 X143.634 Y67.605 E.0355
G1 X143.655 Y81.339 E.43062
G1 X144.15 Y81.023 E.01841
G1 X145.514 Y80.613 E.04467
G1 X214.615 Y80.616 E2.1666
G1 X215.541 Y80.825 E.02978
G1 X216.385 Y81.261 E.02976
G1 X217.024 Y81.833 E.02691
G1 X217.502 Y82.487 E.02541
G1 X217.916 Y83.672 E.03933
G1 X217.958 Y86.23 E.08023
G1 X217.688 Y87.3 E.03461
G1 X217.294 Y88.024 E.02583
G1 X216.404 Y88.914 E.03946
G1 X215.958 Y89.16 E.01599
G1 X215.958 Y123.042 E1.06235
G1 X215.693 Y124.087 E.03379
G1 X215.25 Y124.889 E.02872
G1 X214.587 Y125.567 E.02974
G1 X214.104 Y125.915 E.01866
G1 X212.636 Y126.377 E.04825
G1 X147.528 Y126.377 E2.04142
G1 X146.352 Y126.059 E.03817
G1 X145.679 Y125.668 E.02441
G1 X144.953 Y124.947 E.03209
G1 X144.576 Y124.361 E.02185
G1 X144.2 Y123.107 E.04103
G1 X144.189 Y122.623 E.01517
G1 X143.865 Y122.584 E.01024
G1 X143.578 Y123.649 E.03456
G1 X142.946 Y124.632 E.03665
G1 X142.452 Y125.09 E.02115
G1 X142.01 Y125.398 E.01687
G1 X140.553 Y125.854 E.04788
G1 X136.244 Y125.854 E.1351
G1 X135.173 Y125.581 E.03466
G1 X134.441 Y125.173 E.02627
G1 X133.767 Y124.548 E.02882
G1 X133.319 Y123.888 E.02503
G1 X133.156 Y123.454 E.01452
G1 X74.069 Y123.454 E1.85263
G1 X73.459 Y124.503 E.03804
G1 X72.709 Y125.201 E.03211
G1 X71.768 Y125.675 E.03304
G1 X70.859 Y125.855 E.02908
G1 X66.293 Y125.8 E.14316
G1 X65.49 Y125.548 E.0264
G1 X64.829 Y125.168 E.02388
G1 X64.088 Y124.448 E.03242
G1 X63.584 Y123.592 E.03113
G1 X63.316 Y122.564 E.03332
G1 X63.371 Y115.032 E.23616
G1 X63.705 Y114.086 E.03145
G1 X64.181 Y113.382 E.02664
G1 X64.759 Y112.834 E.02497
G1 X65.343 Y112.464 E.02167
G1 X65.808 Y112.319 E.01528
G1 X65.803 Y112.037 E.00885
G1 X65.343 Y111.911 E.01495
G1 X64.71 Y111.579 E.02242
G1 X63.882 Y110.796 E.03571
G1 X63.528 Y110.285 E.0195
G1 X63.091 Y108.869 E.04646
G1 X63.091 Y67.76 E1.28894
G1 X63.356 Y66.716 E.03378
G1 X63.703 Y66.044 E.02371
G1 X64.442 Y65.262 E.03374
M204 S1000
G1 X64.712 Y65.519 F10800
M204 S800
G1 F1200
G1 X65.139 Y65.212 E.01648
G1 X66.441 Y64.803 E.0428
G1 X140.288 Y64.806 E2.3154
G1 X140.969 Y64.943 E.02178
M73 Q0 S314
G1 X141.66 Y65.247 E.02369
G1 X142.44 Y65.896 E.03181
G1 X142.978 Y66.704 E.03044
G1 X143.264 Y67.684 E.03201
G1 X143.278 Y82.247 E.4566
G1 X143.846 Y81.678 E.02521
G1 X144.291 Y81.374 E.01689
G1 X145.543 Y80.99 E.04106
G1 X214.593 Y80.993 E2.16502
G1 X215.433 Y81.187 E.02704
G1 X216.151 Y81.557 E.02533
G1 X216.757 Y82.1 E.0255
G1 X217.179 Y82.685 E.02261
G1 X217.549 Y83.765 E.03579
G1 X217.581 Y86.209 E.07665
G1 X217.329 Y87.182 E.0315
G1 X216.978 Y87.817 E.02276
G1 X216.161 Y88.625 E.03603
G1 X215.58 Y88.93 E.02056
G1 X215.58 Y123.018 E1.0688
G1 X215.334 Y123.969 E.03082
G1 X214.963 Y124.644 E.02413
G1 X214.329 Y125.291 E.0284
G1 X213.909 Y125.59 E.01616
G1 X212.607 Y126 E.0428
G1 X147.553 Y126 E2.03974
G1 X146.518 Y125.72 E.03362
G1 X145.927 Y125.382 E.02134
G1 X145.233 Y124.693 E.03067
G1 X144.929 Y124.226 E.01746
G1 X144.57 Y123.027 E.03924
G1 X144.57 Y88.926 E1.06923
G1 X143.969 Y88.61 E.02131
G1 X143.278 Y87.932 E.03033
G1 X143.278 Y108.831 E.65526
G1 X143.031 Y109.783 E.03084
G1 X142.722 Y110.373 E.02087
G1 X142.028 Y111.103 E.03159
G1 X141.505 Y111.454 E.01977
G1 X140.419 Y111.796 E.03569
G1 X66.45 Y111.813 E2.31924
G1 X65.498 Y111.566 E.03084
G1 X64.908 Y111.257 E.02087
G1 X64.178 Y110.562 E.03162
G1 X63.878 Y110.142 E.01619
G1 X63.468 Y108.84 E.0428
G1 X63.468 Y67.785 E1.28725
G1 X63.715 Y66.833 E.03084
G1 X64.024 Y66.243 E.02087
G1 X64.671 Y65.563 E.02944
M204 S1000
G1 X64.942 Y65.824 F10800
M204 S800
G1 F1200
G1 X65.332 Y65.538 E.01517
G1 X66.47 Y65.18 E.03741
G1 X140.268 Y65.183 E2.31388
G1 X140.872 Y65.308 E.01933
G1 X141.481 Y65.58 E.02093
G1 X142.175 Y66.165 E.02846
G1 X142.646 Y66.886 E.02698
G1 X142.895 Y67.761 E.02854
G1 X142.901 Y83.025 E.47857
G1 X143.18 Y83.1 E.00905
G1 X143.479 Y82.586 E.01864
G1 X144.079 Y81.975 E.02686
G1 X144.434 Y81.724 E.01362
G1 X145.572 Y81.367 E.03741
G1 X214.572 Y81.37 E2.16343
G1 X215.284 Y81.534 E.02291
G1 X215.918 Y81.855 E.0223
G1 X216.49 Y82.367 E.02404
G1 X216.856 Y82.88 E.01976
G1 X217.182 Y83.855 E.03226
G1 X217.204 Y86.186 E.07309
G1 X216.971 Y87.06 E.02836
G1 X216.663 Y87.607 E.01968
G1 X215.919 Y88.334 E.03261
G1 X215.203 Y88.696 E.02516
G1 X215.203 Y122.993 E1.07534
G1 X214.975 Y123.85 E.02781
G1 X214.675 Y124.398 E.01961
G1 X214.072 Y125.015 E.02703
G1 X213.717 Y125.265 E.01363
G1 X212.578 Y125.623 E.03741
G1 X147.578 Y125.623 E2.03805
G1 X146.681 Y125.379 E.02914
G1 X146.173 Y125.095 E.01826
G1 X145.534 Y124.466 E.0281
G1 X145.281 Y124.088 E.01428
G1 X144.947 Y122.999 E.03571
G1 X144.947 Y88.698 E1.07547
G1 X144.171 Y88.29 E.02749
G1 X143.452 Y87.56 E.03214
G1 X143.181 Y87.09 E.01701
G1 X142.901 Y87.165 E.00908
G1 X142.901 Y108.806 E.67854
G1 X142.673 Y109.664 E.02785
M73 P0 R309
G1 X142.403 Y110.171 E.01801
G1 X141.77 Y110.827 E.02857
G1 X141.365 Y111.103 E.01538
G1 X140.333 Y111.427 E.0339
G1 X66.475 Y111.436 E2.31576
G1 X65.617 Y111.208 E.02785
G1 X65.11 Y110.937 E.01801
G1 X64.453 Y110.304 E.02862
G1 X64.203 Y109.949 E.01361
G1 X63.845 Y108.811 E.03741
G1 X63.845 Y67.81 E1.28556
G1 X64.073 Y66.952 E.02785
G1 X64.344 Y66.445 E.01801
G1 X64.901 Y65.867 E.02516
M204 S1000
G1 X65.169 Y66.13 F10800
M204 S800
G1 F1200
G1 X65.233 Y66.065 E.00286
G1 X65.523 Y65.864 E.01106
G1 X66.499 Y65.557 E.03208
G1 X140.248 Y65.56 E2.31234
G1 X140.772 Y65.672 E.01681
G1 X141.3 Y65.912 E.01817
G1 X141.908 Y66.433 E.0251
G1 X142.312 Y67.064 E.02351
G1 X142.524 Y67.836 E.0251
G1 X142.524 Y108.78 E1.28377
G1 X142.316 Y109.542 E.02478
G1 X142.085 Y109.967 E.01515
G1 X141.513 Y110.551 E.02562
G1 X141.223 Y110.752 E.01106
G1 X140.247 Y111.059 E.03208
G1 X66.501 Y111.059 E2.31227
G1 X65.739 Y110.85 E.02478
G1 X65.314 Y110.619 E.01515
G1 X64.73 Y110.048 E.02562
G1 X64.529 Y109.758 E.01106
G1 X64.222 Y108.782 E.03207
G1 X64.222 Y67.836 E1.28384
G1 X64.431 Y67.074 E.02478
G1 X64.662 Y66.649 E.01515
G1 X65.127 Y66.173 E.02088
M204 S1000
G1 X65.394 Y66.438 F10800
M204 S800
G1 F1200
G1 X65.487 Y66.345 E.00413
G1 X65.712 Y66.191 E.00855
G1 X66.528 Y65.934 E.02682
G1 X140.226 Y65.938 E2.31077
G1 X140.67 Y66.035 E.01424
M73 Q0 S313
G1 X141.116 Y66.242 E.01541
G1 X141.639 Y66.699 E.02178
G1 X141.958 Y67.194 E.01847
G1 X142.147 Y67.863 E.02179
G1 X142.147 Y108.753 E1.28209
G1 X141.959 Y109.417 E.02163
G1 X141.769 Y109.759 E.01229
G1 X141.26 Y110.271 E.02264
G1 X141.034 Y110.425 E.00855
G1 X140.219 Y110.682 E.02682
G1 X66.528 Y110.682 E2.31052
G1 X65.864 Y110.494 E.02163
G1 X65.522 Y110.304 E.01229
G1 X65.01 Y109.794 E.02264
G1 X64.856 Y109.569 E.00855
G1 X64.599 Y108.753 E.02682
G1 X64.599 Y67.863 E1.2821
G1 X64.787 Y67.199 E.02163
G1 X64.977 Y66.856 E.01229
G1 X65.351 Y66.481 E.01662
M204 S1000
G1 X65.615 Y66.748 F10800
M204 S800
G1 F1200
G1 X65.737 Y66.627 E.00539
G1 X65.898 Y66.52 E.00606
G1 X66.557 Y66.311 E.02167
G1 X140.204 Y66.315 E2.30915
G1 X140.564 Y66.398 E.01157
M73 P1 R309
M73 Q1 S313
G1 X140.929 Y66.57 E.01266
G1 X141.369 Y66.962 E.01848
G1 X141.604 Y67.327 E.01362
G1 X141.77 Y67.891 E.01841
G1 X141.77 Y108.725 E1.28033
G1 X141.605 Y109.287 E.01838
G1 X141.455 Y109.548 E.00942
G1 X141.009 Y109.989 E.01967
G1 X140.848 Y110.096 E.00606
G1 X140.189 Y110.305 E.02167
G1 X66.556 Y110.305 E2.30873
G1 X65.994 Y110.139 E.01838
