; generated by PrusaSlicer 2.4.1+linux-x64-GTK3 on 2022-04-19 at 09:10:21 UTC

; 

; external perimeters extrusion width = 0.45mm
; perimeters extrusion width = 0.45mm
; infill extrusion width = 0.45mm
; solid infill extrusion width = 0.45mm
; top infill extrusion width = 0.40mm
; first layer extrusion width = 0.42mm

M73 P0 R27
M73 Q0 S27
M201 X1000 Y1000 Z200 E5000 ; sets maximum accelerations, mm/sec^2
M203 X200 Y200 Z12 E120 ; sets maximum feedrates, mm / sec
M204 P1250 R1250 T1250 ; sets acceleration (P, T) and retract acceleration (R), mm/sec^2
M205 X8.00 Y8.00 Z0.40 E4.50 ; sets the jerk limits, mm/sec
M205 S0 T0 ; sets the minimum extruding and travel feed rate, mm/sec
M107
;TYPE:Custom
M862.3 P "MK3S" ; printer model check
M862.1 P0.4 ; nozzle diameter check
M115 U3.10.1 ; tell printer latest fw version
G90 ; use absolute coordinates
M83 ; extruder relative mode
M104 S215 ; set extruder temp
M140 S60 ; set bed temp
M190 S60 ; wait for bed temp
M109 S215 ; wait for extruder temp
G28 W ; home all without mesh bed level
G80 ; mesh bed leveling
G1 Z0.2 F720
G1 Y-3 F1000 ; go outside print area
G92 E0
G1 X60 E9 F1000 ; intro line
G1 X100 E12.5 F1000 ; intro line
G92 E0
M221 S95

; Don't change E values below. Excessive value can damage the printer.

M907 E538 ; set extruder motor current
G21 ; set units to millimeters
G90 ; use absolute coordinates
M83 ; use relative distances for extrusion
M900 K0.05 ; Filament gcode LA 1.5
M900 K30 ; Filament gcode LA 1.0
M107
;LAYER_CHANGE
;Z:0.2
;HEIGHT:0.2
;BEFORE_LAYER_CHANGE
G92 E0.0
;0.2


G1 E-.8 F2100
G1 Z.4 F720
;AFTER_LAYER_CHANGE
;0.2
G1 X83.019 Y82.157 F10800
G1 Z.2 F720
G1 E.8 F2100
M204 S800
;TYPE:Skirt/Brim
;WIDTH:0.42
G1 F1200
G1 X86.007 Y79.169 E.13247
G1 X87.688 Y78.473 E.05704
G1 X162.312 Y78.473 E2.33981
G1 X163.993 Y79.169 E.05704
G1 X166.981 Y82.157 E.13247
G1 X167.677 Y83.838 E.05704
G1 X167.677 Y126.162 E1.32707
G1 X166.981 Y127.843 E.05704
G1 X163.993 Y130.831 E.13247
G1 X162.312 Y131.527 E.05704
G1 X87.688 Y131.527 E2.33981
G1 X86.007 Y130.831 E.05704
M73 P1 R27
M73 Q1 S27
G1 X83.019 Y127.843 E.13247
G1 X82.323 Y126.162 E.05704
G1 X82.323 Y83.838 E1.32707
G1 X82.996 Y82.212 E.05516
M204 S1000
;WIPE_START
G1 F8640
G1 X85.311 Y79.872 E-.76
;WIPE_END
G1 E-.04 F2100
G1 Z.6 F720
G1 X85.645 Y83.531 F10800
G1 Z.2 F720
G1 E.8 F2100
M204 S800
G1 F1200
G1 X85.759 Y83.3 E.00808
G1 X86.696 Y82.269 E.04366
G1 X87.381 Y81.761 E.02674
G1 X89.353 Y81.137 E.06487
G1 X160.589 Y81.14 E2.23356
G1 X161.61 Y81.334 E.03256
M73 P1 R26
G1 X162.588 Y81.75 E.03333
G1 X163.712 Y82.646 E.04508
G1 X164.605 Y83.984 E.05044
G1 X165.013 Y85.529 E.05011
G1 X165.013 Y124.468 E1.22091
G1 X164.699 Y125.78 E.04231
G1 X164.241 Y126.7 E.03223
G1 X163.304 Y127.731 E.04366
G1 X162.619 Y128.239 E.02674
G1 X160.647 Y128.863 E.06486
G1 X89.382 Y128.863 E2.23446
G1 X88.07 Y128.549 E.04231
G1 X87.15 Y128.091 E.03223
G1 X86.119 Y127.154 E.04366
G1 X85.611 Y126.469 E.02674
G1 X84.987 Y124.497 E.06486
G1 X84.987 Y85.532 E1.22172
G1 X85.301 Y84.22 E.04231
M73 P2 R26
G1 X85.618 Y83.584 E.02226
M204 S1000
M73 Q2 S27
G1 X85.953 Y83.753 F10800
M204 S800
G1 F1200
G1 X86.084 Y83.493 E.00912
G1 X86.961 Y82.538 E.04065
G1 X87.579 Y82.084 E.02407
G1 X89.382 Y81.514 E.05929
G1 X160.571 Y81.517 E2.23208
G1 X161.517 Y81.7 E.03023
G1 X162.415 Y82.086 E.03062
G1 X163.453 Y82.921 E.0418
G1 X164.249 Y84.112 E.0449
G1 X164.636 Y85.554 E.04682
G1 X164.636 Y124.445 E1.2194
G1 X164.338 Y125.669 E.03951
G1 X163.916 Y126.507 E.0294
G1 X163.039 Y127.462 E.04065
G1 X162.421 Y127.916 E.02407
G1 X160.618 Y128.486 E.05929
G1 X89.405 Y128.486 E2.23283
G1 X88.181 Y128.188 E.03951
G1 X87.343 Y127.766 E.0294
G1 X86.388 Y126.889 E.04065
G1 X85.934 Y126.271 E.02407
G1 X85.364 Y124.468 E.05929
G1 X85.364 Y85.555 E1.22009
G1 X85.662 Y84.331 E.03951
G1 X85.926 Y83.807 E.0184
M204 S1000
G1 X86.26 Y83.977 F10800
M204 S800
G1 F1200
G1 X86.407 Y83.689 E.01015
G1 X87.224 Y82.809 E.03764
G1 X87.776 Y82.406 E.02142
G1 X89.411 Y81.891 E.05375
G1 X160.552 Y81.894 E2.23059
G1 X161.424 Y82.066 E.02786
M73 Q2 S26
G1 X162.24 Y82.421 E.0279
G1 X163.193 Y83.195 E.03848
G1 X163.917 Y84.293 E.04126
M73 P3 R26
G1 X164.259 Y85.578 E.0417
G1 X164.259 Y124.421 E1.2179
G1 X163.977 Y125.556 E.03667
M73 Q3 S26
G1 X163.593 Y126.311 E.02656
G1 X162.776 Y127.191 E.03764
G1 X162.224 Y127.594 E.02142
G1 X160.589 Y128.109 E.05375
G1 X89.429 Y128.109 E2.2312
G1 X88.294 Y127.827 E.03667
G1 X87.539 Y127.443 E.02656
G1 X86.659 Y126.626 E.03764
G1 X86.256 Y126.074 E.02142
G1 X85.741 Y124.439 E.05375
G1 X85.741 Y85.579 E1.21845
G1 X86.023 Y84.444 E.03667
G1 X86.233 Y84.031 E.01453
M204 S1000
G1 X86.566 Y84.203 F10800
M204 S800
G1 F1200
G1 X86.73 Y83.886 E.01118
G1 X87.486 Y83.081 E.03463
G1 X87.972 Y82.73 E.01879
G1 X89.44 Y82.268 E.04825
G1 X160.533 Y82.271 E2.22909
G1 X161.329 Y82.431 E.02545
G1 X162.064 Y82.755 E.02518
G1 X162.93 Y83.467 E.03516
G1 X163.585 Y84.473 E.03763
G1 X163.882 Y85.602 E.03663
G1 X163.882 Y124.398 E1.2164
G1 X163.617 Y125.442 E.03378
G1 X163.27 Y126.114 E.02372
G1 X162.514 Y126.919 E.03463
G1 X162.028 Y127.27 E.01879
G1 X160.561 Y127.732 E.04825
G1 X89.452 Y127.732 E2.22955
G1 X88.408 Y127.467 E.03378
M73 P4 R26
M73 Q4 S26
G1 X87.736 Y127.12 E.02372
G1 X86.931 Y126.364 E.03463
G1 X86.58 Y125.878 E.01879
G1 X86.118 Y124.411 E.04825
G1 X86.118 Y85.602 E1.2168
G1 X86.383 Y84.558 E.03378
G1 X86.539 Y84.256 E.01066
M204 S1000
G1 X86.87 Y84.43 F10800
M204 S800
G1 F1200
G1 X87.051 Y84.085 E.0122
G1 X87.746 Y83.354 E.03162
G1 X88.166 Y83.054 E.01619
G1 X89.468 Y82.645 E.0428
G1 X160.514 Y82.648 E2.2276
G1 X161.196 Y82.785 E.02178
G1 X161.887 Y83.089 E.02369
G1 X162.667 Y83.738 E.03181
G1 X163.229 Y84.6 E.03225
G1 X163.505 Y85.628 E.03337
G1 X163.505 Y124.373 E1.21484
G1 X163.258 Y125.325 E.03084
G1 X162.949 Y125.915 E.02087
G1 X162.254 Y126.646 E.03162
G1 X161.834 Y126.946 E.01619
G1 X160.532 Y127.355 E.0428
G1 X89.477 Y127.355 E2.22788
G1 X88.525 Y127.108 E.03084
G1 X87.935 Y126.799 E.02087
G1 X87.204 Y126.104 E.03162
G1 X86.904 Y125.684 E.01619
G1 X86.495 Y124.382 E.0428
G1 X86.495 Y85.627 E1.21513
G1 X86.742 Y84.675 E.03084
G1 X86.842 Y84.483 E.00679
M204 S1000
G1 X87.172 Y84.659 F10800
M204 S800
G1 F1200
G1 X87.371 Y84.287 E.01322
G1 X88.004 Y83.63 E.02862
G1 X88.359 Y83.38 E.01361
G1 X89.497 Y83.022 E.03741
G1 X160.495 Y83.026 E2.22609
G1 X161.099 Y83.15 E.01933
M73 P5 R25
M73 Q5 S26
G1 X161.708 Y83.422 E.02093
G1 X162.401 Y84.007 E.02843
G1 X162.895 Y84.778 E.0287
G1 X163.128 Y85.652 E.02837
G1 X163.128 Y124.348 E1.21328
G1 X162.9 Y125.206 E.02785
G1 X162.629 Y125.713 E.01801
G1 X161.996 Y126.37 E.02862
G1 X161.641 Y126.62 E.01361
G1 X160.503 Y126.978 E.03741
G1 X89.502 Y126.978 E2.22619
G1 X88.644 Y126.75 E.02785
G1 X88.137 Y126.479 E.01801
G1 X87.48 Y125.846 E.02862
G1 X87.23 Y125.491 E.01361
G1 X86.872 Y124.353 E.03741
G1 X86.872 Y85.652 E1.21344
G1 X87.1 Y84.794 E.02785
G1 X87.144 Y84.712 E.00291
M204 S1000
G1 X87.472 Y84.89 F10800
M204 S800
G1 F1200
G1 X87.688 Y84.491 E.01424
G1 X88.26 Y83.907 E.02562
G1 X88.55 Y83.706 E.01106
G1 X89.526 Y83.399 E.03208
G1 X160.474 Y83.403 E2.22455
G1 X160.999 Y83.514 E.01681
G1 X161.527 Y83.754 E.01817
G1 X162.134 Y84.275 E.0251
G1 X162.539 Y84.906 E.02351
G1 X162.751 Y85.678 E.0251
G1 X162.751 Y124.322 E1.21166
G1 X162.542 Y125.084 E.02478
M73 P6 R25
G1 X162.312 Y125.509 E.01515
G1 X161.74 Y126.093 E.02562
G1 X161.45 Y126.294 E.01106
G1 X160.474 Y126.601 E.03208
G1 X89.528 Y126.601 E2.22447
G1 X88.766 Y126.392 E.02478
M73 Q6 S26
G1 X88.341 Y126.162 E.01515
G1 X87.757 Y125.59 E.02562
G1 X87.556 Y125.3 E.01106
G1 X87.249 Y124.324 E.03207
G1 X87.249 Y85.678 E1.21173
G1 X87.449 Y84.945 E.02381
M204 S1000
G1 X87.812 Y85.048 F10800
M204 S800
G1 F1200
G1 X88.004 Y84.699 E.01251
G1 X88.514 Y84.187 E.02264
G1 X88.739 Y84.033 E.00855
G1 X89.555 Y83.776 E.02682
G1 X160.453 Y83.78 E2.22298
G1 X160.897 Y83.877 E.01424
M73 Q6 S25
G1 X161.343 Y84.084 E.01541
G1 X161.866 Y84.541 E.02178
G1 X162.185 Y85.036 E.01847
G1 X162.374 Y85.705 E.02179
G1 X162.374 Y124.295 E1.20997
G1 X162.186 Y124.959 E.02163
G1 X161.996 Y125.301 E.01229
G1 X161.486 Y125.813 E.02264
G1 X161.261 Y125.967 E.00855
G1 X160.445 Y126.224 E.02682
G1 X89.555 Y126.224 E2.22273
G1 X88.891 Y126.036 E.02163
G1 X88.549 Y125.846 E.01229
G1 X88.037 Y125.336 E.02264
G1 X87.883 Y125.111 E.00855
G1 X87.626 Y124.295 E.02682
G1 X87.626 Y85.705 E1.20998
G1 X87.796 Y85.106 E.01952
M204 S1000
M73 P7 R25
M73 Q7 S25
G1 X88.156 Y85.212 F10800
M204 S800
G1 F1200
G1 X88.318 Y84.91 E.01074
G1 X88.764 Y84.469 E.01967
G1 X88.925 Y84.362 E.00606
G1 X89.584 Y84.153 E.02167
G1 X160.431 Y84.157 E2.22136
G1 X160.791 Y84.24 E.01157
G1 X161.156 Y84.412 E.01266
G1 X161.596 Y84.804 E.01848
G1 X161.831 Y85.17 E.01362
G1 X161.997 Y85.733 E.01841
G1 X161.997 Y124.267 E1.20822
G1 X161.831 Y124.83 E.01838
G1 X161.682 Y125.09 E.00942
G1 X161.236 Y125.531 E.01967
G1 X161.075 Y125.638 E.00606
G1 X160.416 Y125.847 E.02167
G1 X89.583 Y125.847 E2.22093
G1 X89.02 Y125.681 E.01838
G1 X88.76 Y125.532 E.00942
G1 X88.319 Y125.086 E.01967
G1 X88.212 Y124.925 E.00606
G1 X88.003 Y124.266 E.02167
G1 X88.003 Y85.733 E1.20819
G1 X88.139 Y85.269 E.01515
M204 S1000
G1 X88.498 Y85.38 F10800
M204 S800
G1 F1200
G1 X88.521 Y85.305 E.00246
G1 X88.628 Y85.125 E.00656
G1 X89.011 Y84.754 E.01672
G1 X89.107 Y84.693 E.00358
G1 X89.613 Y84.53 E.01667
G1 X160.409 Y84.534 E2.21975
G1 X160.647 Y84.589 E.00767
M73 P8 R25
G1 X160.968 Y84.741 E.01111
G1 X161.323 Y85.065 E.01508
G1 X161.479 Y85.307 E.00902
G1 X161.62 Y85.762 E.01495
G1 X161.62 Y124.238 E1.20636
G1 X161.479 Y124.695 E.015
M73 Q8 S25
G1 X161.372 Y124.875 E.00656
G1 X160.989 Y125.246 E.01672
G1 X160.893 Y125.307 E.00358
G1 X160.387 Y125.47 E.01667
G1 X89.612 Y125.47 E2.21908
G1 X89.155 Y125.329 E.015
G1 X88.975 Y125.222 E.00656
G1 X88.604 Y124.839 E.01672
G1 X88.543 Y124.743 E.00358
G1 X88.38 Y124.237 E.01667
G1 X88.38 Y85.762 E1.20633
G1 X88.481 Y85.437 E.01066
M204 S1000
G1 X88.836 Y85.554 F10800
M204 S800
G1 F1200
G1 X88.871 Y85.448 E.00352
G1 X88.934 Y85.347 E.00372
G1 X89.253 Y85.044 E.0138
G1 X89.644 Y84.907 E.01299
G1 X160.387 Y84.911 E2.21809
G1 X160.504 Y84.938 E.00377
G1 X160.778 Y85.068 E.0095
G1 X161.047 Y85.323 E.0116
G1 X161.13 Y85.45 E.00476
G1 X161.243 Y85.794 E.01136
G1 X161.243 Y124.206 E1.20438
G1 X161.129 Y124.552 E.01143
M73 P8 R24
G1 X161.066 Y124.653 E.00372
G1 X160.747 Y124.956 E.0138
G1 X160.356 Y125.093 E.01299
G1 X89.644 Y125.093 E2.21712
G1 X89.298 Y124.979 E.01143
M73 P9 R24
G1 X89.197 Y124.916 E.00372
G1 X88.894 Y124.597 E.0138
G1 X88.757 Y124.206 E.01299
G1 X88.757 Y85.794 E1.20437
G1 X88.817 Y85.611 E.00603
M204 S1000
M73 Q9 S25
G1 X89.168 Y85.737 F10800
M204 S800
G1 F1200
G1 X89.232 Y85.578 E.00537
G1 X89.466 Y85.361 E.01002
G1 X89.679 Y85.284 E.00709
G1 X160.335 Y85.284 E2.21536
G1 X160.585 Y85.394 E.00856
G1 X160.784 Y85.602 E.00902
G1 X160.866 Y85.829 E.00757
G1 X160.866 Y124.171 E1.20218
G1 X160.784 Y124.398 E.00757
G1 X160.534 Y124.639 E.0109
G1 X160.321 Y124.716 E.00709
G1 X89.679 Y124.716 E2.21492
G1 X89.452 Y124.634 E.00757
G1 X89.211 Y124.384 E.0109
G1 X89.134 Y124.171 E.00709
G1 X89.134 Y85.829 E1.20218
G1 X89.147 Y85.793 E.0012
M204 S1000
G1 X89.511 Y85.871 F10800
M204 S800
G1 F1200
G1 X89.54 Y85.802 E.00235
G1 X89.652 Y85.69 E.00495
G1 X89.721 Y85.661 E.00235
G1 X160.279 Y85.661 E2.21229
G1 X160.348 Y85.69 E.00235
M73 P10 R24
G1 X160.46 Y85.802 E.00495
G1 X160.489 Y85.871 E.00235
G1 X160.489 Y124.129 E1.19955
G1 X160.46 Y124.198 E.00235
M73 Q10 S25
G1 X160.348 Y124.31 E.00495
G1 X160.279 Y124.339 E.00235
G1 X89.721 Y124.339 E2.21229
G1 X89.652 Y124.31 E.00235
M73 Q10 S24
G1 X89.54 Y124.198 E.00495
G1 X89.511 Y124.129 E.00235
G1 X89.511 Y85.931 E1.19767
M204 S1000
; printing object wall-mount.stl id:0 copy 0
G1 X90.01 Y86.16 F10800
M204 S800
;TYPE:External perimeter
G1 F1200
G1 X159.99 Y86.16 E2.19417
G1 X159.99 Y123.84 E1.18143
G1 X90.01 Y123.84 E2.19417
G1 X90.01 Y86.22 E1.17955
M204 S1000
M73 P11 R24
G1 X90.405 Y86.226 F10800
M73 Q11 S24
G1 X90.387 Y86.537
M204 S800
;TYPE:Perimeter
G1 F1200
G1 X159.613 Y86.537 E2.17053
G1 X159.613 Y123.463 E1.15778
G1 X90.387 Y123.463 E2.17053
G1 X90.387 Y86.597 E1.1559
M204 S1000
;WIPE_START
G1 F8640
G1 X93.679 Y86.594 E-.76
;WIPE_END
G1 E-.04 F2100
G1 Z.6 F720
G1 X159.5 Y87.414 F10800
G1 Z.2 F720
G1 E.8 F2100
M204 S800
;TYPE:Solid infill
;WIDTH:0.420667
G1 F1200
G1 X158.906 Y86.82 E.02639
G1 X158.372 Y86.82 E.01678
G1 X159.33 Y87.778 E.04258
G1 X159.33 Y88.313 E.01678
G1 X157.837 Y86.82 E.06631
G1 X157.303 Y86.82 E.01678
G1 X159.33 Y88.847 E.09004
G1 X159.33 Y89.381 E.01678
G1 X156.769 Y86.82 E.11377
G1 X156.235 Y86.82 E.01678
G1 X159.33 Y89.915 E.1375
G1 X159.33 Y90.449 E.01678
G1 X155.701 Y86.82 E.16123
G1 X155.166 Y86.82 E.01678
G1 X159.33 Y90.984 E.18496
G1 X159.33 Y91.518 E.01678
G1 X154.632 Y86.82 E.20869
G1 X154.098 Y86.82 E.01678
G1 X159.33 Y92.052 E.23242
G1 X159.33 Y92.586 E.01678
M73 P12 R24
G1 X153.564 Y86.82 E.25615
G1 X153.029 Y86.82 E.01678
G1 X159.33 Y93.121 E.27988
G1 X159.33 Y93.655 E.01678
G1 X152.495 Y86.82 E.30361
G1 X151.961 Y86.82 E.01678
G1 X159.33 Y94.189 E.32734
G1 X159.33 Y94.723 E.01678
G1 X151.427 Y86.82 E.35107
G1 X150.893 Y86.82 E.01678
M73 Q12 S24
G1 X159.33 Y95.257 E.3748
G1 X159.33 Y95.792 E.01678
G1 X150.358 Y86.82 E.39853
G1 X149.824 Y86.82 E.01678
G1 X159.33 Y96.326 E.42226
G1 X159.33 Y96.86 E.01678
G1 X149.29 Y86.82 E.44599
G1 X148.756 Y86.82 E.01678
G1 X159.33 Y97.394 E.46972
G1 X159.33 Y97.928 E.01678
M73 P12 R23
G1 X148.222 Y86.82 E.49345
G1 X147.687 Y86.82 E.01678
G1 X159.33 Y98.463 E.51718
G1 X159.33 Y98.997 E.01678
G1 X147.153 Y86.82 E.54091
G1 X146.619 Y86.82 E.01678
G1 X159.33 Y99.531 E.56464
G1 X159.33 Y100.065 E.01678
G1 X146.085 Y86.82 E.58837
G1 X145.55 Y86.82 E.01678
G1 X159.33 Y100.6 E.6121
G1 X159.33 Y101.134 E.01678
G1 X145.016 Y86.82 E.63583
G1 X144.482 Y86.82 E.01678
G1 X159.33 Y101.668 E.65956
G1 X159.33 Y102.202 E.01678
G1 X143.948 Y86.82 E.68329
G1 X143.414 Y86.82 E.01678
G1 X159.33 Y102.736 E.70702
G1 X159.33 Y103.271 E.01678
G1 X142.879 Y86.82 E.73075
G1 X142.345 Y86.82 E.01678
M73 P13 R23
G1 X159.33 Y103.805 E.75448
G1 X159.33 Y104.339 E.01678
G1 X141.811 Y86.82 E.77821
G1 X141.277 Y86.82 E.01678
M73 Q13 S24
G1 X159.33 Y104.873 E.80194
G1 X159.33 Y105.407 E.01678
G1 X140.743 Y86.82 E.82567
G1 X140.208 Y86.82 E.01678
G1 X159.33 Y105.942 E.84939
G1 X159.33 Y106.476 E.01678
G1 X139.674 Y86.82 E.87312
G1 X139.14 Y86.82 E.01678
G1 X159.33 Y107.01 E.89685
G1 X159.33 Y107.544 E.01678
G1 X138.606 Y86.82 E.92058
G1 X138.071 Y86.82 E.01678
G1 X159.33 Y108.079 E.94431
G1 X159.33 Y108.613 E.01678
M73 Q13 S23
G1 X137.537 Y86.82 E.96804
G1 X137.003 Y86.82 E.01678
G1 X159.33 Y109.147 E.99177
G1 X159.33 Y109.681 E.01678
M73 P14 R23
G1 X136.469 Y86.82 E1.0155
G1 X135.935 Y86.82 E.01678
G1 X159.33 Y110.215 E1.03923
G1 X159.33 Y110.75 E.01678
M73 Q14 S23
G1 X135.4 Y86.82 E1.06296
G1 X134.866 Y86.82 E.01678
G1 X159.33 Y111.284 E1.08669
G1 X159.33 Y111.818 E.01678
G1 X134.332 Y86.82 E1.11042
G1 X133.798 Y86.82 E.01678
G1 X159.33 Y112.352 E1.13415
G1 X159.33 Y112.887 E.01678
G1 X133.263 Y86.82 E1.15788
G1 X132.729 Y86.82 E.01678
G1 X159.33 Y113.421 E1.18161
G1 X159.33 Y113.955 E.01678
G1 X132.195 Y86.82 E1.20534
G1 X131.661 Y86.82 E.01678
M73 P15 R23
G1 X159.33 Y114.489 E1.22907
G1 X159.33 Y115.023 E.01678
G1 X131.127 Y86.82 E1.2528
G1 X130.592 Y86.82 E.01678
M73 Q15 S23
G1 X159.33 Y115.558 E1.27653
G1 X159.33 Y116.092 E.01678
G1 X130.058 Y86.82 E1.30026
G1 X129.524 Y86.82 E.01678
G1 X159.33 Y116.626 E1.32399
G1 X159.33 Y117.16 E.01678
G1 X128.99 Y86.82 E1.34772
G1 X128.456 Y86.82 E.01678
G1 X159.33 Y117.694 E1.37145
G1 X159.33 Y118.229 E.01678
G1 X127.921 Y86.82 E1.39518
G1 X127.387 Y86.82 E.01678
M73 P16 R22
G1 X159.33 Y118.763 E1.41891
G1 X159.33 Y119.297 E.01678
G1 X126.853 Y86.82 E1.44264
G1 X126.319 Y86.82 E.01678
M73 Q16 S23
G1 X159.33 Y119.831 E1.46637
G1 X159.33 Y120.366 E.01678
G1 X125.784 Y86.82 E1.4901
G1 X125.25 Y86.82 E.01678
G1 X159.33 Y120.9 E1.51383
G1 X159.33 Y121.434 E.01678
